P3
255 255
255
0 0 0
1 0 0
2 1 0
3 1 0
4 2 0
5 2 0
6 3 0
7 3 0
8 4 0
9 4 0
10 5 0
11 5 0
12 6 0
13 6 0
14 7 0
15 7 0
16 8 0
17 8 0
18 9 0
19 9 0
20 10 0
21 10 0
22 11 0
23 11 0
24 12 0
25 12 0
26 13 0
27 13 0
28 14 0
29 14 0
30 15 0
31 15 0
32 16 0
33 16 0
34 17 0
35 17 0
36 18 0
37 18 0
38 19 0
39 19 0
40 20 0
41 20 0
42 21 0
43 21 0
44 22 0
45 22 0
46 23 0
47 23 0
48 24 0
49 24 0
50 25 0
51 25 0
52 26 0
53 26 0
54 27 0
55 27 0
56 28 0
57 28 0
58 29 0
59 29 0
60 30 0
61 30 0
62 31 0
63 31 0
64 32 0
65 32 0
66 33 0
67 33 0
68 34 0
69 34 0
70 35 0
71 35 0
72 36 0
73 36 0
74 37 0
75 37 0
76 38 0
77 38 0
78 39 0
79 39 0
80 40 0
81 40 0
82 41 0
83 41 0
84 42 0
85 42 0
86 43 0
87 43 0
88 44 0
89 44 0
90 45 0
91 45 0
92 46 0
93 46 0
94 47 0
95 47 0
96 48 0
97 48 0
98 49 0
99 49 0
100 50 0
101 50 0
102 51 0
103 51 0
104 52 0
105 52 0
106 53 0
107 53 0
108 54 0
109 54 0
110 55 0
111 55 0
112 56 0
113 56 0
114 57 0
115 57 0
116 58 0
117 58 0
118 59 0
119 59 0
120 60 0
121 60 0
122 61 0
123 61 0
124 62 0
125 62 0
126 63 0
127 63 0
128 64 0
129 64 0
130 65 0
131 65 0
132 66 0
133 66 0
134 67 0
135 67 0
136 68 0
137 68 0
138 69 0
139 69 0
140 70 0
141 70 0
142 71 0
143 71 0
144 72 0
145 72 0
146 73 0
147 73 0
148 74 0
149 74 0
150 75 0
151 75 0
152 76 0
153 76 0
154 77 0
155 77 0
156 78 0
157 78 0
158 79 0
159 79 0
160 80 0
161 80 0
162 81 0
163 81 0
164 82 0
165 82 0
166 83 0
167 83 0
168 84 0
169 84 0
170 85 0
171 85 0
172 86 0
173 86 0
174 87 0
175 87 0
176 88 0
177 88 0
178 89 0
179 89 0
180 90 0
181 90 0
182 91 0
183 91 0
184 92 0
185 92 0
186 93 0
187 93 0
188 94 0
189 94 0
190 95 0
191 95 0
192 96 0
193 96 0
194 97 0
195 97 0
196 98 0
197 98 0
198 99 0
199 99 0
200 100 0
201 100 0
202 101 0
203 101 0
204 102 0
205 102 0
206 103 0
207 103 0
208 104 0
209 104 0
210 105 0
211 105 0
212 106 0
213 106 0
214 107 0
215 107 0
216 108 0
217 108 0
218 109 0
219 109 0
220 110 0
221 110 0
222 111 0
223 111 0
224 112 0
225 112 0
226 113 0
227 113 0
228 114 0
229 114 0
230 115 0
231 115 0
232 116 0
233 116 0
234 117 0
235 117 0
236 118 0
237 118 0
238 119 0
239 119 0
240 120 0
241 120 0
242 121 0
243 121 0
244 122 0
245 122 0
246 123 0
247 123 0
248 124 0
249 124 0
250 125 0
251 125 0
252 126 0
253 126 0
254 127 0
0 0 1
1 1 1
2 1 1
3 2 1
4 2 1
5 3 1
6 3 1
7 4 1
8 4 1
9 5 1
10 5 1
11 6 1
12 6 1
13 7 1
14 7 1
15 8 1
16 8 1
17 9 1
18 9 1
19 10 1
20 10 1
21 11 1
22 11 1
23 12 1
24 12 1
25 13 1
26 13 1
27 14 1
28 14 1
29 15 1
30 15 1
31 16 1
32 16 1
33 17 1
34 17 1
35 18 1
36 18 1
37 19 1
38 19 1
39 20 1
40 20 1
41 21 1
42 21 1
43 22 1
44 22 1
45 23 1
46 23 1
47 24 1
48 24 1
49 25 1
50 25 1
51 26 1
52 26 1
53 27 1
54 27 1
55 28 1
56 28 1
57 29 1
58 29 1
59 30 1
60 30 1
61 31 1
62 31 1
63 32 1
64 32 1
65 33 1
66 33 1
67 34 1
68 34 1
69 35 1
70 35 1
71 36 1
72 36 1
73 37 1
74 37 1
75 38 1
76 38 1
77 39 1
78 39 1
79 40 1
80 40 1
81 41 1
82 41 1
83 42 1
84 42 1
85 43 1
86 43 1
87 44 1
88 44 1
89 45 1
90 45 1
91 46 1
92 46 1
93 47 1
94 47 1
95 48 1
96 48 1
97 49 1
98 49 1
99 50 1
100 50 1
101 51 1
102 51 1
103 52 1
104 52 1
105 53 1
106 53 1
107 54 1
108 54 1
109 55 1
110 55 1
111 56 1
112 56 1
113 57 1
114 57 1
115 58 1
116 58 1
117 59 1
118 59 1
119 60 1
120 60 1
121 61 1
122 61 1
123 62 1
124 62 1
125 63 1
126 63 1
127 64 1
128 64 1
129 65 1
130 65 1
131 66 1
132 66 1
133 67 1
134 67 1
135 68 1
136 68 1
137 69 1
138 69 1
139 70 1
140 70 1
141 71 1
142 71 1
143 72 1
144 72 1
145 73 1
146 73 1
147 74 1
148 74 1
149 75 1
150 75 1
151 76 1
152 76 1
153 77 1
154 77 1
155 78 1
156 78 1
157 79 1
158 79 1
159 80 1
160 80 1
161 81 1
162 81 1
163 82 1
164 82 1
165 83 1
166 83 1
167 84 1
168 84 1
169 85 1
170 85 1
171 86 1
172 86 1
173 87 1
174 87 1
175 88 1
176 88 1
177 89 1
178 89 1
179 90 1
180 90 1
181 91 1
182 91 1
183 92 1
184 92 1
185 93 1
186 93 1
187 94 1
188 94 1
189 95 1
190 95 1
191 96 1
192 96 1
193 97 1
194 97 1
195 98 1
196 98 1
197 99 1
198 99 1
199 100 1
200 100 1
201 101 1
202 101 1
203 102 1
204 102 1
205 103 1
206 103 1
207 104 1
208 104 1
209 105 1
210 105 1
211 106 1
212 106 1
213 107 1
214 107 1
215 108 1
216 108 1
217 109 1
218 109 1
219 110 1
220 110 1
221 111 1
222 111 1
223 112 1
224 112 1
225 113 1
226 113 1
227 114 1
228 114 1
229 115 1
230 115 1
231 116 1
232 116 1
233 117 1
234 117 1
235 118 1
236 118 1
237 119 1
238 119 1
239 120 1
240 120 1
241 121 1
242 121 1
243 122 1
244 122 1
245 123 1
246 123 1
247 124 1
248 124 1
249 125 1
250 125 1
251 126 1
252 126 1
253 127 1
254 127 1
0 1 2
1 1 2
2 2 2
3 2 2
4 3 2
5 3 2
6 4 2
7 4 2
8 5 2
9 5 2
10 6 2
11 6 2
12 7 2
13 7 2
14 8 2
15 8 2
16 9 2
17 9 2
18 10 2
19 10 2
20 11 2
21 11 2
22 12 2
23 12 2
24 13 2
25 13 2
26 14 2
27 14 2
28 15 2
29 15 2
30 16 2
31 16 2
32 17 2
33 17 2
34 18 2
35 18 2
36 19 2
37 19 2
38 20 2
39 20 2
40 21 2
41 21 2
42 22 2
43 22 2
44 23 2
45 23 2
46 24 2
47 24 2
48 25 2
49 25 2
50 26 2
51 26 2
52 27 2
53 27 2
54 28 2
55 28 2
56 29 2
57 29 2
58 30 2
59 30 2
60 31 2
61 31 2
62 32 2
63 32 2
64 33 2
65 33 2
66 34 2
67 34 2
68 35 2
69 35 2
70 36 2
71 36 2
72 37 2
73 37 2
74 38 2
75 38 2
76 39 2
77 39 2
78 40 2
79 40 2
80 41 2
81 41 2
82 42 2
83 42 2
84 43 2
85 43 2
86 44 2
87 44 2
88 45 2
89 45 2
90 46 2
91 46 2
92 47 2
93 47 2
94 48 2
95 48 2
96 49 2
97 49 2
98 50 2
99 50 2
100 51 2
101 51 2
102 52 2
103 52 2
104 53 2
105 53 2
106 54 2
107 54 2
108 55 2
109 55 2
110 56 2
111 56 2
112 57 2
113 57 2
114 58 2
115 58 2
116 59 2
117 59 2
118 60 2
119 60 2
120 61 2
121 61 2
122 62 2
123 62 2
124 63 2
125 63 2
126 64 2
127 64 2
128 65 2
129 65 2
130 66 2
131 66 2
132 67 2
133 67 2
134 68 2
135 68 2
136 69 2
137 69 2
138 70 2
139 70 2
140 71 2
141 71 2
142 72 2
143 72 2
144 73 2
145 73 2
146 74 2
147 74 2
148 75 2
149 75 2
150 76 2
151 76 2
152 77 2
153 77 2
154 78 2
155 78 2
156 79 2
157 79 2
158 80 2
159 80 2
160 81 2
161 81 2
162 82 2
163 82 2
164 83 2
165 83 2
166 84 2
167 84 2
168 85 2
169 85 2
170 86 2
171 86 2
172 87 2
173 87 2
174 88 2
175 88 2
176 89 2
177 89 2
178 90 2
179 90 2
180 91 2
181 91 2
182 92 2
183 92 2
184 93 2
185 93 2
186 94 2
187 94 2
188 95 2
189 95 2
190 96 2
191 96 2
192 97 2
193 97 2
194 98 2
195 98 2
196 99 2
197 99 2
198 100 2
199 100 2
200 101 2
201 101 2
202 102 2
203 102 2
204 103 2
205 103 2
206 104 2
207 104 2
208 105 2
209 105 2
210 106 2
211 106 2
212 107 2
213 107 2
214 108 2
215 108 2
216 109 2
217 109 2
218 110 2
219 110 2
220 111 2
221 111 2
222 112 2
223 112 2
224 113 2
225 113 2
226 114 2
227 114 2
228 115 2
229 115 2
230 116 2
231 116 2
232 117 2
233 117 2
234 118 2
235 118 2
236 119 2
237 119 2
238 120 2
239 120 2
240 121 2
241 121 2
242 122 2
243 122 2
244 123 2
245 123 2
246 124 2
247 124 2
248 125 2
249 125 2
250 126 2
251 126 2
252 127 2
253 127 2
254 128 2
0 1 3
1 2 3
2 2 3
3 3 3
4 3 3
5 4 3
6 4 3
7 5 3
8 5 3
9 6 3
10 6 3
11 7 3
12 7 3
13 8 3
14 8 3
15 9 3
16 9 3
17 10 3
18 10 3
19 11 3
20 11 3
21 12 3
22 12 3
23 13 3
24 13 3
25 14 3
26 14 3
27 15 3
28 15 3
29 16 3
30 16 3
31 17 3
32 17 3
33 18 3
34 18 3
35 19 3
36 19 3
37 20 3
38 20 3
39 21 3
40 21 3
41 22 3
42 22 3
43 23 3
44 23 3
45 24 3
46 24 3
47 25 3
48 25 3
49 26 3
50 26 3
51 27 3
52 27 3
53 28 3
54 28 3
55 29 3
56 29 3
57 30 3
58 30 3
59 31 3
60 31 3
61 32 3
62 32 3
63 33 3
64 33 3
65 34 3
66 34 3
67 35 3
68 35 3
69 36 3
70 36 3
71 37 3
72 37 3
73 38 3
74 38 3
75 39 3
76 39 3
77 40 3
78 40 3
79 41 3
80 41 3
81 42 3
82 42 3
83 43 3
84 43 3
85 44 3
86 44 3
87 45 3
88 45 3
89 46 3
90 46 3
91 47 3
92 47 3
93 48 3
94 48 3
95 49 3
96 49 3
97 50 3
98 50 3
99 51 3
100 51 3
101 52 3
102 52 3
103 53 3
104 53 3
105 54 3
106 54 3
107 55 3
108 55 3
109 56 3
110 56 3
111 57 3
112 57 3
113 58 3
114 58 3
115 59 3
116 59 3
117 60 3
118 60 3
119 61 3
120 61 3
121 62 3
122 62 3
123 63 3
124 63 3
125 64 3
126 64 3
127 65 3
128 65 3
129 66 3
130 66 3
131 67 3
132 67 3
133 68 3
134 68 3
135 69 3
136 69 3
137 70 3
138 70 3
139 71 3
140 71 3
141 72 3
142 72 3
143 73 3
144 73 3
145 74 3
146 74 3
147 75 3
148 75 3
149 76 3
150 76 3
151 77 3
152 77 3
153 78 3
154 78 3
155 79 3
156 79 3
157 80 3
158 80 3
159 81 3
160 81 3
161 82 3
162 82 3
163 83 3
164 83 3
165 84 3
166 84 3
167 85 3
168 85 3
169 86 3
170 86 3
171 87 3
172 87 3
173 88 3
174 88 3
175 89 3
176 89 3
177 90 3
178 90 3
179 91 3
180 91 3
181 92 3
182 92 3
183 93 3
184 93 3
185 94 3
186 94 3
187 95 3
188 95 3
189 96 3
190 96 3
191 97 3
192 97 3
193 98 3
194 98 3
195 99 3
196 99 3
197 100 3
198 100 3
199 101 3
200 101 3
201 102 3
202 102 3
203 103 3
204 103 3
205 104 3
206 104 3
207 105 3
208 105 3
209 106 3
210 106 3
211 107 3
212 107 3
213 108 3
214 108 3
215 109 3
216 109 3
217 110 3
218 110 3
219 111 3
220 111 3
221 112 3
222 112 3
223 113 3
224 113 3
225 114 3
226 114 3
227 115 3
228 115 3
229 116 3
230 116 3
231 117 3
232 117 3
233 118 3
234 118 3
235 119 3
236 119 3
237 120 3
238 120 3
239 121 3
240 121 3
241 122 3
242 122 3
243 123 3
244 123 3
245 124 3
246 124 3
247 125 3
248 125 3
249 126 3
250 126 3
251 127 3
252 127 3
253 128 3
254 128 3
0 2 4
1 2 4
2 3 4
3 3 4
4 4 4
5 4 4
6 5 4
7 5 4
8 6 4
9 6 4
10 7 4
11 7 4
12 8 4
13 8 4
14 9 4
15 9 4
16 10 4
17 10 4
18 11 4
19 11 4
20 12 4
21 12 4
22 13 4
23 13 4
24 14 4
25 14 4
26 15 4
27 15 4
28 16 4
29 16 4
30 17 4
31 17 4
32 18 4
33 18 4
34 19 4
35 19 4
36 20 4
37 20 4
38 21 4
39 21 4
40 22 4
41 22 4
42 23 4
43 23 4
44 24 4
45 24 4
46 25 4
47 25 4
48 26 4
49 26 4
50 27 4
51 27 4
52 28 4
53 28 4
54 29 4
55 29 4
56 30 4
57 30 4
58 31 4
59 31 4
60 32 4
61 32 4
62 33 4
63 33 4
64 34 4
65 34 4
66 35 4
67 35 4
68 36 4
69 36 4
70 37 4
71 37 4
72 38 4
73 38 4
74 39 4
75 39 4
76 40 4
77 40 4
78 41 4
79 41 4
80 42 4
81 42 4
82 43 4
83 43 4
84 44 4
85 44 4
86 45 4
87 45 4
88 46 4
89 46 4
90 47 4
91 47 4
92 48 4
93 48 4
94 49 4
95 49 4
96 50 4
97 50 4
98 51 4
99 51 4
100 52 4
101 52 4
102 53 4
103 53 4
104 54 4
105 54 4
106 55 4
107 55 4
108 56 4
109 56 4
110 57 4
111 57 4
112 58 4
113 58 4
114 59 4
115 59 4
116 60 4
117 60 4
118 61 4
119 61 4
120 62 4
121 62 4
122 63 4
123 63 4
124 64 4
125 64 4
126 65 4
127 65 4
128 66 4
129 66 4
130 67 4
131 67 4
132 68 4
133 68 4
134 69 4
135 69 4
136 70 4
137 70 4
138 71 4
139 71 4
140 72 4
141 72 4
142 73 4
143 73 4
144 74 4
145 74 4
146 75 4
147 75 4
148 76 4
149 76 4
150 77 4
151 77 4
152 78 4
153 78 4
154 79 4
155 79 4
156 80 4
157 80 4
158 81 4
159 81 4
160 82 4
161 82 4
162 83 4
163 83 4
164 84 4
165 84 4
166 85 4
167 85 4
168 86 4
169 86 4
170 87 4
171 87 4
172 88 4
173 88 4
174 89 4
175 89 4
176 90 4
177 90 4
178 91 4
179 91 4
180 92 4
181 92 4
182 93 4
183 93 4
184 94 4
185 94 4
186 95 4
187 95 4
188 96 4
189 96 4
190 97 4
191 97 4
192 98 4
193 98 4
194 99 4
195 99 4
196 100 4
197 100 4
198 101 4
199 101 4
200 102 4
201 102 4
202 103 4
203 103 4
204 104 4
205 104 4
206 105 4
207 105 4
208 106 4
209 106 4
210 107 4
211 107 4
212 108 4
213 108 4
214 109 4
215 109 4
216 110 4
217 110 4
218 111 4
219 111 4
220 112 4
221 112 4
222 113 4
223 113 4
224 114 4
225 114 4
226 115 4
227 115 4
228 116 4
229 116 4
230 117 4
231 117 4
232 118 4
233 118 4
234 119 4
235 119 4
236 120 4
237 120 4
238 121 4
239 121 4
240 122 4
241 122 4
242 123 4
243 123 4
244 124 4
245 124 4
246 125 4
247 125 4
248 126 4
249 126 4
250 127 4
251 127 4
252 128 4
253 128 4
254 129 4
0 2 5
1 3 5
2 3 5
3 4 5
4 4 5
5 5 5
6 5 5
7 6 5
8 6 5
9 7 5
10 7 5
11 8 5
12 8 5
13 9 5
14 9 5
15 10 5
16 10 5
17 11 5
18 11 5
19 12 5
20 12 5
21 13 5
22 13 5
23 14 5
24 14 5
25 15 5
26 15 5
27 16 5
28 16 5
29 17 5
30 17 5
31 18 5
32 18 5
33 19 5
34 19 5
35 20 5
36 20 5
37 21 5
38 21 5
39 22 5
40 22 5
41 23 5
42 23 5
43 24 5
44 24 5
45 25 5
46 25 5
47 26 5
48 26 5
49 27 5
50 27 5
51 28 5
52 28 5
53 29 5
54 29 5
55 30 5
56 30 5
57 31 5
58 31 5
59 32 5
60 32 5
61 33 5
62 33 5
63 34 5
64 34 5
65 35 5
66 35 5
67 36 5
68 36 5
69 37 5
70 37 5
71 38 5
72 38 5
73 39 5
74 39 5
75 40 5
76 40 5
77 41 5
78 41 5
79 42 5
80 42 5
81 43 5
82 43 5
83 44 5
84 44 5
85 45 5
86 45 5
87 46 5
88 46 5
89 47 5
90 47 5
91 48 5
92 48 5
93 49 5
94 49 5
95 50 5
96 50 5
97 51 5
98 51 5
99 52 5
100 52 5
101 53 5
102 53 5
103 54 5
104 54 5
105 55 5
106 55 5
107 56 5
108 56 5
109 57 5
110 57 5
111 58 5
112 58 5
113 59 5
114 59 5
115 60 5
116 60 5
117 61 5
118 61 5
119 62 5
120 62 5
121 63 5
122 63 5
123 64 5
124 64 5
125 65 5
126 65 5
127 66 5
128 66 5
129 67 5
130 67 5
131 68 5
132 68 5
133 69 5
134 69 5
135 70 5
136 70 5
137 71 5
138 71 5
139 72 5
140 72 5
141 73 5
142 73 5
143 74 5
144 74 5
145 75 5
146 75 5
147 76 5
148 76 5
149 77 5
150 77 5
151 78 5
152 78 5
153 79 5
154 79 5
155 80 5
156 80 5
157 81 5
158 81 5
159 82 5
160 82 5
161 83 5
162 83 5
163 84 5
164 84 5
165 85 5
166 85 5
167 86 5
168 86 5
169 87 5
170 87 5
171 88 5
172 88 5
173 89 5
174 89 5
175 90 5
176 90 5
177 91 5
178 91 5
179 92 5
180 92 5
181 93 5
182 93 5
183 94 5
184 94 5
185 95 5
186 95 5
187 96 5
188 96 5
189 97 5
190 97 5
191 98 5
192 98 5
193 99 5
194 99 5
195 100 5
196 100 5
197 101 5
198 101 5
199 102 5
200 102 5
201 103 5
202 103 5
203 104 5
204 104 5
205 105 5
206 105 5
207 106 5
208 106 5
209 107 5
210 107 5
211 108 5
212 108 5
213 109 5
214 109 5
215 110 5
216 110 5
217 111 5
218 111 5
219 112 5
220 112 5
221 113 5
222 113 5
223 114 5
224 114 5
225 115 5
226 115 5
227 116 5
228 116 5
229 117 5
230 117 5
231 118 5
232 118 5
233 119 5
234 119 5
235 120 5
236 120 5
237 121 5
238 121 5
239 122 5
240 122 5
241 123 5
242 123 5
243 124 5
244 124 5
245 125 5
246 125 5
247 126 5
248 126 5
249 127 5
250 127 5
251 128 5
252 128 5
253 129 5
254 129 5
0 3 6
1 3 6
2 4 6
3 4 6
4 5 6
5 5 6
6 6 6
7 6 6
8 7 6
9 7 6
10 8 6
11 8 6
12 9 6
13 9 6
14 10 6
15 10 6
16 11 6
17 11 6
18 12 6
19 12 6
20 13 6
21 13 6
22 14 6
23 14 6
24 15 6
25 15 6
26 16 6
27 16 6
28 17 6
29 17 6
30 18 6
31 18 6
32 19 6
33 19 6
34 20 6
35 20 6
36 21 6
37 21 6
38 22 6
39 22 6
40 23 6
41 23 6
42 24 6
43 24 6
44 25 6
45 25 6
46 26 6
47 26 6
48 27 6
49 27 6
50 28 6
51 28 6
52 29 6
53 29 6
54 30 6
55 30 6
56 31 6
57 31 6
58 32 6
59 32 6
60 33 6
61 33 6
62 34 6
63 34 6
64 35 6
65 35 6
66 36 6
67 36 6
68 37 6
69 37 6
70 38 6
71 38 6
72 39 6
73 39 6
74 40 6
75 40 6
76 41 6
77 41 6
78 42 6
79 42 6
80 43 6
81 43 6
82 44 6
83 44 6
84 45 6
85 45 6
86 46 6
87 46 6
88 47 6
89 47 6
90 48 6
91 48 6
92 49 6
93 49 6
94 50 6
95 50 6
96 51 6
97 51 6
98 52 6
99 52 6
100 53 6
101 53 6
102 54 6
103 54 6
104 55 6
105 55 6
106 56 6
107 56 6
108 57 6
109 57 6
110 58 6
111 58 6
112 59 6
113 59 6
114 60 6
115 60 6
116 61 6
117 61 6
118 62 6
119 62 6
120 63 6
121 63 6
122 64 6
123 64 6
124 65 6
125 65 6
126 66 6
127 66 6
128 67 6
129 67 6
130 68 6
131 68 6
132 69 6
133 69 6
134 70 6
135 70 6
136 71 6
137 71 6
138 72 6
139 72 6
140 73 6
141 73 6
142 74 6
143 74 6
144 75 6
145 75 6
146 76 6
147 76 6
148 77 6
149 77 6
150 78 6
151 78 6
152 79 6
153 79 6
154 80 6
155 80 6
156 81 6
157 81 6
158 82 6
159 82 6
160 83 6
161 83 6
162 84 6
163 84 6
164 85 6
165 85 6
166 86 6
167 86 6
168 87 6
169 87 6
170 88 6
171 88 6
172 89 6
173 89 6
174 90 6
175 90 6
176 91 6
177 91 6
178 92 6
179 92 6
180 93 6
181 93 6
182 94 6
183 94 6
184 95 6
185 95 6
186 96 6
187 96 6
188 97 6
189 97 6
190 98 6
191 98 6
192 99 6
193 99 6
194 100 6
195 100 6
196 101 6
197 101 6
198 102 6
199 102 6
200 103 6
201 103 6
202 104 6
203 104 6
204 105 6
205 105 6
206 106 6
207 106 6
208 107 6
209 107 6
210 108 6
211 108 6
212 109 6
213 109 6
214 110 6
215 110 6
216 111 6
217 111 6
218 112 6
219 112 6
220 113 6
221 113 6
222 114 6
223 114 6
224 115 6
225 115 6
226 116 6
227 116 6
228 117 6
229 117 6
230 118 6
231 118 6
232 119 6
233 119 6
234 120 6
235 120 6
236 121 6
237 121 6
238 122 6
239 122 6
240 123 6
241 123 6
242 124 6
243 124 6
244 125 6
245 125 6
246 126 6
247 126 6
248 127 6
249 127 6
250 128 6
251 128 6
252 129 6
253 129 6
254 130 6
0 3 7
1 4 7
2 4 7
3 5 7
4 5 7
5 6 7
6 6 7
7 7 7
8 7 7
9 8 7
10 8 7
11 9 7
12 9 7
13 10 7
14 10 7
15 11 7
16 11 7
17 12 7
18 12 7
19 13 7
20 13 7
21 14 7
22 14 7
23 15 7
24 15 7
25 16 7
26 16 7
27 17 7
28 17 7
29 18 7
30 18 7
31 19 7
32 19 7
33 20 7
34 20 7
35 21 7
36 21 7
37 22 7
38 22 7
39 23 7
40 23 7
41 24 7
42 24 7
43 25 7
44 25 7
45 26 7
46 26 7
47 27 7
48 27 7
49 28 7
50 28 7
51 29 7
52 29 7
53 30 7
54 30 7
55 31 7
56 31 7
57 32 7
58 32 7
59 33 7
60 33 7
61 34 7
62 34 7
63 35 7
64 35 7
65 36 7
66 36 7
67 37 7
68 37 7
69 38 7
70 38 7
71 39 7
72 39 7
73 40 7
74 40 7
75 41 7
76 41 7
77 42 7
78 42 7
79 43 7
80 43 7
81 44 7
82 44 7
83 45 7
84 45 7
85 46 7
86 46 7
87 47 7
88 47 7
89 48 7
90 48 7
91 49 7
92 49 7
93 50 7
94 50 7
95 51 7
96 51 7
97 52 7
98 52 7
99 53 7
100 53 7
101 54 7
102 54 7
103 55 7
104 55 7
105 56 7
106 56 7
107 57 7
108 57 7
109 58 7
110 58 7
111 59 7
112 59 7
113 60 7
114 60 7
115 61 7
116 61 7
117 62 7
118 62 7
119 63 7
120 63 7
121 64 7
122 64 7
123 65 7
124 65 7
125 66 7
126 66 7
127 67 7
128 67 7
129 68 7
130 68 7
131 69 7
132 69 7
133 70 7
134 70 7
135 71 7
136 71 7
137 72 7
138 72 7
139 73 7
140 73 7
141 74 7
142 74 7
143 75 7
144 75 7
145 76 7
146 76 7
147 77 7
148 77 7
149 78 7
150 78 7
151 79 7
152 79 7
153 80 7
154 80 7
155 81 7
156 81 7
157 82 7
158 82 7
159 83 7
160 83 7
161 84 7
162 84 7
163 85 7
164 85 7
165 86 7
166 86 7
167 87 7
168 87 7
169 88 7
170 88 7
171 89 7
172 89 7
173 90 7
174 90 7
175 91 7
176 91 7
177 92 7
178 92 7
179 93 7
180 93 7
181 94 7
182 94 7
183 95 7
184 95 7
185 96 7
186 96 7
187 97 7
188 97 7
189 98 7
190 98 7
191 99 7
192 99 7
193 100 7
194 100 7
195 101 7
196 101 7
197 102 7
198 102 7
199 103 7
200 103 7
201 104 7
202 104 7
203 105 7
204 105 7
205 106 7
206 106 7
207 107 7
208 107 7
209 108 7
210 108 7
211 109 7
212 109 7
213 110 7
214 110 7
215 111 7
216 111 7
217 112 7
218 112 7
219 113 7
220 113 7
221 114 7
222 114 7
223 115 7
224 115 7
225 116 7
226 116 7
227 117 7
228 117 7
229 118 7
230 118 7
231 119 7
232 119 7
233 120 7
234 120 7
235 121 7
236 121 7
237 122 7
238 122 7
239 123 7
240 123 7
241 124 7
242 124 7
243 125 7
244 125 7
245 126 7
246 126 7
247 127 7
248 127 7
249 128 7
250 128 7
251 129 7
252 129 7
253 130 7
254 130 7
0 4 8
1 4 8
2 5 8
3 5 8
4 6 8
5 6 8
6 7 8
7 7 8
8 8 8
9 8 8
10 9 8
11 9 8
12 10 8
13 10 8
14 11 8
15 11 8
16 12 8
17 12 8
18 13 8
19 13 8
20 14 8
21 14 8
22 15 8
23 15 8
24 16 8
25 16 8
26 17 8
27 17 8
28 18 8
29 18 8
30 19 8
31 19 8
32 20 8
33 20 8
34 21 8
35 21 8
36 22 8
37 22 8
38 23 8
39 23 8
40 24 8
41 24 8
42 25 8
43 25 8
44 26 8
45 26 8
46 27 8
47 27 8
48 28 8
49 28 8
50 29 8
51 29 8
52 30 8
53 30 8
54 31 8
55 31 8
56 32 8
57 32 8
58 33 8
59 33 8
60 34 8
61 34 8
62 35 8
63 35 8
64 36 8
65 36 8
66 37 8
67 37 8
68 38 8
69 38 8
70 39 8
71 39 8
72 40 8
73 40 8
74 41 8
75 41 8
76 42 8
77 42 8
78 43 8
79 43 8
80 44 8
81 44 8
82 45 8
83 45 8
84 46 8
85 46 8
86 47 8
87 47 8
88 48 8
89 48 8
90 49 8
91 49 8
92 50 8
93 50 8
94 51 8
95 51 8
96 52 8
97 52 8
98 53 8
99 53 8
100 54 8
101 54 8
102 55 8
103 55 8
104 56 8
105 56 8
106 57 8
107 57 8
108 58 8
109 58 8
110 59 8
111 59 8
0 0 0
0 0 0
0 0 0
0 0 0
0 0 0
0 0 0
0 0 0
0 0 0
0 0 0
0 0 0
0 0 0
0 0 0
0 0 0
0 0 0
0 0 0
0 0 0
0 0 0
0 0 0
0 0 0
0 0 0
0 0 0
0 0 0
0 0 0
0 0 0
0 0 0
0 0 0
0 0 0
0 0 0
0 0 0
0 0 0
0 0 0
143 75 8
144 76 8
145 76 8
146 77 8
147 77 8
148 78 8
149 78 8
150 79 8
151 79 8
152 80 8
153 80 8
154 81 8
155 81 8
156 82 8
157 82 8
158 83 8
159 83 8
160 84 8
161 84 8
162 85 8
163 85 8
164 86 8
165 86 8
166 87 8
167 87 8
168 88 8
169 88 8
170 89 8
171 89 8
172 90 8
173 90 8
174 91 8
175 91 8
176 92 8
177 92 8
178 93 8
179 93 8
180 94 8
181 94 8
182 95 8
183 95 8
184 96 8
185 96 8
186 97 8
187 97 8
188 98 8
189 98 8
190 99 8
191 99 8
192 100 8
193 100 8
194 101 8
195 101 8
196 102 8
197 102 8
198 103 8
199 103 8
200 104 8
201 104 8
202 105 8
203 105 8
204 106 8
205 106 8
206 107 8
207 107 8
208 108 8
209 108 8
210 109 8
211 109 8
212 110 8
213 110 8
214 111 8
215 111 8
216 112 8
217 112 8
218 113 8
219 113 8
220 114 8
221 114 8
222 115 8
223 115 8
224 116 8
225 116 8
226 117 8
227 117 8
228 118 8
229 118 8
230 119 8
231 119 8
232 120 8
233 120 8
234 121 8
235 121 8
236 122 8
237 122 8
238 123 8
239 123 8
240 124 8
241 124 8
242 125 8
243 125 8
244 126 8
245 126 8
246 127 8
247 127 8
248 128 8
249 128 8
250 129 8
251 129 8
252 130 8
253 130 8
254 131 8
0 4 9
1 5 9
2 5 9
3 6 9
4 6 9
5 7 9
6 7 9
7 8 9
8 8 9
9 9 9
10 9 9
11 10 9
12 10 9
13 11 9
14 11 9
15 12 9
16 12 9
17 13 9
18 13 9
19 14 9
20 14 9
21 15 9
22 15 9
23 16 9
24 16 9
25 17 9
26 17 9
27 18 9
28 18 9
29 19 9
30 19 9
31 20 9
32 20 9
33 21 9
34 21 9
35 22 9
36 22 9
37 23 9
38 23 9
39 24 9
40 24 9
41 25 9
42 25 9
43 26 9
44 26 9
45 27 9
46 27 9
47 28 9
48 28 9
49 29 9
50 29 9
51 30 9
52 30 9
53 31 9
54 31 9
55 32 9
56 32 9
57 33 9
58 33 9
59 34 9
60 34 9
61 35 9
62 35 9
63 36 9
64 36 9
65 37 9
66 37 9
67 38 9
68 38 9
69 39 9
70 39 9
71 40 9
72 40 9
73 41 9
74 41 9
75 42 9
76 42 9
77 43 9
78 43 9
79 44 9
80 44 9
81 45 9
82 45 9
83 46 9
84 46 9
85 47 9
86 47 9
87 48 9
88 48 9
89 49 9
90 49 9
91 50 9
92 50 9
93 51 9
94 51 9
95 52 9
96 52 9
97 53 9
98 53 9
99 54 9
100 54 9
101 55 9
102 55 9
103 56 9
104 56 9
105 57 9
0 0 0
0 0 0
0 0 0
0 0 0
0 0 0
0 0 0
0 0 0
0 0 0
0 0 0
0 0 0
0 0 0
0 0 0
0 0 0
0 0 0
0 0 0
0 0 0
0 0 0
0 0 0
0 0 0
0 0 0
0 0 0
0 0 0
0 0 0
0 0 0
0 0 0
0 0 0
0 0 0
0 0 0
0 0 0
0 0 0
0 0 0
0 0 0
0 0 0
0 0 0
0 0 0
0 0 0
0 0 0
0 0 0
0 0 0
0 0 0
0 0 0
0 0 0
0 0 0
149 79 9
150 79 9
151 80 9
152 80 9
153 81 9
154 81 9
155 82 9
156 82 9
157 83 9
158 83 9
159 84 9
160 84 9
161 85 9
162 85 9
163 86 9
164 86 9
165 87 9
166 87 9
167 88 9
168 88 9
169 89 9
170 89 9
171 90 9
172 90 9
173 91 9
174 91 9
175 92 9
176 92 9
177 93 9
178 93 9
179 94 9
180 94 9
181 95 9
182 95 9
183 96 9
184 96 9
185 97 9
186 97 9
187 98 9
188 98 9
189 99 9
190 99 9
191 100 9
192 100 9
193 101 9
194 101 9
195 102 9
196 102 9
197 103 9
198 103 9
199 104 9
200 104 9
201 105 9
202 105 9
203 106 9
204 106 9
205 107 9
206 107 9
207 108 9
208 108 9
209 109 9
210 109 9
211 110 9
212 110 9
213 111 9
214 111 9
215 112 9
216 112 9
217 113 9
218 113 9
219 114 9
220 114 9
221 115 9
222 115 9
223 116 9
224 116 9
225 117 9
226 117 9
227 118 9
228 118 9
229 119 9
230 119 9
231 120 9
232 120 9
233 121 9
234 121 9
235 122 9
236 122 9
237 123 9
238 123 9
239 124 9
240 124 9
241 125 9
242 125 9
243 126 9
244 126 9
245 127 9
246 127 9
247 128 9
248 128 9
249 129 9
250 129 9
251 130 9
252 130 9
253 131 9
254 131 9
0 5 10
1 5 10
2 6 10
3 6 10
4 7 10
5 7 10
6 8 10
7 8 10
8 9 10
9 9 10
10 10 10
11 10 10
12 11 10
13 11 10
14 12 10
15 12 10
16 13 10
17 13 10
18 14 10
19 14 10
20 15 10
21 15 10
22 16 10
23 16 10
24 17 10
25 17 10
26 18 10
27 18 10
28 19 10
29 19 10
30 20 10
31 20 10
32 21 10
33 21 10
34 22 10
35 22 10
36 23 10
37 23 10
38 24 10
39 24 10
40 25 10
41 25 10
42 26 10
43 26 10
44 27 10
45 27 10
46 28 10
47 28 10
48 29 10
49 29 10
50 30 10
51 30 10
52 31 10
53 31 10
54 32 10
55 32 10
56 33 10
57 33 10
58 34 10
59 34 10
60 35 10
61 35 10
62 36 10
63 36 10
64 37 10
65 37 10
66 38 10
67 38 10
68 39 10
69 39 10
70 40 10
71 40 10
72 41 10
73 41 10
74 42 10
75 42 10
76 43 10
77 43 10
78 44 10
79 44 10
80 45 10
81 45 10
82 46 10
83 46 10
84 47 10
85 47 10
86 48 10
87 48 10
88 49 10
89 49 10
90 50 10
91 50 10
92 51 10
93 51 10
94 52 10
95 52 10
96 53 10
97 53 10
98 54 10
99 54 10
100 55 10
0 0 0
0 0 0
0 0 0
0 0 0
0 0 0
0 0 0
0 0 0
0 0 0
0 0 0
0 0 0
0 0 0
0 0 0
0 0 0
0 0 0
0 0 0
0 0 0
0 0 0
0 0 0
0 0 0
0 0 0
0 0 0
0 0 0
0 0 0
0 0 0
0 0 0
0 0 0
0 0 0
0 0 0
0 0 0
0 0 0
0 0 0
0 0 0
0 0 0
0 0 0
0 0 0
0 0 0
0 0 0
0 0 0
0 0 0
0 0 0
0 0 0
0 0 0
0 0 0
0 0 0
0 0 0
0 0 0
0 0 0
0 0 0
0 0 0
0 0 0
0 0 0
0 0 0
0 0 0
154 82 10
155 82 10
156 83 10
157 83 10
158 84 10
159 84 10
160 85 10
161 85 10
162 86 10
163 86 10
164 87 10
165 87 10
166 88 10
167 88 10
168 89 10
169 89 10
170 90 10
171 90 10
172 91 10
173 91 10
174 92 10
175 92 10
176 93 10
177 93 10
178 94 10
179 94 10
180 95 10
181 95 10
182 96 10
183 96 10
184 97 10
185 97 10
186 98 10
187 98 10
188 99 10
189 99 10
190 100 10
191 100 10
192 101 10
193 101 10
194 102 10
195 102 10
196 103 10
197 103 10
198 104 10
199 104 10
200 105 10
201 105 10
202 106 10
203 106 10
204 107 10
205 107 10
206 108 10
207 108 10
208 109 10
209 109 10
210 110 10
211 110 10
212 111 10
213 111 10
214 112 10
215 112 10
216 113 10
217 113 10
218 114 10
219 114 10
220 115 10
221 115 10
222 116 10
223 116 10
224 117 10
225 117 10
226 118 10
227 118 10
228 119 10
229 119 10
230 120 10
231 120 10
232 121 10
233 121 10
234 122 10
235 122 10
236 123 10
237 123 10
238 124 10
239 124 10
240 125 10
241 125 10
242 126 10
243 126 10
244 127 10
245 127 10
246 128 10
247 128 10
248 129 10
249 129 10
250 130 10
251 130 10
252 131 10
253 131 10
254 132 10
0 5 11
1 6 11
2 6 11
3 7 11
4 7 11
5 8 11
6 8 11
7 9 11
8 9 11
9 10 11
10 10 11
11 11 11
12 11 11
13 12 11
14 12 11
15 13 11
16 13 11
17 14 11
18 14 11
19 15 11
20 15 11
21 16 11
22 16 11
23 17 11
24 17 11
25 18 11
26 18 11
27 19 11
28 19 11
29 20 11
30 20 11
31 21 11
32 21 11
33 22 11
34 22 11
35 23 11
36 23 11
37 24 11
38 24 11
39 25 11
40 25 11
41 26 11
42 26 11
43 27 11
44 27 11
45 28 11
46 28 11
47 29 11
48 29 11
49 30 11
50 30 11
51 31 11
52 31 11
53 32 11
54 32 11
55 33 11
56 33 11
57 34 11
58 34 11
59 35 11
60 35 11
61 36 11
62 36 11
63 37 11
64 37 11
65 38 11
66 38 11
67 39 11
68 39 11
69 40 11
70 40 11
71 41 11
72 41 11
73 42 11
74 42 11
75 43 11
76 43 11
77 44 11
78 44 11
79 45 11
80 45 11
81 46 11
82 46 11
83 47 11
84 47 11
85 48 11
86 48 11
87 49 11
88 49 11
89 50 11
90 50 11
91 51 11
92 51 11
93 52 11
94 52 11
95 53 11
96 53 11
0 0 0
0 0 0
0 0 0
0 0 0
0 0 0
0 0 0
0 0 0
0 0 0
0 0 0
0 0 0
0 0 0
0 0 0
0 0 0
0 0 0
0 0 0
0 0 0
0 0 0
0 0 0
0 0 0
0 0 0
0 0 0
0 0 0
0 0 0
0 0 0
0 0 0
0 0 0
0 0 0
0 0 0
0 0 0
0 0 0
0 0 0
0 0 0
0 0 0
0 0 0
0 0 0
0 0 0
0 0 0
0 0 0
0 0 0
0 0 0
0 0 0
0 0 0
0 0 0
0 0 0
0 0 0
0 0 0
0 0 0
0 0 0
0 0 0
0 0 0
0 0 0
0 0 0
0 0 0
0 0 0
0 0 0
0 0 0
0 0 0
0 0 0
0 0 0
0 0 0
0 0 0
158 84 11
159 85 11
160 85 11
161 86 11
162 86 11
163 87 11
164 87 11
165 88 11
166 88 11
167 89 11
168 89 11
169 90 11
170 90 11
171 91 11
172 91 11
173 92 11
174 92 11
175 93 11
176 93 11
177 94 11
178 94 11
179 95 11
180 95 11
181 96 11
182 96 11
183 97 11
184 97 11
185 98 11
186 98 11
187 99 11
188 99 11
189 100 11
190 100 11
191 101 11
192 101 11
193 102 11
194 102 11
195 103 11
196 103 11
197 104 11
198 104 11
199 105 11
200 105 11
201 106 11
202 106 11
203 107 11
204 107 11
205 108 11
206 108 11
207 109 11
208 109 11
209 110 11
210 110 11
211 111 11
212 111 11
213 112 11
214 112 11
215 113 11
216 113 11
217 114 11
218 114 11
219 115 11
220 115 11
221 116 11
222 116 11
223 117 11
224 117 11
225 118 11
226 118 11
227 119 11
228 119 11
229 120 11
230 120 11
231 121 11
232 121 11
233 122 11
234 122 11
235 123 11
236 123 11
237 124 11
238 124 11
239 125 11
240 125 11
241 126 11
242 126 11
243 127 11
244 127 11
245 128 11
246 128 11
247 129 11
248 129 11
249 130 11
250 130 11
251 131 11
252 131 11
253 132 11
254 132 11
0 6 12
1 6 12
2 7 12
3 7 12
4 8 12
5 8 12
6 9 12
7 9 12
8 10 12
9 10 12
10 11 12
11 11 12
12 12 12
13 12 12
14 13 12
15 13 12
16 14 12
17 14 12
18 15 12
19 15 12
20 16 12
21 16 12
22 17 12
23 17 12
24 18 12
25 18 12
26 19 12
27 19 12
28 20 12
29 20 12
30 21 12
31 21 12
32 22 12
33 22 12
34 23 12
35 23 12
36 24 12
37 24 12
38 25 12
39 25 12
40 26 12
41 26 12
42 27 12
43 27 12
44 28 12
45 28 12
46 29 12
47 29 12
48 30 12
49 30 12
50 31 12
51 31 12
52 32 12
53 32 12
54 33 12
55 33 12
56 34 12
57 34 12
58 35 12
59 35 12
60 36 12
61 36 12
62 37 12
63 37 12
64 38 12
65 38 12
66 39 12
67 39 12
68 40 12
69 40 12
70 41 12
71 41 12
72 42 12
73 42 12
74 43 12
75 43 12
76 44 12
77 44 12
78 45 12
79 45 12
80 46 12
81 46 12
82 47 12
83 47 12
84 48 12
85 48 12
86 49 12
87 49 12
88 50 12
89 50 12
90 51 12
91 51 12
92 52 12
0 0 0
0 0 0
0 0 0
0 0 0
0 0 0
0 0 0
0 0 0
0 0 0
0 0 0
0 0 0
0 0 0
0 0 0
0 0 0
0 0 0
0 0 0
0 0 0
0 0 0
0 0 0
0 0 0
0 0 0
0 0 0
0 0 0
0 0 0
0 0 0
0 0 0
0 0 0
0 0 0
0 0 0
0 0 0
0 0 0
0 0 0
0 0 0
0 0 0
0 0 0
0 0 0
0 0 0
0 0 0
0 0 0
0 0 0
0 0 0
0 0 0
0 0 0
0 0 0
0 0 0
0 0 0
0 0 0
0 0 0
0 0 0
0 0 0
0 0 0
0 0 0
0 0 0
0 0 0
0 0 0
0 0 0
0 0 0
0 0 0
0 0 0
0 0 0
0 0 0
0 0 0
0 0 0
0 0 0
0 0 0
0 0 0
0 0 0
0 0 0
0 0 0
0 0 0
162 87 12
163 87 12
164 88 12
165 88 12
166 89 12
167 89 12
168 90 12
169 90 12
170 91 12
171 91 12
172 92 12
173 92 12
174 93 12
175 93 12
176 94 12
177 94 12
178 95 12
179 95 12
180 96 12
181 96 12
182 97 12
183 97 12
184 98 12
185 98 12
186 99 12
187 99 12
188 100 12
189 100 12
190 101 12
191 101 12
192 102 12
193 102 12
194 103 12
195 103 12
196 104 12
197 104 12
198 105 12
199 105 12
200 106 12
201 106 12
202 107 12
203 107 12
204 108 12
205 108 12
206 109 12
207 109 12
208 110 12
209 110 12
210 111 12
211 111 12
212 112 12
213 112 12
214 113 12
215 113 12
216 114 12
217 114 12
218 115 12
219 115 12
220 116 12
221 116 12
222 117 12
223 117 12
224 118 12
225 118 12
226 119 12
227 119 12
228 120 12
229 120 12
230 121 12
231 121 12
232 122 12
233 122 12
234 123 12
235 123 12
236 124 12
237 124 12
238 125 12
239 125 12
240 126 12
241 126 12
242 127 12
243 127 12
244 128 12
245 128 12
246 129 12
247 129 12
248 130 12
249 130 12
250 131 12
251 131 12
252 132 12
253 132 12
254 133 12
0 6 13
1 7 13
2 7 13
3 8 13
4 8 13
5 9 13
6 9 13
7 10 13
8 10 13
9 11 13
10 11 13
11 12 13
12 12 13
13 13 13
14 13 13
15 14 13
16 14 13
17 15 13
18 15 13
19 16 13
20 16 13
21 17 13
22 17 13
23 18 13
24 18 13
25 19 13
26 19 13
27 20 13
28 20 13
29 21 13
30 21 13
31 22 13
32 22 13
33 23 13
34 23 13
35 24 13
36 24 13
37 25 13
38 25 13
39 26 13
40 26 13
41 27 13
42 27 13
43 28 13
44 28 13
45 29 13
46 29 13
47 30 13
48 30 13
49 31 13
50 31 13
51 32 13
52 32 13
53 33 13
54 33 13
55 34 13
56 34 13
57 35 13
58 35 13
59 36 13
60 36 13
61 37 13
62 37 13
63 38 13
64 38 13
65 39 13
66 39 13
67 40 13
68 40 13
69 41 13
70 41 13
71 42 13
72 42 13
73 43 13
74 43 13
75 44 13
76 44 13
77 45 13
78 45 13
79 46 13
80 46 13
81 47 13
82 47 13
83 48 13
84 48 13
85 49 13
86 49 13
87 50 13
88 50 13
89 51 13
0 0 0
0 0 0
0 0 0
0 0 0
0 0 0
0 0 0
0 0 0
0 0 0
0 0 0
0 0 0
0 0 0
0 0 0
0 0 0
0 0 0
0 0 0
0 0 0
0 0 0
0 0 0
0 0 0
0 0 0
0 0 0
0 0 0
0 0 0
0 0 0
0 0 0
0 0 0
0 0 0
0 0 0
0 0 0
0 0 0
0 0 0
0 0 0
0 0 0
0 0 0
0 0 0
0 0 0
0 0 0
0 0 0
0 0 0
0 0 0
0 0 0
0 0 0
0 0 0
0 0 0
0 0 0
0 0 0
0 0 0
0 0 0
0 0 0
0 0 0
0 0 0
0 0 0
0 0 0
0 0 0
0 0 0
0 0 0
0 0 0
0 0 0
0 0 0
0 0 0
0 0 0
0 0 0
0 0 0
0 0 0
0 0 0
0 0 0
0 0 0
0 0 0
0 0 0
0 0 0
0 0 0
0 0 0
0 0 0
0 0 0
0 0 0
165 89 13
166 89 13
167 90 13
168 90 13
169 91 13
170 91 13
171 92 13
172 92 13
173 93 13
174 93 13
175 94 13
176 94 13
177 95 13
178 95 13
179 96 13
180 96 13
181 97 13
182 97 13
183 98 13
184 98 13
185 99 13
186 99 13
187 100 13
188 100 13
189 101 13
190 101 13
191 102 13
192 102 13
193 103 13
194 103 13
195 104 13
196 104 13
197 105 13
198 105 13
199 106 13
200 106 13
201 107 13
202 107 13
203 108 13
204 108 13
205 109 13
206 109 13
207 110 13
208 110 13
209 111 13
210 111 13
211 112 13
212 112 13
213 113 13
214 113 13
215 114 13
216 114 13
217 115 13
218 115 13
219 116 13
220 116 13
221 117 13
222 117 13
223 118 13
224 118 13
225 119 13
226 119 13
227 120 13
228 120 13
229 121 13
230 121 13
231 122 13
232 122 13
233 123 13
234 123 13
235 124 13
236 124 13
237 125 13
238 125 13
239 126 13
240 126 13
241 127 13
242 127 13
243 128 13
244 128 13
245 129 13
246 129 13
247 130 13
248 130 13
249 131 13
250 131 13
251 132 13
252 132 13
253 133 13
254 133 13
0 7 14
1 7 14
2 8 14
3 8 14
4 9 14
5 9 14
6 10 14
7 10 14
8 11 14
9 11 14
10 12 14
11 12 14
12 13 14
13 13 14
14 14 14
15 14 14
16 15 14
17 15 14
18 16 14
19 16 14
20 17 14
21 17 14
22 18 14
23 18 14
24 19 14
25 19 14
26 20 14
27 20 14
28 21 14
29 21 14
30 22 14
31 22 14
32 23 14
33 23 14
34 24 14
35 24 14
36 25 14
37 25 14
38 26 14
39 26 14
40 27 14
41 27 14
42 28 14
43 28 14
44 29 14
45 29 14
46 30 14
47 30 14
48 31 14
49 31 14
50 32 14
51 32 14
52 33 14
53 33 14
54 34 14
55 34 14
56 35 14
57 35 14
58 36 14
59 36 14
60 37 14
61 37 14
62 38 14
63 38 14
64 39 14
65 39 14
66 40 14
67 40 14
68 41 14
69 41 14
70 42 14
71 42 14
72 43 14
73 43 14
74 44 14
75 44 14
76 45 14
77 45 14
78 46 14
79 46 14
80 47 14
81 47 14
82 48 14
83 48 14
84 49 14
85 49 14
86 50 14
0 0 0
0 0 0
0 0 0
0 0 0
0 0 0
0 0 0
0 0 0
0 0 0
0 0 0
0 0 0
0 0 0
0 0 0
0 0 0
0 0 0
0 0 0
0 0 0
0 0 0
0 0 0
0 0 0
0 0 0
0 0 0
0 0 0
0 0 0
0 0 0
0 0 0
0 0 0
0 0 0
0 0 0
0 0 0
0 0 0
0 0 0
0 0 0
0 0 0
0 0 0
0 0 0
0 0 0
0 0 0
0 0 0
0 0 0
0 0 0
0 0 0
0 0 0
0 0 0
0 0 0
0 0 0
0 0 0
0 0 0
0 0 0
0 0 0
0 0 0
0 0 0
0 0 0
0 0 0
0 0 0
0 0 0
0 0 0
0 0 0
0 0 0
0 0 0
0 0 0
0 0 0
0 0 0
0 0 0
0 0 0
0 0 0
0 0 0
0 0 0
0 0 0
0 0 0
0 0 0
0 0 0
0 0 0
0 0 0
0 0 0
0 0 0
0 0 0
0 0 0
0 0 0
0 0 0
0 0 0
0 0 0
168 91 14
169 91 14
170 92 14
171 92 14
172 93 14
173 93 14
174 94 14
175 94 14
176 95 14
177 95 14
178 96 14
179 96 14
180 97 14
181 97 14
182 98 14
183 98 14
184 99 14
185 99 14
186 100 14
187 100 14
188 101 14
189 101 14
190 102 14
191 102 14
192 103 14
193 103 14
194 104 14
195 104 14
196 105 14
197 105 14
198 106 14
199 106 14
200 107 14
201 107 14
202 108 14
203 108 14
204 109 14
205 109 14
206 110 14
207 110 14
208 111 14
209 111 14
210 112 14
211 112 14
212 113 14
213 113 14
214 114 14
215 114 14
216 115 14
217 115 14
218 116 14
219 116 14
220 117 14
221 117 14
222 118 14
223 118 14
224 119 14
225 119 14
226 120 14
227 120 14
228 121 14
229 121 14
230 122 14
231 122 14
232 123 14
233 123 14
234 124 14
235 124 14
236 125 14
237 125 14
238 126 14
239 126 14
240 127 14
241 127 14
242 128 14
243 128 14
244 129 14
245 129 14
246 130 14
247 130 14
248 131 14
249 131 14
250 132 14
251 132 14
252 133 14
253 133 14
254 134 14
0 7 15
1 8 15
2 8 15
3 9 15
4 9 15
5 10 15
6 10 15
7 11 15
8 11 15
9 12 15
10 12 15
11 13 15
12 13 15
13 14 15
14 14 15
15 15 15
16 15 15
17 16 15
18 16 15
19 17 15
20 17 15
21 18 15
22 18 15
23 19 15
24 19 15
25 20 15
26 20 15
27 21 15
28 21 15
29 22 15
30 22 15
31 23 15
32 23 15
33 24 15
34 24 15
35 25 15
36 25 15
37 26 15
38 26 15
39 27 15
40 27 15
41 28 15
42 28 15
43 29 15
44 29 15
45 30 15
46 30 15
47 31 15
48 31 15
49 32 15
50 32 15
51 33 15
52 33 15
53 34 15
54 34 15
55 35 15
56 35 15
57 36 15
58 36 15
59 37 15
60 37 15
61 38 15
62 38 15
63 39 15
64 39 15
65 40 15
66 40 15
67 41 15
68 41 15
69 42 15
70 42 15
71 43 15
72 43 15
73 44 15
74 44 15
75 45 15
76 45 15
77 46 15
78 46 15
79 47 15
80 47 15
81 48 15
82 48 15
83 49 15
0 0 0
0 0 0
0 0 0
0 0 0
0 0 0
0 0 0
0 0 0
0 0 0
0 0 0
0 0 0
0 0 0
0 0 0
0 0 0
0 0 0
0 0 0
0 0 0
0 0 0
0 0 0
0 0 0
0 0 0
0 0 0
0 0 0
0 0 0
0 0 0
0 0 0
0 0 0
0 0 0
0 0 0
0 0 0
0 0 0
0 0 0
0 0 0
0 0 0
0 0 0
0 0 0
0 0 0
0 0 0
0 0 0
0 0 0
0 0 0
0 0 0
0 0 0
0 0 0
0 0 0
0 0 0
0 0 0
0 0 0
0 0 0
0 0 0
0 0 0
0 0 0
0 0 0
0 0 0
0 0 0
0 0 0
0 0 0
0 0 0
0 0 0
0 0 0
0 0 0
0 0 0
0 0 0
0 0 0
0 0 0
0 0 0
0 0 0
0 0 0
0 0 0
0 0 0
0 0 0
0 0 0
0 0 0
0 0 0
0 0 0
0 0 0
0 0 0
0 0 0
0 0 0
0 0 0
0 0 0
0 0 0
0 0 0
0 0 0
0 0 0
0 0 0
0 0 0
0 0 0
171 93 15
172 93 15
173 94 15
174 94 15
175 95 15
176 95 15
177 96 15
178 96 15
179 97 15
180 97 15
181 98 15
182 98 15
183 99 15
184 99 15
185 100 15
186 100 15
187 101 15
188 101 15
189 102 15
190 102 15
191 103 15
192 103 15
193 104 15
194 104 15
195 105 15
196 105 15
197 106 15
198 106 15
199 107 15
200 107 15
201 108 15
202 108 15
203 109 15
204 109 15
205 110 15
206 110 15
207 111 15
208 111 15
209 112 15
210 112 15
211 113 15
212 113 15
213 114 15
214 114 15
215 115 15
216 115 15
217 116 15
218 116 15
219 117 15
220 117 15
221 118 15
222 118 15
223 119 15
224 119 15
225 120 15
226 120 15
227 121 15
228 121 15
229 122 15
230 122 15
231 123 15
232 123 15
233 124 15
234 124 15
235 125 15
236 125 15
237 126 15
238 126 15
239 127 15
240 127 15
241 128 15
242 128 15
243 129 15
244 129 15
245 130 15
246 130 15
247 131 15
248 131 15
249 132 15
250 132 15
251 133 15
252 133 15
253 134 15
254 134 15
0 8 16
1 8 16
2 9 16
3 9 16
4 10 16
5 10 16
6 11 16
7 11 16
8 12 16
9 12 16
10 13 16
11 13 16
12 14 16
13 14 16
14 15 16
15 15 16
16 16 16
17 16 16
18 17 16
19 17 16
20 18 16
21 18 16
22 19 16
23 19 16
24 20 16
25 20 16
26 21 16
27 21 16
28 22 16
29 22 16
30 23 16
31 23 16
32 24 16
33 24 16
34 25 16
35 25 16
36 26 16
37 26 16
38 27 16
39 27 16
40 28 16
41 28 16
42 29 16
43 29 16
44 30 16
45 30 16
46 31 16
47 31 16
48 32 16
49 32 16
50 33 16
51 33 16
52 34 16
53 34 16
54 35 16
55 35 16
56 36 16
57 36 16
58 37 16
59 37 16
60 38 16
61 38 16
62 39 16
63 39 16
64 40 16
65 40 16
66 41 16
67 41 16
68 42 16
69 42 16
70 43 16
71 43 16
72 44 16
73 44 16
74 45 16
75 45 16
76 46 16
77 46 16
78 47 16
79 47 16
80 48 16
81 48 16
0 0 0
0 0 0
0 0 0
0 0 0
0 0 0
0 0 0
0 0 0
0 0 0
0 0 0
0 0 0
0 0 0
0 0 0
0 0 0
0 0 0
0 0 0
0 0 0
0 0 0
0 0 0
0 0 0
0 0 0
0 0 0
0 0 0
0 0 0
0 0 0
0 0 0
0 0 0
0 0 0
0 0 0
0 0 0
0 0 0
0 0 0
0 0 0
0 0 0
0 0 0
0 0 0
0 0 0
0 0 0
0 0 0
0 0 0
0 0 0
0 0 0
0 0 0
0 0 0
0 0 0
0 0 0
0 0 0
0 0 0
0 0 0
0 0 0
0 0 0
0 0 0
0 0 0
0 0 0
0 0 0
0 0 0
0 0 0
0 0 0
0 0 0
0 0 0
0 0 0
0 0 0
0 0 0
0 0 0
0 0 0
0 0 0
0 0 0
0 0 0
0 0 0
0 0 0
0 0 0
0 0 0
0 0 0
0 0 0
0 0 0
0 0 0
0 0 0
0 0 0
0 0 0
0 0 0
0 0 0
0 0 0
0 0 0
0 0 0
0 0 0
0 0 0
0 0 0
0 0 0
0 0 0
0 0 0
0 0 0
0 0 0
173 94 16
174 95 16
175 95 16
176 96 16
177 96 16
178 97 16
179 97 16
180 98 16
181 98 16
182 99 16
183 99 16
184 100 16
185 100 16
186 101 16
187 101 16
188 102 16
189 102 16
190 103 16
191 103 16
192 104 16
193 104 16
194 105 16
195 105 16
196 106 16
197 106 16
198 107 16
199 107 16
200 108 16
201 108 16
202 109 16
203 109 16
204 110 16
205 110 16
206 111 16
207 111 16
208 112 16
209 112 16
210 113 16
211 113 16
212 114 16
213 114 16
214 115 16
215 115 16
216 116 16
217 116 16
218 117 16
219 117 16
220 118 16
221 118 16
222 119 16
223 119 16
224 120 16
225 120 16
226 121 16
227 121 16
228 122 16
229 122 16
230 123 16
231 123 16
232 124 16
233 124 16
234 125 16
235 125 16
236 126 16
237 126 16
238 127 16
239 127 16
240 128 16
241 128 16
242 129 16
243 129 16
244 130 16
245 130 16
246 131 16
247 131 16
248 132 16
249 132 16
250 133 16
251 133 16
252 134 16
253 134 16
254 135 16
0 8 17
1 9 17
2 9 17
3 10 17
4 10 17
5 11 17
6 11 17
7 12 17
8 12 17
9 13 17
10 13 17
11 14 17
12 14 17
13 15 17
14 15 17
15 16 17
16 16 17
17 17 17
18 17 17
19 18 17
20 18 17
21 19 17
22 19 17
23 20 17
24 20 17
25 21 17
26 21 17
27 22 17
28 22 17
29 23 17
30 23 17
31 24 17
32 24 17
33 25 17
34 25 17
35 26 17
36 26 17
37 27 17
38 27 17
39 28 17
40 28 17
41 29 17
42 29 17
43 30 17
44 30 17
45 31 17
46 31 17
47 32 17
48 32 17
49 33 17
50 33 17
51 34 17
52 34 17
53 35 17
54 35 17
55 36 17
56 36 17
57 37 17
58 37 17
59 38 17
60 38 17
61 39 17
62 39 17
63 40 17
64 40 17
65 41 17
66 41 17
67 42 17
68 42 17
69 43 17
70 43 17
71 44 17
72 44 17
73 45 17
74 45 17
75 46 17
76 46 17
77 47 17
78 47 17
79 48 17
0 0 0
0 0 0
0 0 0
0 0 0
0 0 0
0 0 0
0 0 0
0 0 0
0 0 0
0 0 0
0 0 0
0 0 0
0 0 0
0 0 0
0 0 0
0 0 0
0 0 0
0 0 0
0 0 0
0 0 0
0 0 0
0 0 0
0 0 0
0 0 0
0 0 0
0 0 0
0 0 0
0 0 0
0 0 0
0 0 0
0 0 0
0 0 0
0 0 0
0 0 0
0 0 0
0 0 0
0 0 0
0 0 0
0 0 0
0 0 0
0 0 0
0 0 0
0 0 0
0 0 0
0 0 0
0 0 0
0 0 0
0 0 0
0 0 0
0 0 0
0 0 0
0 0 0
0 0 0
0 0 0
0 0 0
0 0 0
0 0 0
0 0 0
0 0 0
0 0 0
0 0 0
0 0 0
0 0 0
0 0 0
0 0 0
0 0 0
0 0 0
0 0 0
0 0 0
0 0 0
0 0 0
0 0 0
0 0 0
0 0 0
0 0 0
0 0 0
0 0 0
0 0 0
0 0 0
0 0 0
0 0 0
0 0 0
0 0 0
0 0 0
0 0 0
0 0 0
0 0 0
0 0 0
0 0 0
0 0 0
0 0 0
0 0 0
0 0 0
0 0 0
0 0 0
175 96 17
176 96 17
177 97 17
178 97 17
179 98 17
180 98 17
181 99 17
182 99 17
183 100 17
184 100 17
185 101 17
186 101 17
187 102 17
188 102 17
189 103 17
190 103 17
191 104 17
192 104 17
193 105 17
194 105 17
195 106 17
196 106 17
197 107 17
198 107 17
199 108 17
200 108 17
201 109 17
202 109 17
203 110 17
204 110 17
205 111 17
206 111 17
207 112 17
208 112 17
209 113 17
210 113 17
211 114 17
212 114 17
213 115 17
214 115 17
215 116 17
216 116 17
217 117 17
218 117 17
219 118 17
220 118 17
221 119 17
222 119 17
223 120 17
224 120 17
225 121 17
226 121 17
227 122 17
228 122 17
229 123 17
230 123 17
231 124 17
232 124 17
233 125 17
234 125 17
235 126 17
236 126 17
237 127 17
238 127 17
239 128 17
240 128 17
241 129 17
242 129 17
243 130 17
244 130 17
245 131 17
246 131 17
247 132 17
248 132 17
249 133 17
250 133 17
251 134 17
252 134 17
253 135 17
254 135 17
0 9 18
1 9 18
2 10 18
3 10 18
4 11 18
5 11 18
6 12 18
7 12 18
8 13 18
9 13 18
10 14 18
11 14 18
12 15 18
13 15 18
14 16 18
15 16 18
16 17 18
17 17 18
18 18 18
19 18 18
20 19 18
21 19 18
22 20 18
23 20 18
24 21 18
25 21 18
26 22 18
27 22 18
28 23 18
29 23 18
30 24 18
31 24 18
32 25 18
33 25 18
34 26 18
35 26 18
36 27 18
37 27 18
38 28 18
39 28 18
40 29 18
41 29 18
42 30 18
43 30 18
44 31 18
45 31 18
46 32 18
47 32 18
48 33 18
49 33 18
50 34 18
51 34 18
52 35 18
53 35 18
54 36 18
55 36 18
56 37 18
57 37 18
58 38 18
59 38 18
60 39 18
61 39 18
62 40 18
63 40 18
64 41 18
65 41 18
66 42 18
67 42 18
68 43 18
69 43 18
70 44 18
71 44 18
72 45 18
73 45 18
74 46 18
75 46 18
76 47 18
0 0 0
0 0 0
0 0 0
0 0 0
0 0 0
0 0 0
0 0 0
0 0 0
0 0 0
0 0 0
0 0 0
0 0 0
0 0 0
0 0 0
0 0 0
0 0 0
0 0 0
0 0 0
0 0 0
0 0 0
0 0 0
0 0 0
0 0 0
0 0 0
0 0 0
0 0 0
0 0 0
0 0 0
0 0 0
0 0 0
0 0 0
0 0 0
0 0 0
0 0 0
0 0 0
0 0 0
0 0 0
0 0 0
0 0 0
0 0 0
0 0 0
0 0 0
0 0 0
0 0 0
0 0 0
0 0 0
0 0 0
0 0 0
0 0 0
0 0 0
0 0 0
0 0 0
0 0 0
0 0 0
0 0 0
0 0 0
0 0 0
0 0 0
0 0 0
0 0 0
0 0 0
0 0 0
0 0 0
0 0 0
0 0 0
0 0 0
0 0 0
0 0 0
0 0 0
0 0 0
0 0 0
0 0 0
0 0 0
0 0 0
0 0 0
0 0 0
0 0 0
0 0 0
0 0 0
0 0 0
0 0 0
0 0 0
0 0 0
0 0 0
0 0 0
0 0 0
0 0 0
0 0 0
0 0 0
0 0 0
0 0 0
0 0 0
0 0 0
0 0 0
0 0 0
0 0 0
0 0 0
0 0 0
0 0 0
0 0 0
0 0 0
178 98 18
179 98 18
180 99 18
181 99 18
182 100 18
183 100 18
184 101 18
185 101 18
186 102 18
187 102 18
188 103 18
189 103 18
190 104 18
191 104 18
192 105 18
193 105 18
194 106 18
195 106 18
196 107 18
197 107 18
198 108 18
199 108 18
200 109 18
201 109 18
202 110 18
203 110 18
204 111 18
205 111 18
206 112 18
207 112 18
208 113 18
209 113 18
210 114 18
211 114 18
212 115 18
213 115 18
214 116 18
215 116 18
216 117 18
217 117 18
218 118 18
219 118 18
220 119 18
221 119 18
222 120 18
223 120 18
224 121 18
225 121 18
226 122 18
227 122 18
228 123 18
229 123 18
230 124 18
231 124 18
232 125 18
233 125 18
234 126 18
235 126 18
236 127 18
237 127 18
238 128 18
239 128 18
240 129 18
241 129 18
242 130 18
243 130 18
244 131 18
245 131 18
246 132 18
247 132 18
248 133 18
249 133 18
250 134 18
251 134 18
252 135 18
253 135 18
254 136 18
0 9 19
1 10 19
2 10 19
3 11 19
4 11 19
5 12 19
6 12 19
7 13 19
8 13 19
9 14 19
10 14 19
11 15 19
12 15 19
13 16 19
14 16 19
15 17 19
16 17 19
17 18 19
18 18 19
19 19 19
20 19 19
21 20 19
22 20 19
23 21 19
24 21 19
25 22 19
26 22 19
27 23 19
28 23 19
29 24 19
30 24 19
31 25 19
32 25 19
33 26 19
34 26 19
35 27 19
36 27 19
37 28 19
38 28 19
39 29 19
40 29 19
41 30 19
42 30 19
43 31 19
44 31 19
45 32 19
46 32 19
47 33 19
48 33 19
49 34 19
50 34 19
51 35 19
52 35 19
53 36 19
54 36 19
55 37 19
56 37 19
57 38 19
58 38 19
59 39 19
60 39 19
61 40 19
62 40 19
63 41 19
64 41 19
65 42 19
66 42 19
67 43 19
68 43 19
69 44 19
70 44 19
71 45 19
72 45 19
73 46 19
74 46 19
0 0 0
0 0 0
0 0 0
0 0 0
0 0 0
0 0 0
0 0 0
0 0 0
0 0 0
0 0 0
0 0 0
0 0 0
0 0 0
0 0 0
0 0 0
0 0 0
0 0 0
0 0 0
0 0 0
0 0 0
0 0 0
0 0 0
0 0 0
0 0 0
0 0 0
0 0 0
0 0 0
0 0 0
0 0 0
0 0 0
0 0 0
0 0 0
0 0 0
0 0 0
0 0 0
0 0 0
0 0 0
0 0 0
0 0 0
0 0 0
0 0 0
0 0 0
0 0 0
0 0 0
0 0 0
0 0 0
0 0 0
0 0 0
0 0 0
0 0 0
0 0 0
0 0 0
0 0 0
0 0 0
0 0 0
0 0 0
0 0 0
0 0 0
0 0 0
0 0 0
0 0 0
0 0 0
0 0 0
0 0 0
0 0 0
0 0 0
0 0 0
0 0 0
0 0 0
0 0 0
0 0 0
0 0 0
0 0 0
0 0 0
0 0 0
0 0 0
0 0 0
0 0 0
0 0 0
0 0 0
0 0 0
0 0 0
0 0 0
0 0 0
0 0 0
0 0 0
0 0 0
0 0 0
0 0 0
0 0 0
0 0 0
0 0 0
0 0 0
0 0 0
0 0 0
0 0 0
0 0 0
0 0 0
0 0 0
0 0 0
0 0 0
0 0 0
0 0 0
0 0 0
0 0 0
180 99 19
181 100 19
182 100 19
183 101 19
184 101 19
185 102 19
186 102 19
187 103 19
188 103 19
189 104 19
190 104 19
191 105 19
192 105 19
193 106 19
194 106 19
195 107 19
196 107 19
197 108 19
198 108 19
199 109 19
200 109 19
201 110 19
202 110 19
203 111 19
204 111 19
205 112 19
206 112 19
207 113 19
208 113 19
209 114 19
210 114 19
211 115 19
212 115 19
213 116 19
214 116 19
215 117 19
216 117 19
217 118 19
218 118 19
219 119 19
220 119 19
221 120 19
222 120 19
223 121 19
224 121 19
225 122 19
226 122 19
227 123 19
228 123 19
229 124 19
230 124 19
231 125 19
232 125 19
233 126 19
234 126 19
235 127 19
236 127 19
237 128 19
238 128 19
239 129 19
240 129 19
241 130 19
242 130 19
243 131 19
244 131 19
245 132 19
246 132 19
247 133 19
248 133 19
249 134 19
250 134 19
251 135 19
252 135 19
253 136 19
254 136 19
0 10 20
1 10 20
2 11 20
3 11 20
4 12 20
5 12 20
6 13 20
7 13 20
8 14 20
9 14 20
10 15 20
11 15 20
12 16 20
13 16 20
14 17 20
15 17 20
16 18 20
17 18 20
18 19 20
19 19 20
20 20 20
21 20 20
22 21 20
23 21 20
24 22 20
25 22 20
26 23 20
27 23 20
28 24 20
29 24 20
30 25 20
31 25 20
32 26 20
33 26 20
34 27 20
35 27 20
36 28 20
37 28 20
38 29 20
39 29 20
40 30 20
41 30 20
42 31 20
43 31 20
44 32 20
45 32 20
46 33 20
47 33 20
48 34 20
49 34 20
50 35 20
51 35 20
52 36 20
53 36 20
54 37 20
55 37 20
56 38 20
57 38 20
58 39 20
59 39 20
60 40 20
61 40 20
62 41 20
63 41 20
64 42 20
65 42 20
66 43 20
67 43 20
68 44 20
69 44 20
70 45 20
71 45 20
72 46 20
0 0 0
0 0 0
0 0 0
0 0 0
0 0 0
0 0 0
0 0 0
0 0 0
0 0 0
0 0 0
0 0 0
0 0 0
0 0 0
0 0 0
0 0 0
0 0 0
0 0 0
0 0 0
0 0 0
0 0 0
0 0 0
0 0 0
0 0 0
0 0 0
0 0 0
0 0 0
0 0 0
0 0 0
0 0 0
0 0 0
0 0 0
0 0 0
0 0 0
0 0 0
0 0 0
0 0 0
0 0 0
0 0 0
0 0 0
0 0 0
0 0 0
0 0 0
0 0 0
0 0 0
0 0 0
0 0 0
0 0 0
0 0 0
0 0 0
0 0 0
0 0 0
0 0 0
0 0 0
0 0 0
0 0 0
0 0 0
0 0 0
0 0 0
0 0 0
0 0 0
0 0 0
0 0 0
0 0 0
0 0 0
0 0 0
0 0 0
0 0 0
0 0 0
0 0 0
0 0 0
0 0 0
0 0 0
0 0 0
0 0 0
0 0 0
0 0 0
0 0 0
0 0 0
0 0 0
0 0 0
0 0 0
0 0 0
0 0 0
0 0 0
0 0 0
0 0 0
0 0 0
0 0 0
0 0 0
0 0 0
0 0 0
0 0 0
0 0 0
0 0 0
0 0 0
0 0 0
0 0 0
0 0 0
0 0 0
0 0 0
0 0 0
0 0 0
0 0 0
0 0 0
0 0 0
0 0 0
0 0 0
0 0 0
0 0 0
182 101 20
183 101 20
184 102 20
185 102 20
186 103 20
187 103 20
188 104 20
189 104 20
190 105 20
191 105 20
192 106 20
193 106 20
194 107 20
195 107 20
196 108 20
197 108 20
198 109 20
199 109 20
200 110 20
201 110 20
202 111 20
203 111 20
204 112 20
205 112 20
206 113 20
207 113 20
208 114 20
209 114 20
210 115 20
211 115 20
212 116 20
213 116 20
214 117 20
215 117 20
216 118 20
217 118 20
218 119 20
219 119 20
220 120 20
221 120 20
222 121 20
223 121 20
224 122 20
225 122 20
226 123 20
227 123 20
228 124 20
229 124 20
230 125 20
231 125 20
232 126 20
233 126 20
234 127 20
235 127 20
236 128 20
237 128 20
238 129 20
239 129 20
240 130 20
241 130 20
242 131 20
243 131 20
244 132 20
245 132 20
246 133 20
247 133 20
248 134 20
249 134 20
250 135 20
251 135 20
252 136 20
253 136 20
254 137 20
0 10 21
1 11 21
2 11 21
3 12 21
4 12 21
5 13 21
6 13 21
7 14 21
8 14 21
9 15 21
10 15 21
11 16 21
12 16 21
13 17 21
14 17 21
15 18 21
16 18 21
17 19 21
18 19 21
19 20 21
20 20 21
21 21 21
22 21 21
23 22 21
24 22 21
25 23 21
26 23 21
27 24 21
28 24 21
29 25 21
30 25 21
31 26 21
32 26 21
33 27 21
34 27 21
35 28 21
36 28 21
37 29 21
38 29 21
39 30 21
40 30 21
41 31 21
42 31 21
43 32 21
44 32 21
45 33 21
46 33 21
47 34 21
48 34 21
49 35 21
50 35 21
51 36 21
52 36 21
53 37 21
54 37 21
55 38 21
56 38 21
57 39 21
58 39 21
59 40 21
60 40 21
61 41 21
62 41 21
63 42 21
64 42 21
65 43 21
66 43 21
67 44 21
68 44 21
69 45 21
70 45 21
0 0 0
0 0 0
0 0 0
0 0 0
0 0 0
0 0 0
0 0 0
0 0 0
0 0 0
0 0 0
0 0 0
0 0 0
0 0 0
0 0 0
0 0 0
0 0 0
0 0 0
0 0 0
0 0 0
0 0 0
0 0 0
0 0 0
0 0 0
0 0 0
0 0 0
0 0 0
0 0 0
0 0 0
0 0 0
0 0 0
0 0 0
0 0 0
0 0 0
0 0 0
0 0 0
0 0 0
0 0 0
0 0 0
0 0 0
0 0 0
0 0 0
0 0 0
0 0 0
0 0 0
0 0 0
0 0 0
0 0 0
0 0 0
0 0 0
0 0 0
0 0 0
0 0 0
0 0 0
0 0 0
0 0 0
0 0 0
0 0 0
0 0 0
0 0 0
0 0 0
0 0 0
0 0 0
0 0 0
0 0 0
0 0 0
0 0 0
0 0 0
0 0 0
0 0 0
0 0 0
0 0 0
0 0 0
0 0 0
0 0 0
0 0 0
0 0 0
0 0 0
0 0 0
0 0 0
0 0 0
0 0 0
0 0 0
0 0 0
0 0 0
0 0 0
0 0 0
0 0 0
0 0 0
0 0 0
0 0 0
0 0 0
0 0 0
0 0 0
0 0 0
0 0 0
0 0 0
0 0 0
0 0 0
0 0 0
0 0 0
0 0 0
0 0 0
0 0 0
0 0 0
0 0 0
0 0 0
0 0 0
0 0 0
0 0 0
0 0 0
0 0 0
0 0 0
0 0 0
184 102 21
185 103 21
186 103 21
187 104 21
188 104 21
189 105 21
190 105 21
191 106 21
192 106 21
193 107 21
194 107 21
195 108 21
196 108 21
197 109 21
198 109 21
199 110 21
200 110 21
201 111 21
202 111 21
203 112 21
204 112 21
205 113 21
206 113 21
207 114 21
208 114 21
209 115 21
210 115 21
211 116 21
212 116 21
213 117 21
214 117 21
215 118 21
216 118 21
217 119 21
218 119 21
219 120 21
220 120 21
221 121 21
222 121 21
223 122 21
224 122 21
225 123 21
226 123 21
227 124 21
228 124 21
229 125 21
230 125 21
231 126 21
232 126 21
233 127 21
234 127 21
235 128 21
236 128 21
237 129 21
238 129 21
239 130 21
240 130 21
241 131 21
242 131 21
243 132 21
244 132 21
245 133 21
246 133 21
247 134 21
248 134 21
249 135 21
250 135 21
251 136 21
252 136 21
253 137 21
254 137 21
0 11 22
1 11 22
2 12 22
3 12 22
4 13 22
5 13 22
6 14 22
7 14 22
8 15 22
9 15 22
10 16 22
11 16 22
12 17 22
13 17 22
14 18 22
15 18 22
16 19 22
17 19 22
18 20 22
19 20 22
20 21 22
21 21 22
22 22 22
23 22 22
24 23 22
25 23 22
26 24 22
27 24 22
28 25 22
29 25 22
30 26 22
31 26 22
32 27 22
33 27 22
34 28 22
35 28 22
36 29 22
37 29 22
38 30 22
39 30 22
40 31 22
41 31 22
42 32 22
43 32 22
44 33 22
45 33 22
46 34 22
47 34 22
48 35 22
49 35 22
50 36 22
51 36 22
52 37 22
53 37 22
54 38 22
55 38 22
56 39 22
57 39 22
58 40 22
59 40 22
60 41 22
61 41 22
62 42 22
63 42 22
64 43 22
65 43 22
66 44 22
67 44 22
68 45 22
0 0 0
0 0 0
0 0 0
0 0 0
0 0 0
0 0 0
0 0 0
0 0 0
0 0 0
0 0 0
0 0 0
0 0 0
0 0 0
0 0 0
0 0 0
0 0 0
0 0 0
0 0 0
0 0 0
0 0 0
0 0 0
0 0 0
0 0 0
0 0 0
0 0 0
0 0 0
0 0 0
0 0 0
0 0 0
0 0 0
0 0 0
0 0 0
0 0 0
0 0 0
0 0 0
0 0 0
0 0 0
0 0 0
0 0 0
0 0 0
0 0 0
0 0 0
0 0 0
0 0 0
0 0 0
0 0 0
0 0 0
0 0 0
0 0 0
0 0 0
0 0 0
0 0 0
0 0 0
0 0 0
0 0 0
0 0 0
0 0 0
0 0 0
0 0 0
0 0 0
0 0 0
0 0 0
0 0 0
0 0 0
0 0 0
0 0 0
0 0 0
0 0 0
0 0 0
0 0 0
0 0 0
0 0 0
0 0 0
0 0 0
0 0 0
0 0 0
0 0 0
0 0 0
0 0 0
0 0 0
0 0 0
0 0 0
0 0 0
0 0 0
0 0 0
0 0 0
0 0 0
0 0 0
0 0 0
0 0 0
0 0 0
0 0 0
0 0 0
0 0 0
0 0 0
0 0 0
0 0 0
0 0 0
0 0 0
0 0 0
0 0 0
0 0 0
0 0 0
0 0 0
0 0 0
0 0 0
0 0 0
0 0 0
0 0 0
0 0 0
0 0 0
0 0 0
0 0 0
0 0 0
0 0 0
0 0 0
0 0 0
186 104 22
187 104 22
188 105 22
189 105 22
190 106 22
191 106 22
192 107 22
193 107 22
194 108 22
195 108 22
196 109 22
197 109 22
198 110 22
199 110 22
200 111 22
201 111 22
202 112 22
203 112 22
204 113 22
205 113 22
206 114 22
207 114 22
208 115 22
209 115 22
210 116 22
211 116 22
212 117 22
213 117 22
214 118 22
215 118 22
216 119 22
217 119 22
218 120 22
219 120 22
220 121 22
221 121 22
222 122 22
223 122 22
224 123 22
225 123 22
226 124 22
227 124 22
228 125 22
229 125 22
230 126 22
231 126 22
232 127 22
233 127 22
234 128 22
235 128 22
236 129 22
237 129 22
238 130 22
239 130 22
240 131 22
241 131 22
242 132 22
243 132 22
244 133 22
245 133 22
246 134 22
247 134 22
248 135 22
249 135 22
250 136 22
251 136 22
252 137 22
253 137 22
254 138 22
0 11 23
1 12 23
2 12 23
3 13 23
4 13 23
5 14 23
6 14 23
7 15 23
8 15 23
9 16 23
10 16 23
11 17 23
12 17 23
13 18 23
14 18 23
15 19 23
16 19 23
17 20 23
18 20 23
19 21 23
20 21 23
21 22 23
22 22 23
23 23 23
24 23 23
25 24 23
26 24 23
27 25 23
28 25 23
29 26 23
30 26 23
31 27 23
32 27 23
33 28 23
34 28 23
35 29 23
36 29 23
37 30 23
38 30 23
39 31 23
40 31 23
41 32 23
42 32 23
43 33 23
44 33 23
45 34 23
46 34 23
47 35 23
48 35 23
49 36 23
50 36 23
51 37 23
52 37 23
53 38 23
54 38 23
55 39 23
56 39 23
57 40 23
58 40 23
59 41 23
60 41 23
61 42 23
62 42 23
63 43 23
64 43 23
65 44 23
66 44 23
67 45 23
0 0 0
0 0 0
0 0 0
0 0 0
0 0 0
0 0 0
0 0 0
0 0 0
0 0 0
0 0 0
0 0 0
0 0 0
0 0 0
0 0 0
0 0 0
0 0 0
0 0 0
0 0 0
0 0 0
0 0 0
0 0 0
0 0 0
0 0 0
0 0 0
0 0 0
0 0 0
0 0 0
0 0 0
0 0 0
0 0 0
0 0 0
0 0 0
0 0 0
0 0 0
0 0 0
0 0 0
0 0 0
0 0 0
0 0 0
0 0 0
0 0 0
0 0 0
0 0 0
0 0 0
0 0 0
0 0 0
0 0 0
0 0 0
0 0 0
0 0 0
0 0 0
0 0 0
0 0 0
0 0 0
0 0 0
0 0 0
0 0 0
0 0 0
0 0 0
0 0 0
0 0 0
0 0 0
0 0 0
0 0 0
0 0 0
0 0 0
0 0 0
0 0 0
0 0 0
0 0 0
0 0 0
0 0 0
0 0 0
0 0 0
0 0 0
0 0 0
0 0 0
0 0 0
0 0 0
0 0 0
0 0 0
0 0 0
0 0 0
0 0 0
0 0 0
0 0 0
0 0 0
0 0 0
0 0 0
0 0 0
0 0 0
0 0 0
0 0 0
0 0 0
0 0 0
0 0 0
0 0 0
0 0 0
0 0 0
0 0 0
0 0 0
0 0 0
0 0 0
0 0 0
0 0 0
0 0 0
0 0 0
0 0 0
0 0 0
0 0 0
0 0 0
0 0 0
0 0 0
0 0 0
0 0 0
0 0 0
0 0 0
0 0 0
0 0 0
187 105 23
188 105 23
189 106 23
190 106 23
191 107 23
192 107 23
193 108 23
194 108 23
195 109 23
196 109 23
197 110 23
198 110 23
199 111 23
200 111 23
201 112 23
202 112 23
203 113 23
204 113 23
205 114 23
206 114 23
207 115 23
208 115 23
209 116 23
210 116 23
211 117 23
212 117 23
213 118 23
214 118 23
215 119 23
216 119 23
217 120 23
218 120 23
219 121 23
220 121 23
221 122 23
222 122 23
223 123 23
224 123 23
225 124 23
226 124 23
227 125 23
228 125 23
229 126 23
230 126 23
231 127 23
232 127 23
233 128 23
234 128 23
235 129 23
236 129 23
237 130 23
238 130 23
239 131 23
240 131 23
241 132 23
242 132 23
243 133 23
244 133 23
245 134 23
246 134 23
247 135 23
248 135 23
249 136 23
250 136 23
251 137 23
252 137 23
253 138 23
254 138 23
0 12 24
1 12 24
2 13 24
3 13 24
4 14 24
5 14 24
6 15 24
7 15 24
8 16 24
9 16 24
10 17 24
11 17 24
12 18 24
13 18 24
14 19 24
15 19 24
16 20 24
17 20 24
18 21 24
19 21 24
20 22 24
21 22 24
22 23 24
23 23 24
24 24 24
25 24 24
26 25 24
27 25 24
28 26 24
29 26 24
30 27 24
31 27 24
32 28 24
33 28 24
34 29 24
35 29 24
36 30 24
37 30 24
38 31 24
39 31 24
40 32 24
41 32 24
42 33 24
43 33 24
44 34 24
45 34 24
46 35 24
47 35 24
48 36 24
49 36 24
50 37 24
51 37 24
52 38 24
53 38 24
54 39 24
55 39 24
56 40 24
57 40 24
58 41 24
59 41 24
60 42 24
61 42 24
62 43 24
63 43 24
64 44 24
65 44 24
0 0 0
0 0 0
0 0 0
0 0 0
0 0 0
0 0 0
0 0 0
0 0 0
0 0 0
0 0 0
0 0 0
0 0 0
0 0 0
0 0 0
0 0 0
0 0 0
0 0 0
0 0 0
0 0 0
0 0 0
0 0 0
0 0 0
0 0 0
0 0 0
0 0 0
0 0 0
0 0 0
0 0 0
0 0 0
0 0 0
0 0 0
0 0 0
0 0 0
0 0 0
0 0 0
0 0 0
0 0 0
0 0 0
0 0 0
0 0 0
0 0 0
0 0 0
0 0 0
0 0 0
0 0 0
0 0 0
0 0 0
0 0 0
0 0 0
0 0 0
0 0 0
0 0 0
0 0 0
0 0 0
0 0 0
0 0 0
0 0 0
0 0 0
0 0 0
0 0 0
0 0 0
0 0 0
0 0 0
0 0 0
0 0 0
0 0 0
0 0 0
0 0 0
0 0 0
0 0 0
0 0 0
0 0 0
0 0 0
0 0 0
0 0 0
0 0 0
0 0 0
0 0 0
0 0 0
0 0 0
0 0 0
0 0 0
0 0 0
0 0 0
0 0 0
0 0 0
0 0 0
0 0 0
0 0 0
0 0 0
0 0 0
0 0 0
0 0 0
0 0 0
0 0 0
0 0 0
0 0 0
0 0 0
0 0 0
0 0 0
0 0 0
0 0 0
0 0 0
0 0 0
0 0 0
0 0 0
0 0 0
0 0 0
0 0 0
0 0 0
0 0 0
0 0 0
0 0 0
0 0 0
0 0 0
0 0 0
0 0 0
0 0 0
0 0 0
0 0 0
0 0 0
0 0 0
0 0 0
189 106 24
190 107 24
191 107 24
192 108 24
193 108 24
194 109 24
195 109 24
196 110 24
197 110 24
198 111 24
199 111 24
200 112 24
201 112 24
202 113 24
203 113 24
204 114 24
205 114 24
206 115 24
207 115 24
208 116 24
209 116 24
210 117 24
211 117 24
212 118 24
213 118 24
214 119 24
215 119 24
216 120 24
217 120 24
218 121 24
219 121 24
220 122 24
221 122 24
222 123 24
223 123 24
224 124 24
225 124 24
226 125 24
227 125 24
228 126 24
229 126 24
230 127 24
231 127 24
232 128 24
233 128 24
234 129 24
235 129 24
236 130 24
237 130 24
238 131 24
239 131 24
240 132 24
241 132 24
242 133 24
243 133 24
244 134 24
245 134 24
246 135 24
247 135 24
248 136 24
249 136 24
250 137 24
251 137 24
252 138 24
253 138 24
254 139 24
0 12 25
1 13 25
2 13 25
3 14 25
4 14 25
5 15 25
6 15 25
7 16 25
8 16 25
9 17 25
10 17 25
11 18 25
12 18 25
13 19 25
14 19 25
15 20 25
16 20 25
17 21 25
18 21 25
19 22 25
20 22 25
21 23 25
22 23 25
23 24 25
24 24 25
25 25 25
26 25 25
27 26 25
28 26 25
29 27 25
30 27 25
31 28 25
32 28 25
33 29 25
34 29 25
35 30 25
36 30 25
37 31 25
38 31 25
39 32 25
40 32 25
41 33 25
42 33 25
43 34 25
44 34 25
45 35 25
46 35 25
47 36 25
48 36 25
49 37 25
50 37 25
51 38 25
52 38 25
53 39 25
54 39 25
55 40 25
56 40 25
57 41 25
58 41 25
59 42 25
60 42 25
61 43 25
62 43 25
63 44 25
0 0 0
0 0 0
0 0 0
0 0 0
0 0 0
0 0 0
0 0 0
0 0 0
0 0 0
0 0 0
0 0 0
0 0 0
0 0 0
0 0 0
0 0 0
0 0 0
0 0 0
0 0 0
0 0 0
0 0 0
0 0 0
0 0 0
0 0 0
0 0 0
0 0 0
0 0 0
0 0 0
0 0 0
0 0 0
0 0 0
0 0 0
0 0 0
0 0 0
0 0 0
0 0 0
0 0 0
0 0 0
0 0 0
0 0 0
0 0 0
0 0 0
0 0 0
0 0 0
0 0 0
0 0 0
0 0 0
0 0 0
0 0 0
0 0 0
0 0 0
0 0 0
0 0 0
0 0 0
0 0 0
0 0 0
0 0 0
0 0 0
0 0 0
0 0 0
0 0 0
0 0 0
0 0 0
0 0 0
0 0 0
0 0 0
0 0 0
0 0 0
0 0 0
0 0 0
0 0 0
0 0 0
0 0 0
0 0 0
0 0 0
0 0 0
0 0 0
0 0 0
0 0 0
0 0 0
0 0 0
0 0 0
0 0 0
0 0 0
0 0 0
0 0 0
0 0 0
0 0 0
0 0 0
0 0 0
0 0 0
0 0 0
0 0 0
0 0 0
0 0 0
0 0 0
0 0 0
0 0 0
0 0 0
0 0 0
0 0 0
0 0 0
0 0 0
0 0 0
0 0 0
0 0 0
0 0 0
0 0 0
0 0 0
0 0 0
0 0 0
0 0 0
0 0 0
0 0 0
0 0 0
0 0 0
0 0 0
0 0 0
0 0 0
0 0 0
0 0 0
0 0 0
0 0 0
0 0 0
0 0 0
0 0 0
0 0 0
0 0 0
191 108 25
192 108 25
193 109 25
194 109 25
195 110 25
196 110 25
197 111 25
198 111 25
199 112 25
200 112 25
201 113 25
202 113 25
203 114 25
204 114 25
205 115 25
206 115 25
207 116 25
208 116 25
209 117 25
210 117 25
211 118 25
212 118 25
213 119 25
214 119 25
215 120 25
216 120 25
217 121 25
218 121 25
219 122 25
220 122 25
221 123 25
222 123 25
223 124 25
224 124 25
225 125 25
226 125 25
227 126 25
228 126 25
229 127 25
230 127 25
231 128 25
232 128 25
233 129 25
234 129 25
235 130 25
236 130 25
237 131 25
238 131 25
239 132 25
240 132 25
241 133 25
242 133 25
243 134 25
244 134 25
245 135 25
246 135 25
247 136 25
248 136 25
249 137 25
250 137 25
251 138 25
252 138 25
253 139 25
254 139 25
0 13 26
1 13 26
2 14 26
3 14 26
4 15 26
5 15 26
6 16 26
7 16 26
8 17 26
9 17 26
10 18 26
11 18 26
12 19 26
13 19 26
14 20 26
15 20 26
16 21 26
17 21 26
18 22 26
19 22 26
20 23 26
21 23 26
22 24 26
23 24 26
24 25 26
25 25 26
26 26 26
27 26 26
28 27 26
29 27 26
30 28 26
31 28 26
32 29 26
33 29 26
34 30 26
35 30 26
36 31 26
37 31 26
38 32 26
39 32 26
40 33 26
41 33 26
42 34 26
43 34 26
44 35 26
45 35 26
46 36 26
47 36 26
48 37 26
49 37 26
50 38 26
51 38 26
52 39 26
53 39 26
54 40 26
55 40 26
56 41 26
57 41 26
58 42 26
59 42 26
60 43 26
61 43 26
62 44 26
0 0 0
0 0 0
0 0 0
0 0 0
0 0 0
0 0 0
0 0 0
0 0 0
0 0 0
0 0 0
0 0 0
0 0 0
0 0 0
0 0 0
0 0 0
0 0 0
0 0 0
0 0 0
0 0 0
0 0 0
0 0 0
0 0 0
0 0 0
0 0 0
0 0 0
0 0 0
0 0 0
0 0 0
0 0 0
0 0 0
0 0 0
0 0 0
0 0 0
0 0 0
0 0 0
0 0 0
0 0 0
0 0 0
0 0 0
0 0 0
0 0 0
0 0 0
0 0 0
0 0 0
0 0 0
0 0 0
0 0 0
0 0 0
0 0 0
0 0 0
0 0 0
0 0 0
0 0 0
0 0 0
0 0 0
0 0 0
0 0 0
0 0 0
0 0 0
0 0 0
0 0 0
0 0 0
0 0 0
0 0 0
0 0 0
0 0 0
0 0 0
0 0 0
0 0 0
0 0 0
0 0 0
0 0 0
0 0 0
0 0 0
0 0 0
0 0 0
0 0 0
0 0 0
0 0 0
0 0 0
0 0 0
0 0 0
0 0 0
0 0 0
0 0 0
0 0 0
0 0 0
0 0 0
0 0 0
0 0 0
0 0 0
0 0 0
0 0 0
0 0 0
0 0 0
0 0 0
0 0 0
0 0 0
0 0 0
0 0 0
0 0 0
0 0 0
0 0 0
0 0 0
0 0 0
0 0 0
0 0 0
0 0 0
0 0 0
0 0 0
0 0 0
0 0 0
0 0 0
0 0 0
0 0 0
0 0 0
0 0 0
0 0 0
0 0 0
0 0 0
0 0 0
0 0 0
0 0 0
0 0 0
0 0 0
0 0 0
0 0 0
0 0 0
0 0 0
192 109 26
193 109 26
194 110 26
195 110 26
196 111 26
197 111 26
198 112 26
199 112 26
200 113 26
201 113 26
202 114 26
203 114 26
204 115 26
205 115 26
206 116 26
207 116 26
208 117 26
209 117 26
210 118 26
211 118 26
212 119 26
213 119 26
214 120 26
215 120 26
216 121 26
217 121 26
218 122 26
219 122 26
220 123 26
221 123 26
222 124 26
223 124 26
224 125 26
225 125 26
226 126 26
227 126 26
228 127 26
229 127 26
230 128 26
231 128 26
232 129 26
233 129 26
234 130 26
235 130 26
236 131 26
237 131 26
238 132 26
239 132 26
240 133 26
241 133 26
242 134 26
243 134 26
244 135 26
245 135 26
246 136 26
247 136 26
248 137 26
249 137 26
250 138 26
251 138 26
252 139 26
253 139 26
254 140 26
0 13 27
1 14 27
2 14 27
3 15 27
4 15 27
5 16 27
6 16 27
7 17 27
8 17 27
9 18 27
10 18 27
11 19 27
12 19 27
13 20 27
14 20 27
15 21 27
16 21 27
17 22 27
18 22 27
19 23 27
20 23 27
21 24 27
22 24 27
23 25 27
24 25 27
25 26 27
26 26 27
27 27 27
28 27 27
29 28 27
30 28 27
31 29 27
32 29 27
33 30 27
34 30 27
35 31 27
36 31 27
37 32 27
38 32 27
39 33 27
40 33 27
41 34 27
42 34 27
43 35 27
44 35 27
45 36 27
46 36 27
47 37 27
48 37 27
49 38 27
50 38 27
51 39 27
52 39 27
53 40 27
54 40 27
55 41 27
56 41 27
57 42 27
58 42 27
59 43 27
60 43 27
0 0 0
0 0 0
0 0 0
0 0 0
0 0 0
0 0 0
0 0 0
0 0 0
0 0 0
0 0 0
0 0 0
0 0 0
0 0 0
0 0 0
0 0 0
0 0 0
0 0 0
0 0 0
0 0 0
0 0 0
0 0 0
0 0 0
0 0 0
0 0 0
0 0 0
0 0 0
0 0 0
0 0 0
0 0 0
0 0 0
0 0 0
0 0 0
0 0 0
0 0 0
0 0 0
0 0 0
0 0 0
0 0 0
0 0 0
0 0 0
0 0 0
0 0 0
0 0 0
0 0 0
0 0 0
0 0 0
0 0 0
0 0 0
0 0 0
0 0 0
0 0 0
0 0 0
0 0 0
0 0 0
0 0 0
0 0 0
0 0 0
0 0 0
0 0 0
0 0 0
0 0 0
0 0 0
0 0 0
0 0 0
0 0 0
0 0 0
0 0 0
0 0 0
0 0 0
0 0 0
0 0 0
0 0 0
0 0 0
0 0 0
0 0 0
0 0 0
0 0 0
0 0 0
0 0 0
0 0 0
0 0 0
0 0 0
0 0 0
0 0 0
0 0 0
0 0 0
0 0 0
0 0 0
0 0 0
0 0 0
0 0 0
0 0 0
0 0 0
0 0 0
0 0 0
0 0 0
0 0 0
0 0 0
0 0 0
0 0 0
0 0 0
0 0 0
0 0 0
0 0 0
0 0 0
0 0 0
0 0 0
0 0 0
0 0 0
0 0 0
0 0 0
0 0 0
0 0 0
0 0 0
0 0 0
0 0 0
0 0 0
0 0 0
0 0 0
0 0 0
0 0 0
0 0 0
0 0 0
0 0 0
0 0 0
0 0 0
0 0 0
0 0 0
0 0 0
0 0 0
0 0 0
0 0 0
0 0 0
194 110 27
195 111 27
196 111 27
197 112 27
198 112 27
199 113 27
200 113 27
201 114 27
202 114 27
203 115 27
204 115 27
205 116 27
206 116 27
207 117 27
208 117 27
209 118 27
210 118 27
211 119 27
212 119 27
213 120 27
214 120 27
215 121 27
216 121 27
217 122 27
218 122 27
219 123 27
220 123 27
221 124 27
222 124 27
223 125 27
224 125 27
225 126 27
226 126 27
227 127 27
228 127 27
229 128 27
230 128 27
231 129 27
232 129 27
233 130 27
234 130 27
235 131 27
236 131 27
237 132 27
238 132 27
239 133 27
240 133 27
241 134 27
242 134 27
243 135 27
244 135 27
245 136 27
246 136 27
247 137 27
248 137 27
249 138 27
250 138 27
251 139 27
252 139 27
253 140 27
254 140 27
0 14 28
1 14 28
2 15 28
3 15 28
4 16 28
5 16 28
6 17 28
7 17 28
8 18 28
9 18 28
10 19 28
11 19 28
12 20 28
13 20 28
14 21 28
15 21 28
16 22 28
17 22 28
18 23 28
19 23 28
20 24 28
21 24 28
22 25 28
23 25 28
24 26 28
25 26 28
26 27 28
27 27 28
28 28 28
29 28 28
30 29 28
31 29 28
32 30 28
33 30 28
34 31 28
35 31 28
36 32 28
37 32 28
38 33 28
39 33 28
40 34 28
41 34 28
42 35 28
43 35 28
44 36 28
45 36 28
46 37 28
47 37 28
48 38 28
49 38 28
50 39 28
51 39 28
52 40 28
53 40 28
54 41 28
55 41 28
56 42 28
57 42 28
58 43 28
59 43 28
0 0 0
0 0 0
0 0 0
0 0 0
0 0 0
0 0 0
0 0 0
0 0 0
0 0 0
0 0 0
0 0 0
0 0 0
0 0 0
0 0 0
0 0 0
0 0 0
0 0 0
0 0 0
0 0 0
0 0 0
0 0 0
0 0 0
0 0 0
0 0 0
0 0 0
0 0 0
0 0 0
0 0 0
0 0 0
0 0 0
0 0 0
0 0 0
0 0 0
0 0 0
0 0 0
0 0 0
0 0 0
0 0 0
0 0 0
0 0 0
0 0 0
0 0 0
0 0 0
0 0 0
0 0 0
0 0 0
0 0 0
0 0 0
0 0 0
0 0 0
0 0 0
0 0 0
0 0 0
0 0 0
0 0 0
0 0 0
0 0 0
0 0 0
0 0 0
0 0 0
0 0 0
0 0 0
0 0 0
0 0 0
0 0 0
0 0 0
0 0 0
0 0 0
0 0 0
0 0 0
0 0 0
0 0 0
0 0 0
0 0 0
0 0 0
0 0 0
0 0 0
0 0 0
0 0 0
0 0 0
0 0 0
0 0 0
0 0 0
0 0 0
0 0 0
0 0 0
0 0 0
0 0 0
0 0 0
0 0 0
0 0 0
0 0 0
0 0 0
0 0 0
0 0 0
0 0 0
0 0 0
0 0 0
0 0 0
0 0 0
0 0 0
0 0 0
0 0 0
0 0 0
0 0 0
0 0 0
0 0 0
0 0 0
0 0 0
0 0 0
0 0 0
0 0 0
0 0 0
0 0 0
0 0 0
0 0 0
0 0 0
0 0 0
0 0 0
0 0 0
0 0 0
0 0 0
0 0 0
0 0 0
0 0 0
0 0 0
0 0 0
0 0 0
0 0 0
0 0 0
0 0 0
0 0 0
0 0 0
0 0 0
0 0 0
195 111 28
196 112 28
197 112 28
198 113 28
199 113 28
200 114 28
201 114 28
202 115 28
203 115 28
204 116 28
205 116 28
206 117 28
207 117 28
208 118 28
209 118 28
210 119 28
211 119 28
212 120 28
213 120 28
214 121 28
215 121 28
216 122 28
217 122 28
218 123 28
219 123 28
220 124 28
221 124 28
222 125 28
223 125 28
224 126 28
225 126 28
226 127 28
227 127 28
228 128 28
229 128 28
230 129 28
231 129 28
232 130 28
233 130 28
234 131 28
235 131 28
236 132 28
237 132 28
238 133 28
239 133 28
240 134 28
241 134 28
242 135 28
243 135 28
244 136 28
245 136 28
246 137 28
247 137 28
248 138 28
249 138 28
250 139 28
251 139 28
252 140 28
253 140 28
254 141 28
0 14 29
1 15 29
2 15 29
3 16 29
4 16 29
5 17 29
6 17 29
7 18 29
8 18 29
9 19 29
10 19 29
11 20 29
12 20 29
13 21 29
14 21 29
15 22 29
16 22 29
17 23 29
18 23 29
19 24 29
20 24 29
21 25 29
22 25 29
23 26 29
24 26 29
25 27 29
26 27 29
27 28 29
28 28 29
29 29 29
30 29 29
31 30 29
32 30 29
33 31 29
34 31 29
35 32 29
36 32 29
37 33 29
38 33 29
39 34 29
40 34 29
41 35 29
42 35 29
43 36 29
44 36 29
45 37 29
46 37 29
47 38 29
48 38 29
49 39 29
50 39 29
51 40 29
52 40 29
53 41 29
54 41 29
55 42 29
56 42 29
57 43 29
0 0 0
0 0 0
0 0 0
0 0 0
0 0 0
0 0 0
0 0 0
0 0 0
0 0 0
0 0 0
0 0 0
0 0 0
0 0 0
0 0 0
0 0 0
0 0 0
0 0 0
0 0 0
0 0 0
0 0 0
0 0 0
0 0 0
0 0 0
0 0 0
0 0 0
0 0 0
0 0 0
0 0 0
0 0 0
0 0 0
0 0 0
0 0 0
0 0 0
0 0 0
0 0 0
0 0 0
0 0 0
0 0 0
0 0 0
0 0 0
0 0 0
0 0 0
0 0 0
0 0 0
0 0 0
0 0 0
0 0 0
0 0 0
0 0 0
0 0 0
0 0 0
0 0 0
0 0 0
0 0 0
0 0 0
0 0 0
0 0 0
0 0 0
0 0 0
0 0 0
0 0 0
0 0 0
0 0 0
0 0 0
0 0 0
0 0 0
0 0 0
0 0 0
0 0 0
0 0 0
0 0 0
0 0 0
0 0 0
0 0 0
0 0 0
0 0 0
0 0 0
0 0 0
0 0 0
0 0 0
0 0 0
0 0 0
0 0 0
0 0 0
0 0 0
0 0 0
0 0 0
0 0 0
0 0 0
0 0 0
0 0 0
0 0 0
0 0 0
0 0 0
0 0 0
0 0 0
0 0 0
0 0 0
0 0 0
0 0 0
0 0 0
0 0 0
0 0 0
0 0 0
0 0 0
0 0 0
0 0 0
0 0 0
0 0 0
0 0 0
0 0 0
0 0 0
0 0 0
0 0 0
0 0 0
0 0 0
0 0 0
0 0 0
0 0 0
0 0 0
0 0 0
0 0 0
0 0 0
0 0 0
0 0 0
0 0 0
0 0 0
0 0 0
0 0 0
0 0 0
0 0 0
0 0 0
0 0 0
0 0 0
0 0 0
0 0 0
0 0 0
0 0 0
0 0 0
197 113 29
198 113 29
199 114 29
200 114 29
201 115 29
202 115 29
203 116 29
204 116 29
205 117 29
206 117 29
207 118 29
208 118 29
209 119 29
210 119 29
211 120 29
212 120 29
213 121 29
214 121 29
215 122 29
216 122 29
217 123 29
218 123 29
219 124 29
220 124 29
221 125 29
222 125 29
223 126 29
224 126 29
225 127 29
226 127 29
227 128 29
228 128 29
229 129 29
230 129 29
231 130 29
232 130 29
233 131 29
234 131 29
235 132 29
236 132 29
237 133 29
238 133 29
239 134 29
240 134 29
241 135 29
242 135 29
243 136 29
244 136 29
245 137 29
246 137 29
247 138 29
248 138 29
249 139 29
250 139 29
251 140 29
252 140 29
253 141 29
254 141 29
0 15 30
1 15 30
2 16 30
3 16 30
4 17 30
5 17 30
6 18 30
7 18 30
8 19 30
9 19 30
10 20 30
11 20 30
12 21 30
13 21 30
14 22 30
15 22 30
16 23 30
17 23 30
18 24 30
19 24 30
20 25 30
21 25 30
22 26 30
23 26 30
24 27 30
25 27 30
26 28 30
27 28 30
28 29 30
29 29 30
30 30 30
31 30 30
32 31 30
33 31 30
34 32 30
35 32 30
36 33 30
37 33 30
38 34 30
39 34 30
40 35 30
41 35 30
42 36 30
43 36 30
44 37 30
45 37 30
46 38 30
47 38 30
48 39 30
49 39 30
50 40 30
51 40 30
52 41 30
53 41 30
54 42 30
55 42 30
56 43 30
0 0 0
0 0 0
0 0 0
0 0 0
0 0 0
0 0 0
0 0 0
0 0 0
0 0 0
0 0 0
0 0 0
0 0 0
0 0 0
0 0 0
0 0 0
0 0 0
0 0 0
0 0 0
0 0 0
0 0 0
0 0 0
0 0 0
0 0 0
0 0 0
0 0 0
0 0 0
0 0 0
0 0 0
0 0 0
0 0 0
0 0 0
0 0 0
0 0 0
0 0 0
0 0 0
0 0 0
0 0 0
0 0 0
0 0 0
0 0 0
0 0 0
0 0 0
0 0 0
0 0 0
0 0 0
0 0 0
0 0 0
0 0 0
0 0 0
0 0 0
0 0 0
0 0 0
0 0 0
0 0 0
0 0 0
0 0 0
0 0 0
0 0 0
0 0 0
0 0 0
0 0 0
0 0 0
0 0 0
0 0 0
0 0 0
0 0 0
0 0 0
0 0 0
0 0 0
0 0 0
0 0 0
0 0 0
0 0 0
0 0 0
0 0 0
0 0 0
0 0 0
0 0 0
0 0 0
0 0 0
0 0 0
0 0 0
0 0 0
0 0 0
0 0 0
0 0 0
0 0 0
0 0 0
0 0 0
0 0 0
0 0 0
0 0 0
0 0 0
0 0 0
0 0 0
0 0 0
0 0 0
0 0 0
0 0 0
0 0 0
0 0 0
0 0 0
0 0 0
0 0 0
0 0 0
0 0 0
0 0 0
0 0 0
0 0 0
0 0 0
0 0 0
0 0 0
0 0 0
0 0 0
0 0 0
0 0 0
0 0 0
0 0 0
0 0 0
0 0 0
0 0 0
0 0 0
0 0 0
0 0 0
0 0 0
0 0 0
0 0 0
0 0 0
0 0 0
0 0 0
0 0 0
0 0 0
0 0 0
0 0 0
0 0 0
0 0 0
0 0 0
0 0 0
0 0 0
0 0 0
0 0 0
198 114 30
199 114 30
200 115 30
201 115 30
202 116 30
203 116 30
204 117 30
205 117 30
206 118 30
207 118 30
208 119 30
209 119 30
210 120 30
211 120 30
212 121 30
213 121 30
214 122 30
215 122 30
216 123 30
217 123 30
218 124 30
219 124 30
220 125 30
221 125 30
222 126 30
223 126 30
224 127 30
225 127 30
226 128 30
227 128 30
228 129 30
229 129 30
230 130 30
231 130 30
232 131 30
233 131 30
234 132 30
235 132 30
236 133 30
237 133 30
238 134 30
239 134 30
240 135 30
241 135 30
242 136 30
243 136 30
244 137 30
245 137 30
246 138 30
247 138 30
248 139 30
249 139 30
250 140 30
251 140 30
252 141 30
253 141 30
254 142 30
0 15 31
1 16 31
2 16 31
3 17 31
4 17 31
5 18 31
6 18 31
7 19 31
8 19 31
9 20 31
10 20 31
11 21 31
12 21 31
13 22 31
14 22 31
15 23 31
16 23 31
17 24 31
18 24 31
19 25 31
20 25 31
21 26 31
22 26 31
23 27 31
24 27 31
25 28 31
26 28 31
27 29 31
28 29 31
29 30 31
30 30 31
31 31 31
32 31 31
33 32 31
34 32 31
35 33 31
36 33 31
37 34 31
38 34 31
39 35 31
40 35 31
41 36 31
42 36 31
43 37 31
44 37 31
45 38 31
46 38 31
47 39 31
48 39 31
49 40 31
50 40 31
51 41 31
52 41 31
53 42 31
54 42 31
55 43 31
0 0 0
0 0 0
0 0 0
0 0 0
0 0 0
0 0 0
0 0 0
0 0 0
0 0 0
0 0 0
0 0 0
0 0 0
0 0 0
0 0 0
0 0 0
0 0 0
0 0 0
0 0 0
0 0 0
0 0 0
0 0 0
0 0 0
0 0 0
0 0 0
0 0 0
0 0 0
0 0 0
0 0 0
0 0 0
0 0 0
0 0 0
0 0 0
0 0 0
0 0 0
0 0 0
0 0 0
0 0 0
0 0 0
0 0 0
0 0 0
0 0 0
0 0 0
0 0 0
0 0 0
0 0 0
0 0 0
0 0 0
0 0 0
0 0 0
0 0 0
0 0 0
0 0 0
0 0 0
0 0 0
0 0 0
0 0 0
0 0 0
0 0 0
0 0 0
0 0 0
0 0 0
0 0 0
0 0 0
0 0 0
0 0 0
0 0 0
0 0 0
0 0 0
0 0 0
0 0 0
0 0 0
0 0 0
0 0 0
0 0 0
0 0 0
0 0 0
0 0 0
0 0 0
0 0 0
0 0 0
0 0 0
0 0 0
0 0 0
0 0 0
0 0 0
0 0 0
0 0 0
0 0 0
0 0 0
0 0 0
0 0 0
0 0 0
0 0 0
0 0 0
0 0 0
0 0 0
0 0 0
0 0 0
0 0 0
0 0 0
0 0 0
0 0 0
0 0 0
0 0 0
0 0 0
0 0 0
0 0 0
0 0 0
0 0 0
0 0 0
0 0 0
0 0 0
0 0 0
0 0 0
0 0 0
0 0 0
0 0 0
0 0 0
0 0 0
0 0 0
0 0 0
0 0 0
0 0 0
0 0 0
0 0 0
0 0 0
0 0 0
0 0 0
0 0 0
0 0 0
0 0 0
0 0 0
0 0 0
0 0 0
0 0 0
0 0 0
0 0 0
0 0 0
0 0 0
0 0 0
0 0 0
0 0 0
0 0 0
199 115 31
200 115 31
201 116 31
202 116 31
203 117 31
204 117 31
205 118 31
206 118 31
207 119 31
208 119 31
209 120 31
210 120 31
211 121 31
212 121 31
213 122 31
214 122 31
215 123 31
216 123 31
217 124 31
218 124 31
219 125 31
220 125 31
221 126 31
222 126 31
223 127 31
224 127 31
225 128 31
226 128 31
227 129 31
228 129 31
229 130 31
230 130 31
231 131 31
232 131 31
233 132 31
234 132 31
235 133 31
236 133 31
237 134 31
238 134 31
239 135 31
240 135 31
241 136 31
242 136 31
243 137 31
244 137 31
245 138 31
246 138 31
247 139 31
248 139 31
249 140 31
250 140 31
251 141 31
252 141 31
253 142 31
254 142 31
0 16 32
1 16 32
2 17 32
3 17 32
4 18 32
5 18 32
6 19 32
7 19 32
8 20 32
9 20 32
10 21 32
11 21 32
12 22 32
13 22 32
14 23 32
15 23 32
16 24 32
17 24 32
18 25 32
19 25 32
20 26 32
21 26 32
22 27 32
23 27 32
24 28 32
25 28 32
26 29 32
27 29 32
28 30 32
29 30 32
30 31 32
31 31 32
32 32 32
33 32 32
34 33 32
35 33 32
36 34 32
37 34 32
38 35 32
39 35 32
40 36 32
41 36 32
42 37 32
43 37 32
44 38 32
45 38 32
46 39 32
47 39 32
48 40 32
49 40 32
50 41 32
51 41 32
52 42 32
53 42 32
0 0 0
0 0 0
0 0 0
0 0 0
0 0 0
0 0 0
0 0 0
0 0 0
0 0 0
0 0 0
0 0 0
0 0 0
0 0 0
0 0 0
0 0 0
0 0 0
0 0 0
0 0 0
0 0 0
0 0 0
0 0 0
0 0 0
0 0 0
0 0 0
0 0 0
0 0 0
0 0 0
0 0 0
0 0 0
0 0 0
0 0 0
0 0 0
0 0 0
0 0 0
0 0 0
0 0 0
0 0 0
0 0 0
0 0 0
0 0 0
0 0 0
0 0 0
0 0 0
0 0 0
0 0 0
0 0 0
0 0 0
0 0 0
0 0 0
0 0 0
0 0 0
0 0 0
0 0 0
0 0 0
0 0 0
0 0 0
0 0 0
0 0 0
0 0 0
0 0 0
0 0 0
0 0 0
0 0 0
0 0 0
0 0 0
0 0 0
0 0 0
0 0 0
0 0 0
0 0 0
0 0 0
0 0 0
0 0 0
0 0 0
0 0 0
0 0 0
0 0 0
0 0 0
0 0 0
0 0 0
0 0 0
0 0 0
0 0 0
0 0 0
0 0 0
0 0 0
0 0 0
0 0 0
0 0 0
0 0 0
0 0 0
0 0 0
0 0 0
0 0 0
0 0 0
0 0 0
0 0 0
0 0 0
0 0 0
0 0 0
0 0 0
0 0 0
0 0 0
0 0 0
0 0 0
0 0 0
0 0 0
0 0 0
0 0 0
0 0 0
0 0 0
0 0 0
0 0 0
0 0 0
0 0 0
0 0 0
0 0 0
0 0 0
0 0 0
0 0 0
0 0 0
0 0 0
0 0 0
0 0 0
0 0 0
0 0 0
0 0 0
0 0 0
0 0 0
0 0 0
0 0 0
0 0 0
0 0 0
0 0 0
0 0 0
0 0 0
0 0 0
0 0 0
0 0 0
0 0 0
0 0 0
0 0 0
0 0 0
0 0 0
0 0 0
0 0 0
0 0 0
201 116 32
202 117 32
203 117 32
204 118 32
205 118 32
206 119 32
207 119 32
208 120 32
209 120 32
210 121 32
211 121 32
212 122 32
213 122 32
214 123 32
215 123 32
216 124 32
217 124 32
218 125 32
219 125 32
220 126 32
221 126 32
222 127 32
223 127 32
224 128 32
225 128 32
226 129 32
227 129 32
228 130 32
229 130 32
230 131 32
231 131 32
232 132 32
233 132 32
234 133 32
235 133 32
236 134 32
237 134 32
238 135 32
239 135 32
240 136 32
241 136 32
242 137 32
243 137 32
244 138 32
245 138 32
246 139 32
247 139 32
248 140 32
249 140 32
250 141 32
251 141 32
252 142 32
253 142 32
254 143 32
0 16 33
1 17 33
2 17 33
3 18 33
4 18 33
5 19 33
6 19 33
7 20 33
8 20 33
9 21 33
10 21 33
11 22 33
12 22 33
13 23 33
14 23 33
15 24 33
16 24 33
17 25 33
18 25 33
19 26 33
20 26 33
21 27 33
22 27 33
23 28 33
24 28 33
25 29 33
26 29 33
27 30 33
28 30 33
29 31 33
30 31 33
31 32 33
32 32 33
33 33 33
34 33 33
35 34 33
36 34 33
37 35 33
38 35 33
39 36 33
40 36 33
41 37 33
42 37 33
43 38 33
44 38 33
45 39 33
46 39 33
47 40 33
48 40 33
49 41 33
50 41 33
51 42 33
52 42 33
0 0 0
0 0 0
0 0 0
0 0 0
0 0 0
0 0 0
0 0 0
0 0 0
0 0 0
0 0 0
0 0 0
0 0 0
0 0 0
0 0 0
0 0 0
0 0 0
0 0 0
0 0 0
0 0 0
0 0 0
0 0 0
0 0 0
0 0 0
0 0 0
0 0 0
0 0 0
0 0 0
0 0 0
0 0 0
0 0 0
0 0 0
0 0 0
0 0 0
0 0 0
0 0 0
0 0 0
0 0 0
0 0 0
0 0 0
0 0 0
0 0 0
0 0 0
0 0 0
0 0 0
0 0 0
0 0 0
0 0 0
0 0 0
0 0 0
0 0 0
0 0 0
0 0 0
0 0 0
0 0 0
0 0 0
0 0 0
0 0 0
0 0 0
0 0 0
0 0 0
0 0 0
0 0 0
0 0 0
0 0 0
0 0 0
0 0 0
0 0 0
0 0 0
0 0 0
0 0 0
0 0 0
0 0 0
0 0 0
0 0 0
0 0 0
0 0 0
0 0 0
0 0 0
0 0 0
0 0 0
0 0 0
0 0 0
0 0 0
0 0 0
0 0 0
0 0 0
0 0 0
0 0 0
0 0 0
0 0 0
0 0 0
0 0 0
0 0 0
0 0 0
0 0 0
0 0 0
0 0 0
0 0 0
0 0 0
0 0 0
0 0 0
0 0 0
0 0 0
0 0 0
0 0 0
0 0 0
0 0 0
0 0 0
0 0 0
0 0 0
0 0 0
0 0 0
0 0 0
0 0 0
0 0 0
0 0 0
0 0 0
0 0 0
0 0 0
0 0 0
0 0 0
0 0 0
0 0 0
0 0 0
0 0 0
0 0 0
0 0 0
0 0 0
0 0 0
0 0 0
0 0 0
0 0 0
0 0 0
0 0 0
0 0 0
0 0 0
0 0 0
0 0 0
0 0 0
0 0 0
0 0 0
0 0 0
0 0 0
0 0 0
0 0 0
0 0 0
0 0 0
0 0 0
0 0 0
202 117 33
203 118 33
204 118 33
205 119 33
206 119 33
207 120 33
208 120 33
209 121 33
210 121 33
211 122 33
212 122 33
213 123 33
214 123 33
215 124 33
216 124 33
217 125 33
218 125 33
219 126 33
220 126 33
221 127 33
222 127 33
223 128 33
224 128 33
225 129 33
226 129 33
227 130 33
228 130 33
229 131 33
230 131 33
231 132 33
232 132 33
233 133 33
234 133 33
235 134 33
236 134 33
237 135 33
238 135 33
239 136 33
240 136 33
241 137 33
242 137 33
243 138 33
244 138 33
245 139 33
246 139 33
247 140 33
248 140 33
249 141 33
250 141 33
251 142 33
252 142 33
253 143 33
254 143 33
0 17 34
1 17 34
2 18 34
3 18 34
4 19 34
5 19 34
6 20 34
7 20 34
8 21 34
9 21 34
10 22 34
11 22 34
12 23 34
13 23 34
14 24 34
15 24 34
16 25 34
17 25 34
18 26 34
19 26 34
20 27 34
21 27 34
22 28 34
23 28 34
24 29 34
25 29 34
26 30 34
27 30 34
28 31 34
29 31 34
30 32 34
31 32 34
32 33 34
33 33 34
34 34 34
35 34 34
36 35 34
37 35 34
38 36 34
39 36 34
40 37 34
41 37 34
42 38 34
43 38 34
44 39 34
45 39 34
46 40 34
47 40 34
48 41 34
49 41 34
50 42 34
51 42 34
0 0 0
0 0 0
0 0 0
0 0 0
0 0 0
0 0 0
0 0 0
0 0 0
0 0 0
0 0 0
0 0 0
0 0 0
0 0 0
0 0 0
0 0 0
0 0 0
0 0 0
0 0 0
0 0 0
0 0 0
0 0 0
0 0 0
0 0 0
0 0 0
0 0 0
0 0 0
0 0 0
0 0 0
0 0 0
0 0 0
0 0 0
0 0 0
0 0 0
0 0 0
0 0 0
0 0 0
0 0 0
0 0 0
0 0 0
0 0 0
0 0 0
0 0 0
0 0 0
0 0 0
0 0 0
0 0 0
0 0 0
0 0 0
0 0 0
0 0 0
0 0 0
0 0 0
0 0 0
0 0 0
0 0 0
0 0 0
0 0 0
0 0 0
0 0 0
0 0 0
0 0 0
0 0 0
0 0 0
0 0 0
0 0 0
0 0 0
0 0 0
0 0 0
0 0 0
0 0 0
0 0 0
0 0 0
0 0 0
0 0 0
0 0 0
0 0 0
0 0 0
0 0 0
0 0 0
0 0 0
0 0 0
0 0 0
0 0 0
0 0 0
0 0 0
0 0 0
0 0 0
0 0 0
0 0 0
0 0 0
0 0 0
0 0 0
0 0 0
0 0 0
0 0 0
0 0 0
0 0 0
0 0 0
0 0 0
0 0 0
0 0 0
0 0 0
0 0 0
0 0 0
0 0 0
0 0 0
0 0 0
0 0 0
0 0 0
0 0 0
0 0 0
0 0 0
0 0 0
0 0 0
0 0 0
0 0 0
0 0 0
0 0 0
0 0 0
0 0 0
0 0 0
0 0 0
0 0 0
0 0 0
0 0 0
0 0 0
0 0 0
0 0 0
0 0 0
0 0 0
0 0 0
0 0 0
0 0 0
0 0 0
0 0 0
0 0 0
0 0 0
0 0 0
0 0 0
0 0 0
0 0 0
0 0 0
0 0 0
0 0 0
0 0 0
0 0 0
0 0 0
0 0 0
0 0 0
0 0 0
0 0 0
203 118 34
204 119 34
205 119 34
206 120 34
207 120 34
208 121 34
209 121 34
210 122 34
211 122 34
212 123 34
213 123 34
214 124 34
215 124 34
216 125 34
217 125 34
218 126 34
219 126 34
220 127 34
221 127 34
222 128 34
223 128 34
224 129 34
225 129 34
226 130 34
227 130 34
228 131 34
229 131 34
230 132 34
231 132 34
232 133 34
233 133 34
234 134 34
235 134 34
236 135 34
237 135 34
238 136 34
239 136 34
240 137 34
241 137 34
242 138 34
243 138 34
244 139 34
245 139 34
246 140 34
247 140 34
248 141 34
249 141 34
250 142 34
251 142 34
252 143 34
253 143 34
254 144 34
0 17 35
1 18 35
2 18 35
3 19 35
4 19 35
5 20 35
6 20 35
7 21 35
8 21 35
9 22 35
10 22 35
11 23 35
12 23 35
13 24 35
14 24 35
15 25 35
16 25 35
17 26 35
18 26 35
19 27 35
20 27 35
21 28 35
22 28 35
23 29 35
24 29 35
25 30 35
26 30 35
27 31 35
28 31 35
29 32 35
30 32 35
31 33 35
32 33 35
33 34 35
34 34 35
35 35 35
36 35 35
37 36 35
38 36 35
39 37 35
40 37 35
41 38 35
42 38 35
43 39 35
44 39 35
45 40 35
46 40 35
47 41 35
48 41 35
49 42 35
0 0 0
0 0 0
0 0 0
0 0 0
0 0 0
0 0 0
0 0 0
0 0 0
0 0 0
0 0 0
0 0 0
0 0 0
0 0 0
0 0 0
0 0 0
0 0 0
0 0 0
0 0 0
0 0 0
0 0 0
0 0 0
0 0 0
0 0 0
0 0 0
0 0 0
0 0 0
0 0 0
0 0 0
0 0 0
0 0 0
0 0 0
0 0 0
0 0 0
0 0 0
0 0 0
0 0 0
0 0 0
0 0 0
0 0 0
0 0 0
0 0 0
0 0 0
0 0 0
0 0 0
0 0 0
0 0 0
0 0 0
0 0 0
0 0 0
0 0 0
0 0 0
0 0 0
0 0 0
0 0 0
0 0 0
0 0 0
0 0 0
0 0 0
0 0 0
0 0 0
0 0 0
0 0 0
0 0 0
0 0 0
0 0 0
0 0 0
0 0 0
0 0 0
0 0 0
0 0 0
0 0 0
0 0 0
0 0 0
0 0 0
0 0 0
0 0 0
0 0 0
0 0 0
0 0 0
0 0 0
0 0 0
0 0 0
0 0 0
0 0 0
0 0 0
0 0 0
0 0 0
0 0 0
0 0 0
0 0 0
0 0 0
0 0 0
0 0 0
0 0 0
0 0 0
0 0 0
0 0 0
0 0 0
0 0 0
0 0 0
0 0 0
0 0 0
0 0 0
0 0 0
0 0 0
0 0 0
0 0 0
0 0 0
0 0 0
0 0 0
0 0 0
0 0 0
0 0 0
0 0 0
0 0 0
0 0 0
0 0 0
0 0 0
0 0 0
0 0 0
0 0 0
0 0 0
0 0 0
0 0 0
0 0 0
0 0 0
0 0 0
0 0 0
0 0 0
0 0 0
0 0 0
0 0 0
0 0 0
0 0 0
0 0 0
0 0 0
0 0 0
0 0 0
0 0 0
0 0 0
0 0 0
0 0 0
0 0 0
0 0 0
0 0 0
0 0 0
0 0 0
0 0 0
0 0 0
0 0 0
0 0 0
0 0 0
0 0 0
0 0 0
0 0 0
205 120 35
206 120 35
207 121 35
208 121 35
209 122 35
210 122 35
211 123 35
212 123 35
213 124 35
214 124 35
215 125 35
216 125 35
217 126 35
218 126 35
219 127 35
220 127 35
221 128 35
222 128 35
223 129 35
224 129 35
225 130 35
226 130 35
227 131 35
228 131 35
229 132 35
230 132 35
231 133 35
232 133 35
233 134 35
234 134 35
235 135 35
236 135 35
237 136 35
238 136 35
239 137 35
240 137 35
241 138 35
242 138 35
243 139 35
244 139 35
245 140 35
246 140 35
247 141 35
248 141 35
249 142 35
250 142 35
251 143 35
252 143 35
253 144 35
254 144 35
0 18 36
1 18 36
2 19 36
3 19 36
4 20 36
5 20 36
6 21 36
7 21 36
8 22 36
9 22 36
10 23 36
11 23 36
12 24 36
13 24 36
14 25 36
15 25 36
16 26 36
17 26 36
18 27 36
19 27 36
20 28 36
21 28 36
22 29 36
23 29 36
24 30 36
25 30 36
26 31 36
27 31 36
28 32 36
29 32 36
30 33 36
31 33 36
32 34 36
33 34 36
34 35 36
35 35 36
36 36 36
37 36 36
38 37 36
39 37 36
40 38 36
41 38 36
42 39 36
43 39 36
44 40 36
45 40 36
46 41 36
47 41 36
48 42 36
0 0 0
0 0 0
0 0 0
0 0 0
0 0 0
0 0 0
0 0 0
0 0 0
0 0 0
0 0 0
0 0 0
0 0 0
0 0 0
0 0 0
0 0 0
0 0 0
0 0 0
0 0 0
0 0 0
0 0 0
0 0 0
0 0 0
0 0 0
0 0 0
0 0 0
0 0 0
0 0 0
0 0 0
0 0 0
0 0 0
0 0 0
0 0 0
0 0 0
0 0 0
0 0 0
0 0 0
0 0 0
0 0 0
0 0 0
0 0 0
0 0 0
0 0 0
0 0 0
0 0 0
0 0 0
0 0 0
0 0 0
0 0 0
0 0 0
0 0 0
0 0 0
0 0 0
0 0 0
0 0 0
0 0 0
0 0 0
0 0 0
0 0 0
0 0 0
0 0 0
0 0 0
0 0 0
0 0 0
0 0 0
0 0 0
0 0 0
0 0 0
0 0 0
0 0 0
0 0 0
0 0 0
0 0 0
0 0 0
0 0 0
0 0 0
0 0 0
0 0 0
0 0 0
0 0 0
0 0 0
0 0 0
0 0 0
0 0 0
0 0 0
0 0 0
0 0 0
0 0 0
0 0 0
0 0 0
0 0 0
0 0 0
0 0 0
0 0 0
0 0 0
0 0 0
0 0 0
0 0 0
0 0 0
0 0 0
0 0 0
0 0 0
0 0 0
0 0 0
0 0 0
0 0 0
0 0 0
0 0 0
0 0 0
0 0 0
0 0 0
0 0 0
0 0 0
0 0 0
0 0 0
0 0 0
0 0 0
0 0 0
0 0 0
0 0 0
0 0 0
0 0 0
0 0 0
0 0 0
0 0 0
0 0 0
0 0 0
0 0 0
0 0 0
0 0 0
0 0 0
0 0 0
0 0 0
0 0 0
0 0 0
0 0 0
0 0 0
0 0 0
0 0 0
0 0 0
0 0 0
0 0 0
0 0 0
0 0 0
0 0 0
0 0 0
0 0 0
0 0 0
0 0 0
0 0 0
0 0 0
0 0 0
0 0 0
0 0 0
0 0 0
0 0 0
0 0 0
0 0 0
206 121 36
207 121 36
208 122 36
209 122 36
210 123 36
211 123 36
212 124 36
213 124 36
214 125 36
215 125 36
216 126 36
217 126 36
218 127 36
219 127 36
220 128 36
221 128 36
222 129 36
223 129 36
224 130 36
225 130 36
226 131 36
227 131 36
228 132 36
229 132 36
230 133 36
231 133 36
232 134 36
233 134 36
234 135 36
235 135 36
236 136 36
237 136 36
238 137 36
239 137 36
240 138 36
241 138 36
242 139 36
243 139 36
244 140 36
245 140 36
246 141 36
247 141 36
248 142 36
249 142 36
250 143 36
251 143 36
252 144 36
253 144 36
254 145 36
0 18 37
1 19 37
2 19 37
3 20 37
4 20 37
5 21 37
6 21 37
7 22 37
8 22 37
9 23 37
10 23 37
11 24 37
12 24 37
13 25 37
14 25 37
15 26 37
16 26 37
17 27 37
18 27 37
19 28 37
20 28 37
21 29 37
22 29 37
23 30 37
24 30 37
25 31 37
26 31 37
27 32 37
28 32 37
29 33 37
30 33 37
31 34 37
32 34 37
33 35 37
34 35 37
35 36 37
36 36 37
37 37 37
38 37 37
39 38 37
40 38 37
41 39 37
42 39 37
43 40 37
44 40 37
45 41 37
46 41 37
47 42 37
0 0 0
0 0 0
0 0 0
0 0 0
0 0 0
0 0 0
0 0 0
0 0 0
0 0 0
0 0 0
0 0 0
0 0 0
0 0 0
0 0 0
0 0 0
0 0 0
0 0 0
0 0 0
0 0 0
0 0 0
0 0 0
0 0 0
0 0 0
0 0 0
0 0 0
0 0 0
0 0 0
0 0 0
0 0 0
0 0 0
0 0 0
0 0 0
0 0 0
0 0 0
0 0 0
0 0 0
0 0 0
0 0 0
0 0 0
0 0 0
0 0 0
0 0 0
0 0 0
0 0 0
0 0 0
0 0 0
0 0 0
0 0 0
0 0 0
0 0 0
0 0 0
0 0 0
0 0 0
0 0 0
0 0 0
0 0 0
0 0 0
0 0 0
0 0 0
0 0 0
0 0 0
0 0 0
0 0 0
0 0 0
0 0 0
0 0 0
0 0 0
0 0 0
0 0 0
0 0 0
0 0 0
0 0 0
0 0 0
0 0 0
0 0 0
0 0 0
0 0 0
0 0 0
0 0 0
0 0 0
0 0 0
0 0 0
0 0 0
0 0 0
0 0 0
0 0 0
0 0 0
0 0 0
0 0 0
0 0 0
0 0 0
0 0 0
0 0 0
0 0 0
0 0 0
0 0 0
0 0 0
0 0 0
0 0 0
0 0 0
0 0 0
0 0 0
0 0 0
0 0 0
0 0 0
0 0 0
0 0 0
0 0 0
0 0 0
0 0 0
0 0 0
0 0 0
0 0 0
0 0 0
0 0 0
0 0 0
0 0 0
0 0 0
0 0 0
0 0 0
0 0 0
0 0 0
0 0 0
0 0 0
0 0 0
0 0 0
0 0 0
0 0 0
0 0 0
0 0 0
0 0 0
0 0 0
0 0 0
0 0 0
0 0 0
0 0 0
0 0 0
0 0 0
0 0 0
0 0 0
0 0 0
0 0 0
0 0 0
0 0 0
0 0 0
0 0 0
0 0 0
0 0 0
0 0 0
0 0 0
0 0 0
0 0 0
0 0 0
0 0 0
0 0 0
0 0 0
0 0 0
0 0 0
0 0 0
207 122 37
208 122 37
209 123 37
210 123 37
211 124 37
212 124 37
213 125 37
214 125 37
215 126 37
216 126 37
217 127 37
218 127 37
219 128 37
220 128 37
221 129 37
222 129 37
223 130 37
224 130 37
225 131 37
226 131 37
227 132 37
228 132 37
229 133 37
230 133 37
231 134 37
232 134 37
233 135 37
234 135 37
235 136 37
236 136 37
237 137 37
238 137 37
239 138 37
240 138 37
241 139 37
242 139 37
243 140 37
244 140 37
245 141 37
246 141 37
247 142 37
248 142 37
249 143 37
250 143 37
251 144 37
252 144 37
253 145 37
254 145 37
0 19 38
1 19 38
2 20 38
3 20 38
4 21 38
5 21 38
6 22 38
7 22 38
8 23 38
9 23 38
10 24 38
11 24 38
12 25 38
13 25 38
14 26 38
15 26 38
16 27 38
17 27 38
18 28 38
19 28 38
20 29 38
21 29 38
22 30 38
23 30 38
24 31 38
25 31 38
26 32 38
27 32 38
28 33 38
29 33 38
30 34 38
31 34 38
32 35 38
33 35 38
34 36 38
35 36 38
36 37 38
37 37 38
38 38 38
39 38 38
40 39 38
41 39 38
42 40 38
43 40 38
44 41 38
45 41 38
46 42 38
0 0 0
0 0 0
0 0 0
0 0 0
0 0 0
0 0 0
0 0 0
0 0 0
0 0 0
0 0 0
0 0 0
0 0 0
0 0 0
0 0 0
0 0 0
0 0 0
0 0 0
0 0 0
0 0 0
0 0 0
0 0 0
0 0 0
0 0 0
0 0 0
0 0 0
0 0 0
0 0 0
0 0 0
0 0 0
0 0 0
0 0 0
0 0 0
0 0 0
0 0 0
0 0 0
0 0 0
0 0 0
0 0 0
0 0 0
0 0 0
0 0 0
0 0 0
0 0 0
0 0 0
0 0 0
0 0 0
0 0 0
0 0 0
0 0 0
0 0 0
0 0 0
0 0 0
0 0 0
0 0 0
0 0 0
0 0 0
0 0 0
0 0 0
0 0 0
0 0 0
0 0 0
0 0 0
0 0 0
0 0 0
0 0 0
0 0 0
0 0 0
0 0 0
0 0 0
0 0 0
0 0 0
0 0 0
0 0 0
0 0 0
0 0 0
0 0 0
0 0 0
0 0 0
0 0 0
0 0 0
0 0 0
0 0 0
0 0 0
0 0 0
0 0 0
0 0 0
0 0 0
0 0 0
0 0 0
0 0 0
0 0 0
0 0 0
0 0 0
0 0 0
0 0 0
0 0 0
0 0 0
0 0 0
0 0 0
0 0 0
0 0 0
0 0 0
0 0 0
0 0 0
0 0 0
0 0 0
0 0 0
0 0 0
0 0 0
0 0 0
0 0 0
0 0 0
0 0 0
0 0 0
0 0 0
0 0 0
0 0 0
0 0 0
0 0 0
0 0 0
0 0 0
0 0 0
0 0 0
0 0 0
0 0 0
0 0 0
0 0 0
0 0 0
0 0 0
0 0 0
0 0 0
0 0 0
0 0 0
0 0 0
0 0 0
0 0 0
0 0 0
0 0 0
0 0 0
0 0 0
0 0 0
0 0 0
0 0 0
0 0 0
0 0 0
0 0 0
0 0 0
0 0 0
0 0 0
0 0 0
0 0 0
0 0 0
0 0 0
0 0 0
0 0 0
0 0 0
0 0 0
0 0 0
0 0 0
0 0 0
0 0 0
208 123 38
209 123 38
210 124 38
211 124 38
212 125 38
213 125 38
214 126 38
215 126 38
216 127 38
217 127 38
218 128 38
219 128 38
220 129 38
221 129 38
222 130 38
223 130 38
224 131 38
225 131 38
226 132 38
227 132 38
228 133 38
229 133 38
230 134 38
231 134 38
232 135 38
233 135 38
234 136 38
235 136 38
236 137 38
237 137 38
238 138 38
239 138 38
240 139 38
241 139 38
242 140 38
243 140 38
244 141 38
245 141 38
246 142 38
247 142 38
248 143 38
249 143 38
250 144 38
251 144 38
252 145 38
253 145 38
254 146 38
0 19 39
1 20 39
2 20 39
3 21 39
4 21 39
5 22 39
6 22 39
7 23 39
8 23 39
9 24 39
10 24 39
11 25 39
12 25 39
13 26 39
14 26 39
15 27 39
16 27 39
17 28 39
18 28 39
19 29 39
20 29 39
21 30 39
22 30 39
23 31 39
24 31 39
25 32 39
26 32 39
27 33 39
28 33 39
29 34 39
30 34 39
31 35 39
32 35 39
33 36 39
34 36 39
35 37 39
36 37 39
37 38 39
38 38 39
39 39 39
40 39 39
41 40 39
42 40 39
43 41 39
44 41 39
45 42 39
0 0 0
0 0 0
0 0 0
0 0 0
0 0 0
0 0 0
0 0 0
0 0 0
0 0 0
0 0 0
0 0 0
0 0 0
0 0 0
0 0 0
0 0 0
0 0 0
0 0 0
0 0 0
0 0 0
0 0 0
0 0 0
0 0 0
0 0 0
0 0 0
0 0 0
0 0 0
0 0 0
0 0 0
0 0 0
0 0 0
0 0 0
0 0 0
0 0 0
0 0 0
0 0 0
0 0 0
0 0 0
0 0 0
0 0 0
0 0 0
0 0 0
0 0 0
0 0 0
0 0 0
0 0 0
0 0 0
0 0 0
0 0 0
0 0 0
0 0 0
0 0 0
0 0 0
0 0 0
0 0 0
0 0 0
0 0 0
0 0 0
0 0 0
0 0 0
0 0 0
0 0 0
0 0 0
0 0 0
0 0 0
0 0 0
0 0 0
0 0 0
0 0 0
0 0 0
0 0 0
0 0 0
0 0 0
0 0 0
0 0 0
0 0 0
0 0 0
0 0 0
0 0 0
0 0 0
0 0 0
0 0 0
0 0 0
0 0 0
0 0 0
0 0 0
0 0 0
0 0 0
0 0 0
0 0 0
0 0 0
0 0 0
0 0 0
0 0 0
0 0 0
0 0 0
0 0 0
0 0 0
0 0 0
0 0 0
0 0 0
0 0 0
0 0 0
0 0 0
0 0 0
0 0 0
0 0 0
0 0 0
0 0 0
0 0 0
0 0 0
0 0 0
0 0 0
0 0 0
0 0 0
0 0 0
0 0 0
0 0 0
0 0 0
0 0 0
0 0 0
0 0 0
0 0 0
0 0 0
0 0 0
0 0 0
0 0 0
0 0 0
0 0 0
0 0 0
0 0 0
0 0 0
0 0 0
0 0 0
0 0 0
0 0 0
0 0 0
0 0 0
0 0 0
0 0 0
0 0 0
0 0 0
0 0 0
0 0 0
0 0 0
0 0 0
0 0 0
0 0 0
0 0 0
0 0 0
0 0 0
0 0 0
0 0 0
0 0 0
0 0 0
0 0 0
0 0 0
0 0 0
0 0 0
0 0 0
0 0 0
0 0 0
0 0 0
0 0 0
209 124 39
210 124 39
211 125 39
212 125 39
213 126 39
214 126 39
215 127 39
216 127 39
217 128 39
218 128 39
219 129 39
220 129 39
221 130 39
222 130 39
223 131 39
224 131 39
225 132 39
226 132 39
227 133 39
228 133 39
229 134 39
230 134 39
231 135 39
232 135 39
233 136 39
234 136 39
235 137 39
236 137 39
237 138 39
238 138 39
239 139 39
240 139 39
241 140 39
242 140 39
243 141 39
244 141 39
245 142 39
246 142 39
247 143 39
248 143 39
249 144 39
250 144 39
251 145 39
252 145 39
253 146 39
254 146 39
0 20 40
1 20 40
2 21 40
3 21 40
4 22 40
5 22 40
6 23 40
7 23 40
8 24 40
9 24 40
10 25 40
11 25 40
12 26 40
13 26 40
14 27 40
15 27 40
16 28 40
17 28 40
18 29 40
19 29 40
20 30 40
21 30 40
22 31 40
23 31 40
24 32 40
25 32 40
26 33 40
27 33 40
28 34 40
29 34 40
30 35 40
31 35 40
32 36 40
33 36 40
34 37 40
35 37 40
36 38 40
37 38 40
38 39 40
39 39 40
40 40 40
41 40 40
42 41 40
43 41 40
44 42 40
0 0 0
0 0 0
0 0 0
0 0 0
0 0 0
0 0 0
0 0 0
0 0 0
0 0 0
0 0 0
0 0 0
0 0 0
0 0 0
0 0 0
0 0 0
0 0 0
0 0 0
0 0 0
0 0 0
0 0 0
0 0 0
0 0 0
0 0 0
0 0 0
0 0 0
0 0 0
0 0 0
0 0 0
0 0 0
0 0 0
0 0 0
0 0 0
0 0 0
0 0 0
0 0 0
0 0 0
0 0 0
0 0 0
0 0 0
0 0 0
0 0 0
0 0 0
0 0 0
0 0 0
0 0 0
0 0 0
0 0 0
0 0 0
0 0 0
0 0 0
0 0 0
0 0 0
0 0 0
0 0 0
0 0 0
0 0 0
0 0 0
0 0 0
0 0 0
0 0 0
0 0 0
0 0 0
0 0 0
0 0 0
0 0 0
0 0 0
0 0 0
0 0 0
0 0 0
0 0 0
0 0 0
0 0 0
0 0 0
0 0 0
0 0 0
0 0 0
0 0 0
0 0 0
0 0 0
0 0 0
0 0 0
0 0 0
0 0 0
0 0 0
0 0 0
0 0 0
0 0 0
0 0 0
0 0 0
0 0 0
0 0 0
0 0 0
0 0 0
0 0 0
0 0 0
0 0 0
0 0 0
0 0 0
0 0 0
0 0 0
0 0 0
0 0 0
0 0 0
0 0 0
0 0 0
0 0 0
0 0 0
0 0 0
0 0 0
0 0 0
0 0 0
0 0 0
0 0 0
0 0 0
0 0 0
0 0 0
0 0 0
0 0 0
0 0 0
0 0 0
0 0 0
0 0 0
0 0 0
0 0 0
0 0 0
0 0 0
0 0 0
0 0 0
0 0 0
0 0 0
0 0 0
0 0 0
0 0 0
0 0 0
0 0 0
0 0 0
0 0 0
0 0 0
0 0 0
0 0 0
0 0 0
0 0 0
0 0 0
0 0 0
0 0 0
0 0 0
0 0 0
0 0 0
0 0 0
0 0 0
0 0 0
0 0 0
0 0 0
0 0 0
0 0 0
0 0 0
0 0 0
0 0 0
0 0 0
0 0 0
0 0 0
0 0 0
0 0 0
0 0 0
0 0 0
210 125 40
211 125 40
212 126 40
213 126 40
214 127 40
215 127 40
216 128 40
217 128 40
218 129 40
219 129 40
220 130 40
221 130 40
222 131 40
223 131 40
224 132 40
225 132 40
226 133 40
227 133 40
228 134 40
229 134 40
230 135 40
231 135 40
232 136 40
233 136 40
234 137 40
235 137 40
236 138 40
237 138 40
238 139 40
239 139 40
240 140 40
241 140 40
242 141 40
243 141 40
244 142 40
245 142 40
246 143 40
247 143 40
248 144 40
249 144 40
250 145 40
251 145 40
252 146 40
253 146 40
254 147 40
0 20 41
1 21 41
2 21 41
3 22 41
4 22 41
5 23 41
6 23 41
7 24 41
8 24 41
9 25 41
10 25 41
11 26 41
12 26 41
13 27 41
14 27 41
15 28 41
16 28 41
17 29 41
18 29 41
19 30 41
20 30 41
21 31 41
22 31 41
23 32 41
24 32 41
25 33 41
26 33 41
27 34 41
28 34 41
29 35 41
30 35 41
31 36 41
32 36 41
33 37 41
34 37 41
35 38 41
36 38 41
37 39 41
38 39 41
39 40 41
40 40 41
41 41 41
42 41 41
43 42 41
0 0 0
0 0 0
0 0 0
0 0 0
0 0 0
0 0 0
0 0 0
0 0 0
0 0 0
0 0 0
0 0 0
0 0 0
0 0 0
0 0 0
0 0 0
0 0 0
0 0 0
0 0 0
0 0 0
0 0 0
0 0 0
0 0 0
0 0 0
0 0 0
0 0 0
0 0 0
0 0 0
0 0 0
0 0 0
0 0 0
0 0 0
0 0 0
0 0 0
0 0 0
0 0 0
0 0 0
0 0 0
0 0 0
0 0 0
0 0 0
0 0 0
0 0 0
0 0 0
0 0 0
0 0 0
0 0 0
0 0 0
0 0 0
0 0 0
0 0 0
0 0 0
0 0 0
0 0 0
0 0 0
0 0 0
0 0 0
0 0 0
0 0 0
0 0 0
0 0 0
0 0 0
0 0 0
0 0 0
0 0 0
0 0 0
0 0 0
0 0 0
0 0 0
0 0 0
0 0 0
0 0 0
0 0 0
0 0 0
0 0 0
0 0 0
0 0 0
0 0 0
0 0 0
0 0 0
0 0 0
0 0 0
0 0 0
0 0 0
0 0 0
0 0 0
0 0 0
0 0 0
0 0 0
0 0 0
0 0 0
0 0 0
0 0 0
0 0 0
0 0 0
0 0 0
0 0 0
0 0 0
0 0 0
0 0 0
0 0 0
0 0 0
0 0 0
0 0 0
0 0 0
0 0 0
0 0 0
0 0 0
0 0 0
0 0 0
0 0 0
0 0 0
0 0 0
0 0 0
0 0 0
0 0 0
0 0 0
0 0 0
0 0 0
0 0 0
0 0 0
0 0 0
0 0 0
0 0 0
0 0 0
0 0 0
0 0 0
0 0 0
0 0 0
0 0 0
0 0 0
0 0 0
0 0 0
0 0 0
0 0 0
0 0 0
0 0 0
0 0 0
0 0 0
0 0 0
0 0 0
0 0 0
0 0 0
0 0 0
0 0 0
0 0 0
0 0 0
0 0 0
0 0 0
0 0 0
0 0 0
0 0 0
0 0 0
0 0 0
0 0 0
0 0 0
0 0 0
0 0 0
0 0 0
0 0 0
0 0 0
0 0 0
0 0 0
0 0 0
0 0 0
0 0 0
0 0 0
0 0 0
211 126 41
212 126 41
213 127 41
214 127 41
215 128 41
216 128 41
217 129 41
218 129 41
219 130 41
220 130 41
221 131 41
222 131 41
223 132 41
224 132 41
225 133 41
226 133 41
227 134 41
228 134 41
229 135 41
230 135 41
231 136 41
232 136 41
233 137 41
234 137 41
235 138 41
236 138 41
237 139 41
238 139 41
239 140 41
240 140 41
241 141 41
242 141 41
243 142 41
244 142 41
245 143 41
246 143 41
247 144 41
248 144 41
249 145 41
250 145 41
251 146 41
252 146 41
253 147 41
254 147 41
0 21 42
1 21 42
2 22 42
3 22 42
4 23 42
5 23 42
6 24 42
7 24 42
8 25 42
9 25 42
10 26 42
11 26 42
12 27 42
13 27 42
14 28 42
15 28 42
16 29 42
17 29 42
18 30 42
19 30 42
20 31 42
21 31 42
22 32 42
23 32 42
24 33 42
25 33 42
26 34 42
27 34 42
28 35 42
29 35 42
30 36 42
31 36 42
32 37 42
33 37 42
34 38 42
35 38 42
36 39 42
37 39 42
38 40 42
39 40 42
40 41 42
41 41 42
42 42 42
0 0 0
0 0 0
0 0 0
0 0 0
0 0 0
0 0 0
0 0 0
0 0 0
0 0 0
0 0 0
0 0 0
0 0 0
0 0 0
0 0 0
0 0 0
0 0 0
0 0 0
0 0 0
0 0 0
0 0 0
0 0 0
0 0 0
0 0 0
0 0 0
0 0 0
0 0 0
0 0 0
0 0 0
0 0 0
0 0 0
0 0 0
0 0 0
0 0 0
0 0 0
0 0 0
0 0 0
0 0 0
0 0 0
0 0 0
0 0 0
0 0 0
0 0 0
0 0 0
0 0 0
0 0 0
0 0 0
0 0 0
0 0 0
0 0 0
0 0 0
0 0 0
0 0 0
0 0 0
0 0 0
0 0 0
0 0 0
0 0 0
0 0 0
0 0 0
0 0 0
0 0 0
0 0 0
0 0 0
0 0 0
0 0 0
0 0 0
0 0 0
0 0 0
0 0 0
0 0 0
0 0 0
0 0 0
0 0 0
0 0 0
0 0 0
0 0 0
0 0 0
0 0 0
0 0 0
0 0 0
0 0 0
0 0 0
0 0 0
0 0 0
0 0 0
0 0 0
0 0 0
0 0 0
0 0 0
0 0 0
0 0 0
0 0 0
0 0 0
0 0 0
0 0 0
0 0 0
0 0 0
0 0 0
0 0 0
0 0 0
0 0 0
0 0 0
0 0 0
0 0 0
0 0 0
0 0 0
0 0 0
0 0 0
0 0 0
0 0 0
0 0 0
0 0 0
0 0 0
0 0 0
0 0 0
0 0 0
0 0 0
0 0 0
0 0 0
0 0 0
0 0 0
0 0 0
0 0 0
0 0 0
0 0 0
0 0 0
0 0 0
0 0 0
0 0 0
0 0 0
0 0 0
0 0 0
0 0 0
0 0 0
0 0 0
0 0 0
0 0 0
0 0 0
0 0 0
0 0 0
0 0 0
0 0 0
0 0 0
0 0 0
0 0 0
0 0 0
0 0 0
0 0 0
0 0 0
0 0 0
0 0 0
0 0 0
0 0 0
0 0 0
0 0 0
0 0 0
0 0 0
0 0 0
0 0 0
0 0 0
0 0 0
0 0 0
0 0 0
0 0 0
0 0 0
0 0 0
0 0 0
0 0 0
0 0 0
212 127 42
213 127 42
214 128 42
215 128 42
216 129 42
217 129 42
218 130 42
219 130 42
220 131 42
221 131 42
222 132 42
223 132 42
224 133 42
225 133 42
226 134 42
227 134 42
228 135 42
229 135 42
230 136 42
231 136 42
232 137 42
233 137 42
234 138 42
235 138 42
236 139 42
237 139 42
238 140 42
239 140 42
240 141 42
241 141 42
242 142 42
243 142 42
244 143 42
245 143 42
246 144 42
247 144 42
248 145 42
249 145 42
250 146 42
251 146 42
252 147 42
253 147 42
254 148 42
0 21 43
1 22 43
2 22 43
3 23 43
4 23 43
5 24 43
6 24 43
7 25 43
8 25 43
9 26 43
10 26 43
11 27 43
12 27 43
13 28 43
14 28 43
15 29 43
16 29 43
17 30 43
18 30 43
19 31 43
20 31 43
21 32 43
22 32 43
23 33 43
24 33 43
25 34 43
26 34 43
27 35 43
28 35 43
29 36 43
30 36 43
31 37 43
32 37 43
33 38 43
34 38 43
35 39 43
36 39 43
37 40 43
38 40 43
39 41 43
40 41 43
41 42 43
0 0 0
0 0 0
0 0 0
0 0 0
0 0 0
0 0 0
0 0 0
0 0 0
0 0 0
0 0 0
0 0 0
0 0 0
0 0 0
0 0 0
0 0 0
0 0 0
0 0 0
0 0 0
0 0 0
0 0 0
0 0 0
0 0 0
0 0 0
0 0 0
0 0 0
0 0 0
0 0 0
0 0 0
0 0 0
0 0 0
0 0 0
0 0 0
0 0 0
0 0 0
0 0 0
0 0 0
0 0 0
0 0 0
0 0 0
0 0 0
0 0 0
0 0 0
0 0 0
0 0 0
0 0 0
0 0 0
0 0 0
0 0 0
0 0 0
0 0 0
0 0 0
0 0 0
0 0 0
0 0 0
0 0 0
0 0 0
0 0 0
0 0 0
0 0 0
0 0 0
0 0 0
0 0 0
0 0 0
0 0 0
0 0 0
0 0 0
0 0 0
0 0 0
0 0 0
0 0 0
0 0 0
0 0 0
0 0 0
0 0 0
0 0 0
0 0 0
0 0 0
0 0 0
0 0 0
0 0 0
0 0 0
0 0 0
0 0 0
0 0 0
0 0 0
0 0 0
0 0 0
0 0 0
0 0 0
0 0 0
0 0 0
0 0 0
0 0 0
0 0 0
0 0 0
0 0 0
0 0 0
0 0 0
0 0 0
0 0 0
0 0 0
0 0 0
0 0 0
0 0 0
0 0 0
0 0 0
0 0 0
0 0 0
0 0 0
0 0 0
0 0 0
0 0 0
0 0 0
0 0 0
0 0 0
0 0 0
0 0 0
0 0 0
0 0 0
0 0 0
0 0 0
0 0 0
0 0 0
0 0 0
0 0 0
0 0 0
0 0 0
0 0 0
0 0 0
0 0 0
0 0 0
0 0 0
0 0 0
0 0 0
0 0 0
0 0 0
0 0 0
0 0 0
0 0 0
0 0 0
0 0 0
0 0 0
0 0 0
0 0 0
0 0 0
0 0 0
0 0 0
0 0 0
0 0 0
0 0 0
0 0 0
0 0 0
0 0 0
0 0 0
0 0 0
0 0 0
0 0 0
0 0 0
0 0 0
0 0 0
0 0 0
0 0 0
0 0 0
0 0 0
0 0 0
0 0 0
0 0 0
0 0 0
0 0 0
0 0 0
0 0 0
213 128 43
214 128 43
215 129 43
216 129 43
217 130 43
218 130 43
219 131 43
220 131 43
221 132 43
222 132 43
223 133 43
224 133 43
225 134 43
226 134 43
227 135 43
228 135 43
229 136 43
230 136 43
231 137 43
232 137 43
233 138 43
234 138 43
235 139 43
236 139 43
237 140 43
238 140 43
239 141 43
240 141 43
241 142 43
242 142 43
243 143 43
244 143 43
245 144 43
246 144 43
247 145 43
248 145 43
249 146 43
250 146 43
251 147 43
252 147 43
253 148 43
254 148 43
0 22 44
1 22 44
2 23 44
3 23 44
4 24 44
5 24 44
6 25 44
7 25 44
8 26 44
9 26 44
10 27 44
11 27 44
12 28 44
13 28 44
14 29 44
15 29 44
16 30 44
17 30 44
18 31 44
19 31 44
20 32 44
21 32 44
22 33 44
23 33 44
24 34 44
25 34 44
26 35 44
27 35 44
28 36 44
29 36 44
30 37 44
31 37 44
32 38 44
33 38 44
34 39 44
35 39 44
36 40 44
37 40 44
38 41 44
39 41 44
40 42 44
0 0 0
0 0 0
0 0 0
0 0 0
0 0 0
0 0 0
0 0 0
0 0 0
0 0 0
0 0 0
0 0 0
0 0 0
0 0 0
0 0 0
0 0 0
0 0 0
0 0 0
0 0 0
0 0 0
0 0 0
0 0 0
0 0 0
0 0 0
0 0 0
0 0 0
0 0 0
0 0 0
0 0 0
0 0 0
0 0 0
0 0 0
0 0 0
0 0 0
0 0 0
0 0 0
0 0 0
0 0 0
0 0 0
0 0 0
0 0 0
0 0 0
0 0 0
0 0 0
0 0 0
0 0 0
0 0 0
0 0 0
0 0 0
0 0 0
0 0 0
0 0 0
0 0 0
0 0 0
0 0 0
0 0 0
0 0 0
0 0 0
0 0 0
0 0 0
0 0 0
0 0 0
0 0 0
0 0 0
0 0 0
0 0 0
0 0 0
0 0 0
0 0 0
0 0 0
0 0 0
0 0 0
0 0 0
0 0 0
0 0 0
0 0 0
0 0 0
0 0 0
0 0 0
0 0 0
0 0 0
0 0 0
0 0 0
0 0 0
0 0 0
0 0 0
0 0 0
0 0 0
0 0 0
0 0 0
0 0 0
0 0 0
0 0 0
0 0 0
0 0 0
0 0 0
0 0 0
0 0 0
0 0 0
0 0 0
0 0 0
0 0 0
0 0 0
0 0 0
0 0 0
0 0 0
0 0 0
0 0 0
0 0 0
0 0 0
0 0 0
0 0 0
0 0 0
0 0 0
0 0 0
0 0 0
0 0 0
0 0 0
0 0 0
0 0 0
0 0 0
0 0 0
0 0 0
0 0 0
0 0 0
0 0 0
0 0 0
0 0 0
0 0 0
0 0 0
0 0 0
0 0 0
0 0 0
0 0 0
0 0 0
0 0 0
0 0 0
0 0 0
0 0 0
0 0 0
0 0 0
0 0 0
0 0 0
0 0 0
0 0 0
0 0 0
0 0 0
0 0 0
0 0 0
0 0 0
0 0 0
0 0 0
0 0 0
0 0 0
0 0 0
0 0 0
0 0 0
0 0 0
0 0 0
0 0 0
0 0 0
0 0 0
0 0 0
0 0 0
0 0 0
0 0 0
0 0 0
0 0 0
0 0 0
0 0 0
0 0 0
0 0 0
0 0 0
0 0 0
214 129 44
215 129 44
216 130 44
217 130 44
218 131 44
219 131 44
220 132 44
221 132 44
222 133 44
223 133 44
224 134 44
225 134 44
226 135 44
227 135 44
228 136 44
229 136 44
230 137 44
231 137 44
232 138 44
233 138 44
234 139 44
235 139 44
236 140 44
237 140 44
238 141 44
239 141 44
240 142 44
241 142 44
242 143 44
243 143 44
244 144 44
245 144 44
246 145 44
247 145 44
248 146 44
249 146 44
250 147 44
251 147 44
252 148 44
253 148 44
254 149 44
0 22 45
1 23 45
2 23 45
3 24 45
4 24 45
5 25 45
6 25 45
7 26 45
8 26 45
9 27 45
10 27 45
11 28 45
12 28 45
13 29 45
14 29 45
15 30 45
16 30 45
17 31 45
18 31 45
19 32 45
20 32 45
21 33 45
22 33 45
23 34 45
24 34 45
25 35 45
26 35 45
27 36 45
28 36 45
29 37 45
30 37 45
31 38 45
32 38 45
33 39 45
34 39 45
35 40 45
36 40 45
37 41 45
38 41 45
39 42 45
0 0 0
0 0 0
0 0 0
0 0 0
0 0 0
0 0 0
0 0 0
0 0 0
0 0 0
0 0 0
0 0 0
0 0 0
0 0 0
0 0 0
0 0 0
0 0 0
0 0 0
0 0 0
0 0 0
0 0 0
0 0 0
0 0 0
0 0 0
0 0 0
0 0 0
0 0 0
0 0 0
0 0 0
0 0 0
0 0 0
0 0 0
0 0 0
0 0 0
0 0 0
0 0 0
0 0 0
0 0 0
0 0 0
0 0 0
0 0 0
0 0 0
0 0 0
0 0 0
0 0 0
0 0 0
0 0 0
0 0 0
0 0 0
0 0 0
0 0 0
0 0 0
0 0 0
0 0 0
0 0 0
0 0 0
0 0 0
0 0 0
0 0 0
0 0 0
0 0 0
0 0 0
0 0 0
0 0 0
0 0 0
0 0 0
0 0 0
0 0 0
0 0 0
0 0 0
0 0 0
0 0 0
0 0 0
0 0 0
0 0 0
0 0 0
0 0 0
0 0 0
0 0 0
0 0 0
0 0 0
0 0 0
0 0 0
0 0 0
0 0 0
0 0 0
0 0 0
0 0 0
0 0 0
0 0 0
0 0 0
0 0 0
0 0 0
0 0 0
0 0 0
0 0 0
0 0 0
0 0 0
0 0 0
0 0 0
0 0 0
0 0 0
0 0 0
0 0 0
0 0 0
0 0 0
0 0 0
0 0 0
0 0 0
0 0 0
0 0 0
0 0 0
0 0 0
0 0 0
0 0 0
0 0 0
0 0 0
0 0 0
0 0 0
0 0 0
0 0 0
0 0 0
0 0 0
0 0 0
0 0 0
0 0 0
0 0 0
0 0 0
0 0 0
0 0 0
0 0 0
0 0 0
0 0 0
0 0 0
0 0 0
0 0 0
0 0 0
0 0 0
0 0 0
0 0 0
0 0 0
0 0 0
0 0 0
0 0 0
0 0 0
0 0 0
0 0 0
0 0 0
0 0 0
0 0 0
0 0 0
0 0 0
0 0 0
0 0 0
0 0 0
0 0 0
0 0 0
0 0 0
0 0 0
0 0 0
0 0 0
0 0 0
0 0 0
0 0 0
0 0 0
0 0 0
0 0 0
0 0 0
0 0 0
0 0 0
0 0 0
0 0 0
0 0 0
0 0 0
0 0 0
0 0 0
215 130 45
216 130 45
217 131 45
218 131 45
219 132 45
220 132 45
221 133 45
222 133 45
223 134 45
224 134 45
225 135 45
226 135 45
227 136 45
228 136 45
229 137 45
230 137 45
231 138 45
232 138 45
233 139 45
234 139 45
235 140 45
236 140 45
237 141 45
238 141 45
239 142 45
240 142 45
241 143 45
242 143 45
243 144 45
244 144 45
245 145 45
246 145 45
247 146 45
248 146 45
249 147 45
250 147 45
251 148 45
252 148 45
253 149 45
254 149 45
0 23 46
1 23 46
2 24 46
3 24 46
4 25 46
5 25 46
6 26 46
7 26 46
8 27 46
9 27 46
10 28 46
11 28 46
12 29 46
13 29 46
14 30 46
15 30 46
16 31 46
17 31 46
18 32 46
19 32 46
20 33 46
21 33 46
22 34 46
23 34 46
24 35 46
25 35 46
26 36 46
27 36 46
28 37 46
29 37 46
30 38 46
31 38 46
32 39 46
33 39 46
34 40 46
35 40 46
36 41 46
37 41 46
38 42 46
0 0 0
0 0 0
0 0 0
0 0 0
0 0 0
0 0 0
0 0 0
0 0 0
0 0 0
0 0 0
0 0 0
0 0 0
0 0 0
0 0 0
0 0 0
0 0 0
0 0 0
0 0 0
0 0 0
0 0 0
0 0 0
0 0 0
0 0 0
0 0 0
0 0 0
0 0 0
0 0 0
0 0 0
0 0 0
0 0 0
0 0 0
0 0 0
0 0 0
0 0 0
0 0 0
0 0 0
0 0 0
0 0 0
0 0 0
0 0 0
0 0 0
0 0 0
0 0 0
0 0 0
0 0 0
0 0 0
0 0 0
0 0 0
0 0 0
0 0 0
0 0 0
0 0 0
0 0 0
0 0 0
0 0 0
0 0 0
0 0 0
0 0 0
0 0 0
0 0 0
0 0 0
0 0 0
0 0 0
0 0 0
0 0 0
0 0 0
0 0 0
0 0 0
0 0 0
0 0 0
0 0 0
0 0 0
0 0 0
0 0 0
0 0 0
0 0 0
0 0 0
0 0 0
0 0 0
0 0 0
0 0 0
0 0 0
0 0 0
0 0 0
0 0 0
0 0 0
0 0 0
0 0 0
0 0 0
0 0 0
0 0 0
0 0 0
0 0 0
0 0 0
0 0 0
0 0 0
0 0 0
0 0 0
0 0 0
0 0 0
0 0 0
0 0 0
0 0 0
0 0 0
0 0 0
0 0 0
0 0 0
0 0 0
0 0 0
0 0 0
0 0 0
0 0 0
0 0 0
0 0 0
0 0 0
0 0 0
0 0 0
0 0 0
0 0 0
0 0 0
0 0 0
0 0 0
0 0 0
0 0 0
0 0 0
0 0 0
0 0 0
0 0 0
0 0 0
0 0 0
0 0 0
0 0 0
0 0 0
0 0 0
0 0 0
0 0 0
0 0 0
0 0 0
0 0 0
0 0 0
0 0 0
0 0 0
0 0 0
0 0 0
0 0 0
0 0 0
0 0 0
0 0 0
0 0 0
0 0 0
0 0 0
0 0 0
0 0 0
0 0 0
0 0 0
0 0 0
0 0 0
0 0 0
0 0 0
0 0 0
0 0 0
0 0 0
0 0 0
0 0 0
0 0 0
0 0 0
0 0 0
0 0 0
0 0 0
0 0 0
0 0 0
0 0 0
0 0 0
0 0 0
0 0 0
0 0 0
0 0 0
216 131 46
217 131 46
218 132 46
219 132 46
220 133 46
221 133 46
222 134 46
223 134 46
224 135 46
225 135 46
226 136 46
227 136 46
228 137 46
229 137 46
230 138 46
231 138 46
232 139 46
233 139 46
234 140 46
235 140 46
236 141 46
237 141 46
238 142 46
239 142 46
240 143 46
241 143 46
242 144 46
243 144 46
244 145 46
245 145 46
246 146 46
247 146 46
248 147 46
249 147 46
250 148 46
251 148 46
252 149 46
253 149 46
254 150 46
0 23 47
1 24 47
2 24 47
3 25 47
4 25 47
5 26 47
6 26 47
7 27 47
8 27 47
9 28 47
10 28 47
11 29 47
12 29 47
13 30 47
14 30 47
15 31 47
16 31 47
17 32 47
18 32 47
19 33 47
20 33 47
21 34 47
22 34 47
23 35 47
24 35 47
25 36 47
26 36 47
27 37 47
28 37 47
29 38 47
30 38 47
31 39 47
32 39 47
33 40 47
34 40 47
35 41 47
36 41 47
37 42 47
0 0 0
0 0 0
0 0 0
0 0 0
0 0 0
0 0 0
0 0 0
0 0 0
0 0 0
0 0 0
0 0 0
0 0 0
0 0 0
0 0 0
0 0 0
0 0 0
0 0 0
0 0 0
0 0 0
0 0 0
0 0 0
0 0 0
0 0 0
0 0 0
0 0 0
0 0 0
0 0 0
0 0 0
0 0 0
0 0 0
0 0 0
0 0 0
0 0 0
0 0 0
0 0 0
0 0 0
0 0 0
0 0 0
0 0 0
0 0 0
0 0 0
0 0 0
0 0 0
0 0 0
0 0 0
0 0 0
0 0 0
0 0 0
0 0 0
0 0 0
0 0 0
0 0 0
0 0 0
0 0 0
0 0 0
0 0 0
0 0 0
0 0 0
0 0 0
0 0 0
0 0 0
0 0 0
0 0 0
0 0 0
0 0 0
0 0 0
0 0 0
0 0 0
0 0 0
0 0 0
0 0 0
0 0 0
0 0 0
0 0 0
0 0 0
0 0 0
0 0 0
0 0 0
0 0 0
0 0 0
0 0 0
0 0 0
0 0 0
0 0 0
0 0 0
0 0 0
0 0 0
0 0 0
0 0 0
0 0 0
0 0 0
0 0 0
0 0 0
0 0 0
0 0 0
0 0 0
0 0 0
0 0 0
0 0 0
0 0 0
0 0 0
0 0 0
0 0 0
0 0 0
0 0 0
0 0 0
0 0 0
0 0 0
0 0 0
0 0 0
0 0 0
0 0 0
0 0 0
0 0 0
0 0 0
0 0 0
0 0 0
0 0 0
0 0 0
0 0 0
0 0 0
0 0 0
0 0 0
0 0 0
0 0 0
0 0 0
0 0 0
0 0 0
0 0 0
0 0 0
0 0 0
0 0 0
0 0 0
0 0 0
0 0 0
0 0 0
0 0 0
0 0 0
0 0 0
0 0 0
0 0 0
0 0 0
0 0 0
0 0 0
0 0 0
0 0 0
0 0 0
0 0 0
0 0 0
0 0 0
0 0 0
0 0 0
0 0 0
0 0 0
0 0 0
0 0 0
0 0 0
0 0 0
0 0 0
0 0 0
0 0 0
0 0 0
0 0 0
0 0 0
0 0 0
0 0 0
0 0 0
0 0 0
0 0 0
0 0 0
0 0 0
0 0 0
0 0 0
0 0 0
0 0 0
0 0 0
0 0 0
0 0 0
0 0 0
217 132 47
218 132 47
219 133 47
220 133 47
221 134 47
222 134 47
223 135 47
224 135 47
225 136 47
226 136 47
227 137 47
228 137 47
229 138 47
230 138 47
231 139 47
232 139 47
233 140 47
234 140 47
235 141 47
236 141 47
237 142 47
238 142 47
239 143 47
240 143 47
241 144 47
242 144 47
243 145 47
244 145 47
245 146 47
246 146 47
247 147 47
248 147 47
249 148 47
250 148 47
251 149 47
252 149 47
253 150 47
254 150 47
0 24 48
1 24 48
2 25 48
3 25 48
4 26 48
5 26 48
6 27 48
7 27 48
8 28 48
9 28 48
10 29 48
11 29 48
12 30 48
13 30 48
14 31 48
15 31 48
16 32 48
17 32 48
18 33 48
19 33 48
20 34 48
21 34 48
22 35 48
23 35 48
24 36 48
25 36 48
26 37 48
27 37 48
28 38 48
29 38 48
30 39 48
31 39 48
32 40 48
33 40 48
34 41 48
35 41 48
36 42 48
0 0 0
0 0 0
0 0 0
0 0 0
0 0 0
0 0 0
0 0 0
0 0 0
0 0 0
0 0 0
0 0 0
0 0 0
0 0 0
0 0 0
0 0 0
0 0 0
0 0 0
0 0 0
0 0 0
0 0 0
0 0 0
0 0 0
0 0 0
0 0 0
0 0 0
0 0 0
0 0 0
0 0 0
0 0 0
0 0 0
0 0 0
0 0 0
0 0 0
0 0 0
0 0 0
0 0 0
0 0 0
0 0 0
0 0 0
0 0 0
0 0 0
0 0 0
0 0 0
0 0 0
0 0 0
0 0 0
0 0 0
0 0 0
0 0 0
0 0 0
0 0 0
0 0 0
0 0 0
0 0 0
0 0 0
0 0 0
0 0 0
0 0 0
0 0 0
0 0 0
0 0 0
0 0 0
0 0 0
0 0 0
0 0 0
0 0 0
0 0 0
0 0 0
0 0 0
0 0 0
0 0 0
0 0 0
0 0 0
0 0 0
0 0 0
0 0 0
0 0 0
0 0 0
0 0 0
0 0 0
0 0 0
0 0 0
0 0 0
0 0 0
0 0 0
0 0 0
0 0 0
0 0 0
0 0 0
0 0 0
0 0 0
0 0 0
0 0 0
0 0 0
0 0 0
0 0 0
0 0 0
0 0 0
0 0 0
0 0 0
0 0 0
0 0 0
0 0 0
0 0 0
0 0 0
0 0 0
0 0 0
0 0 0
0 0 0
0 0 0
0 0 0
0 0 0
0 0 0
0 0 0
0 0 0
0 0 0
0 0 0
0 0 0
0 0 0
0 0 0
0 0 0
0 0 0
0 0 0
0 0 0
0 0 0
0 0 0
0 0 0
0 0 0
0 0 0
0 0 0
0 0 0
0 0 0
0 0 0
0 0 0
0 0 0
0 0 0
0 0 0
0 0 0
0 0 0
0 0 0
0 0 0
0 0 0
0 0 0
0 0 0
0 0 0
0 0 0
0 0 0
0 0 0
0 0 0
0 0 0
0 0 0
0 0 0
0 0 0
0 0 0
0 0 0
0 0 0
0 0 0
0 0 0
0 0 0
0 0 0
0 0 0
0 0 0
0 0 0
0 0 0
0 0 0
0 0 0
0 0 0
0 0 0
0 0 0
0 0 0
0 0 0
0 0 0
0 0 0
0 0 0
0 0 0
0 0 0
0 0 0
0 0 0
0 0 0
0 0 0
0 0 0
218 133 48
219 133 48
220 134 48
221 134 48
222 135 48
223 135 48
224 136 48
225 136 48
226 137 48
227 137 48
228 138 48
229 138 48
230 139 48
231 139 48
232 140 48
233 140 48
234 141 48
235 141 48
236 142 48
237 142 48
238 143 48
239 143 48
240 144 48
241 144 48
242 145 48
243 145 48
244 146 48
245 146 48
246 147 48
247 147 48
248 148 48
249 148 48
250 149 48
251 149 48
252 150 48
253 150 48
254 151 48
0 24 49
1 25 49
2 25 49
3 26 49
4 26 49
5 27 49
6 27 49
7 28 49
8 28 49
9 29 49
10 29 49
11 30 49
12 30 49
13 31 49
14 31 49
15 32 49
16 32 49
17 33 49
18 33 49
19 34 49
20 34 49
21 35 49
22 35 49
23 36 49
24 36 49
25 37 49
26 37 49
27 38 49
28 38 49
29 39 49
30 39 49
31 40 49
32 40 49
33 41 49
34 41 49
35 42 49
0 0 0
0 0 0
0 0 0
0 0 0
0 0 0
0 0 0
0 0 0
0 0 0
0 0 0
0 0 0
0 0 0
0 0 0
0 0 0
0 0 0
0 0 0
0 0 0
0 0 0
0 0 0
0 0 0
0 0 0
0 0 0
0 0 0
0 0 0
0 0 0
0 0 0
0 0 0
0 0 0
0 0 0
0 0 0
0 0 0
0 0 0
0 0 0
0 0 0
0 0 0
0 0 0
0 0 0
0 0 0
0 0 0
0 0 0
0 0 0
0 0 0
0 0 0
0 0 0
0 0 0
0 0 0
0 0 0
0 0 0
0 0 0
0 0 0
0 0 0
0 0 0
0 0 0
0 0 0
0 0 0
0 0 0
0 0 0
0 0 0
0 0 0
0 0 0
0 0 0
0 0 0
0 0 0
0 0 0
0 0 0
0 0 0
0 0 0
0 0 0
0 0 0
0 0 0
0 0 0
0 0 0
0 0 0
0 0 0
0 0 0
0 0 0
0 0 0
0 0 0
0 0 0
0 0 0
0 0 0
0 0 0
0 0 0
0 0 0
0 0 0
0 0 0
0 0 0
0 0 0
0 0 0
0 0 0
0 0 0
0 0 0
0 0 0
0 0 0
0 0 0
0 0 0
0 0 0
0 0 0
0 0 0
0 0 0
0 0 0
0 0 0
0 0 0
0 0 0
0 0 0
0 0 0
0 0 0
0 0 0
0 0 0
0 0 0
0 0 0
0 0 0
0 0 0
0 0 0
0 0 0
0 0 0
0 0 0
0 0 0
0 0 0
0 0 0
0 0 0
0 0 0
0 0 0
0 0 0
0 0 0
0 0 0
0 0 0
0 0 0
0 0 0
0 0 0
0 0 0
0 0 0
0 0 0
0 0 0
0 0 0
0 0 0
0 0 0
0 0 0
0 0 0
0 0 0
0 0 0
0 0 0
0 0 0
0 0 0
0 0 0
0 0 0
0 0 0
0 0 0
0 0 0
0 0 0
0 0 0
0 0 0
0 0 0
0 0 0
0 0 0
0 0 0
0 0 0
0 0 0
0 0 0
0 0 0
0 0 0
0 0 0
0 0 0
0 0 0
0 0 0
0 0 0
0 0 0
0 0 0
0 0 0
0 0 0
0 0 0
0 0 0
0 0 0
0 0 0
0 0 0
0 0 0
0 0 0
0 0 0
0 0 0
0 0 0
0 0 0
0 0 0
0 0 0
0 0 0
219 134 49
220 134 49
221 135 49
222 135 49
223 136 49
224 136 49
225 137 49
226 137 49
227 138 49
228 138 49
229 139 49
230 139 49
231 140 49
232 140 49
233 141 49
234 141 49
235 142 49
236 142 49
237 143 49
238 143 49
239 144 49
240 144 49
241 145 49
242 145 49
243 146 49
244 146 49
245 147 49
246 147 49
247 148 49
248 148 49
249 149 49
250 149 49
251 150 49
252 150 49
253 151 49
254 151 49
0 25 50
1 25 50
2 26 50
3 26 50
4 27 50
5 27 50
6 28 50
7 28 50
8 29 50
9 29 50
10 30 50
11 30 50
12 31 50
13 31 50
14 32 50
15 32 50
16 33 50
17 33 50
18 34 50
19 34 50
20 35 50
21 35 50
22 36 50
23 36 50
24 37 50
25 37 50
26 38 50
27 38 50
28 39 50
29 39 50
30 40 50
31 40 50
32 41 50
33 41 50
34 42 50
0 0 0
0 0 0
0 0 0
0 0 0
0 0 0
0 0 0
0 0 0
0 0 0
0 0 0
0 0 0
0 0 0
0 0 0
0 0 0
0 0 0
0 0 0
0 0 0
0 0 0
0 0 0
0 0 0
0 0 0
0 0 0
0 0 0
0 0 0
0 0 0
0 0 0
0 0 0
0 0 0
0 0 0
0 0 0
0 0 0
0 0 0
0 0 0
0 0 0
0 0 0
0 0 0
0 0 0
0 0 0
0 0 0
0 0 0
0 0 0
0 0 0
0 0 0
0 0 0
0 0 0
0 0 0
0 0 0
0 0 0
0 0 0
0 0 0
0 0 0
0 0 0
0 0 0
0 0 0
0 0 0
0 0 0
0 0 0
0 0 0
0 0 0
0 0 0
0 0 0
0 0 0
0 0 0
0 0 0
0 0 0
0 0 0
0 0 0
0 0 0
0 0 0
0 0 0
0 0 0
0 0 0
0 0 0
0 0 0
0 0 0
0 0 0
0 0 0
0 0 0
0 0 0
0 0 0
0 0 0
0 0 0
0 0 0
0 0 0
0 0 0
0 0 0
0 0 0
0 0 0
0 0 0
0 0 0
0 0 0
0 0 0
0 0 0
0 0 0
0 0 0
0 0 0
0 0 0
0 0 0
0 0 0
0 0 0
0 0 0
0 0 0
0 0 0
0 0 0
0 0 0
0 0 0
0 0 0
0 0 0
0 0 0
0 0 0
0 0 0
0 0 0
0 0 0
0 0 0
0 0 0
0 0 0
0 0 0
0 0 0
0 0 0
0 0 0
0 0 0
0 0 0
0 0 0
0 0 0
0 0 0
0 0 0
0 0 0
0 0 0
0 0 0
0 0 0
0 0 0
0 0 0
0 0 0
0 0 0
0 0 0
0 0 0
0 0 0
0 0 0
0 0 0
0 0 0
0 0 0
0 0 0
0 0 0
0 0 0
0 0 0
0 0 0
0 0 0
0 0 0
0 0 0
0 0 0
0 0 0
0 0 0
0 0 0
0 0 0
0 0 0
0 0 0
0 0 0
0 0 0
0 0 0
0 0 0
0 0 0
0 0 0
0 0 0
0 0 0
0 0 0
0 0 0
0 0 0
0 0 0
0 0 0
0 0 0
0 0 0
0 0 0
0 0 0
0 0 0
0 0 0
0 0 0
0 0 0
0 0 0
0 0 0
0 0 0
0 0 0
0 0 0
0 0 0
0 0 0
0 0 0
0 0 0
220 135 50
221 135 50
222 136 50
223 136 50
224 137 50
225 137 50
226 138 50
227 138 50
228 139 50
229 139 50
230 140 50
231 140 50
232 141 50
233 141 50
234 142 50
235 142 50
236 143 50
237 143 50
238 144 50
239 144 50
240 145 50
241 145 50
242 146 50
243 146 50
244 147 50
245 147 50
246 148 50
247 148 50
248 149 50
249 149 50
250 150 50
251 150 50
252 151 50
253 151 50
254 152 50
0 25 51
1 26 51
2 26 51
3 27 51
4 27 51
5 28 51
6 28 51
7 29 51
8 29 51
9 30 51
10 30 51
11 31 51
12 31 51
13 32 51
14 32 51
15 33 51
16 33 51
17 34 51
18 34 51
19 35 51
20 35 51
21 36 51
22 36 51
23 37 51
24 37 51
25 38 51
26 38 51
27 39 51
28 39 51
29 40 51
30 40 51
31 41 51
32 41 51
33 42 51
34 42 51
0 0 0
0 0 0
0 0 0
0 0 0
0 0 0
0 0 0
0 0 0
0 0 0
0 0 0
0 0 0
0 0 0
0 0 0
0 0 0
0 0 0
0 0 0
0 0 0
0 0 0
0 0 0
0 0 0
0 0 0
0 0 0
0 0 0
0 0 0
0 0 0
0 0 0
0 0 0
0 0 0
0 0 0
0 0 0
0 0 0
0 0 0
0 0 0
0 0 0
0 0 0
0 0 0
0 0 0
0 0 0
0 0 0
0 0 0
0 0 0
0 0 0
0 0 0
0 0 0
0 0 0
0 0 0
0 0 0
0 0 0
0 0 0
0 0 0
0 0 0
0 0 0
0 0 0
0 0 0
0 0 0
0 0 0
0 0 0
0 0 0
0 0 0
0 0 0
0 0 0
0 0 0
0 0 0
0 0 0
0 0 0
0 0 0
0 0 0
0 0 0
0 0 0
0 0 0
0 0 0
0 0 0
0 0 0
0 0 0
0 0 0
0 0 0
0 0 0
0 0 0
0 0 0
0 0 0
0 0 0
0 0 0
0 0 0
0 0 0
0 0 0
0 0 0
0 0 0
0 0 0
0 0 0
0 0 0
0 0 0
0 0 0
0 0 0
0 0 0
0 0 0
0 0 0
0 0 0
0 0 0
0 0 0
0 0 0
0 0 0
0 0 0
0 0 0
0 0 0
0 0 0
0 0 0
0 0 0
0 0 0
0 0 0
0 0 0
0 0 0
0 0 0
0 0 0
0 0 0
0 0 0
0 0 0
0 0 0
0 0 0
0 0 0
0 0 0
0 0 0
0 0 0
0 0 0
0 0 0
0 0 0
0 0 0
0 0 0
0 0 0
0 0 0
0 0 0
0 0 0
0 0 0
0 0 0
0 0 0
0 0 0
0 0 0
0 0 0
0 0 0
0 0 0
0 0 0
0 0 0
0 0 0
0 0 0
0 0 0
0 0 0
0 0 0
0 0 0
0 0 0
0 0 0
0 0 0
0 0 0
0 0 0
0 0 0
0 0 0
0 0 0
0 0 0
0 0 0
0 0 0
0 0 0
0 0 0
0 0 0
0 0 0
0 0 0
0 0 0
0 0 0
0 0 0
0 0 0
0 0 0
0 0 0
0 0 0
0 0 0
0 0 0
0 0 0
0 0 0
0 0 0
0 0 0
0 0 0
0 0 0
0 0 0
0 0 0
0 0 0
0 0 0
0 0 0
0 0 0
0 0 0
0 0 0
220 135 51
221 136 51
222 136 51
223 137 51
224 137 51
225 138 51
226 138 51
227 139 51
228 139 51
229 140 51
230 140 51
231 141 51
232 141 51
233 142 51
234 142 51
235 143 51
236 143 51
237 144 51
238 144 51
239 145 51
240 145 51
241 146 51
242 146 51
243 147 51
244 147 51
245 148 51
246 148 51
247 149 51
248 149 51
249 150 51
250 150 51
251 151 51
252 151 51
253 152 51
254 152 51
0 26 52
1 26 52
2 27 52
3 27 52
4 28 52
5 28 52
6 29 52
7 29 52
8 30 52
9 30 52
10 31 52
11 31 52
12 32 52
13 32 52
14 33 52
15 33 52
16 34 52
17 34 52
18 35 52
19 35 52
20 36 52
21 36 52
22 37 52
23 37 52
24 38 52
25 38 52
26 39 52
27 39 52
28 40 52
29 40 52
30 41 52
31 41 52
32 42 52
33 42 52
0 0 0
0 0 0
0 0 0
0 0 0
0 0 0
0 0 0
0 0 0
0 0 0
0 0 0
0 0 0
0 0 0
0 0 0
0 0 0
0 0 0
0 0 0
0 0 0
0 0 0
0 0 0
0 0 0
0 0 0
0 0 0
0 0 0
0 0 0
0 0 0
0 0 0
0 0 0
0 0 0
0 0 0
0 0 0
0 0 0
0 0 0
0 0 0
0 0 0
0 0 0
0 0 0
0 0 0
0 0 0
0 0 0
0 0 0
0 0 0
0 0 0
0 0 0
0 0 0
0 0 0
0 0 0
0 0 0
0 0 0
0 0 0
0 0 0
0 0 0
0 0 0
0 0 0
0 0 0
0 0 0
0 0 0
0 0 0
0 0 0
0 0 0
0 0 0
0 0 0
0 0 0
0 0 0
0 0 0
0 0 0
0 0 0
0 0 0
0 0 0
0 0 0
0 0 0
0 0 0
0 0 0
0 0 0
0 0 0
0 0 0
0 0 0
0 0 0
0 0 0
0 0 0
0 0 0
0 0 0
0 0 0
0 0 0
0 0 0
0 0 0
0 0 0
0 0 0
0 0 0
0 0 0
0 0 0
0 0 0
0 0 0
0 0 0
0 0 0
0 0 0
0 0 0
0 0 0
0 0 0
0 0 0
0 0 0
0 0 0
0 0 0
0 0 0
0 0 0
0 0 0
0 0 0
0 0 0
0 0 0
0 0 0
0 0 0
0 0 0
0 0 0
0 0 0
0 0 0
0 0 0
0 0 0
0 0 0
0 0 0
0 0 0
0 0 0
0 0 0
0 0 0
0 0 0
0 0 0
0 0 0
0 0 0
0 0 0
0 0 0
0 0 0
0 0 0
0 0 0
0 0 0
0 0 0
0 0 0
0 0 0
0 0 0
0 0 0
0 0 0
0 0 0
0 0 0
0 0 0
0 0 0
0 0 0
0 0 0
0 0 0
0 0 0
0 0 0
0 0 0
0 0 0
0 0 0
0 0 0
0 0 0
0 0 0
0 0 0
0 0 0
0 0 0
0 0 0
0 0 0
0 0 0
0 0 0
0 0 0
0 0 0
0 0 0
0 0 0
0 0 0
0 0 0
0 0 0
0 0 0
0 0 0
0 0 0
0 0 0
0 0 0
0 0 0
0 0 0
0 0 0
0 0 0
0 0 0
0 0 0
0 0 0
0 0 0
0 0 0
0 0 0
0 0 0
0 0 0
0 0 0
0 0 0
0 0 0
0 0 0
221 136 52
222 137 52
223 137 52
224 138 52
225 138 52
226 139 52
227 139 52
228 140 52
229 140 52
230 141 52
231 141 52
232 142 52
233 142 52
234 143 52
235 143 52
236 144 52
237 144 52
238 145 52
239 145 52
240 146 52
241 146 52
242 147 52
243 147 52
244 148 52
245 148 52
246 149 52
247 149 52
248 150 52
249 150 52
250 151 52
251 151 52
252 152 52
253 152 52
254 153 52
0 26 53
1 27 53
2 27 53
3 28 53
4 28 53
5 29 53
6 29 53
7 30 53
8 30 53
9 31 53
10 31 53
11 32 53
12 32 53
13 33 53
14 33 53
15 34 53
16 34 53
17 35 53
18 35 53
19 36 53
20 36 53
21 37 53
22 37 53
23 38 53
24 38 53
25 39 53
26 39 53
27 40 53
28 40 53
29 41 53
30 41 53
31 42 53
32 42 53
0 0 0
0 0 0
0 0 0
0 0 0
0 0 0
0 0 0
0 0 0
0 0 0
0 0 0
0 0 0
0 0 0
0 0 0
0 0 0
0 0 0
0 0 0
0 0 0
0 0 0
0 0 0
0 0 0
0 0 0
0 0 0
0 0 0
0 0 0
0 0 0
0 0 0
0 0 0
0 0 0
0 0 0
0 0 0
0 0 0
0 0 0
0 0 0
0 0 0
0 0 0
0 0 0
0 0 0
0 0 0
0 0 0
0 0 0
0 0 0
0 0 0
0 0 0
0 0 0
0 0 0
0 0 0
0 0 0
0 0 0
0 0 0
0 0 0
0 0 0
0 0 0
0 0 0
0 0 0
0 0 0
0 0 0
0 0 0
0 0 0
0 0 0
0 0 0
0 0 0
0 0 0
0 0 0
0 0 0
0 0 0
0 0 0
0 0 0
0 0 0
0 0 0
0 0 0
0 0 0
0 0 0
0 0 0
0 0 0
0 0 0
0 0 0
0 0 0
0 0 0
0 0 0
0 0 0
0 0 0
0 0 0
0 0 0
0 0 0
0 0 0
0 0 0
0 0 0
0 0 0
0 0 0
0 0 0
0 0 0
0 0 0
0 0 0
0 0 0
0 0 0
0 0 0
0 0 0
0 0 0
0 0 0
0 0 0
0 0 0
0 0 0
0 0 0
0 0 0
0 0 0
0 0 0
0 0 0
0 0 0
0 0 0
0 0 0
0 0 0
0 0 0
0 0 0
0 0 0
0 0 0
0 0 0
0 0 0
0 0 0
0 0 0
0 0 0
0 0 0
0 0 0
0 0 0
0 0 0
0 0 0
0 0 0
0 0 0
0 0 0
0 0 0
0 0 0
0 0 0
0 0 0
0 0 0
0 0 0
0 0 0
0 0 0
0 0 0
0 0 0
0 0 0
0 0 0
0 0 0
0 0 0
0 0 0
0 0 0
0 0 0
0 0 0
0 0 0
0 0 0
0 0 0
0 0 0
0 0 0
0 0 0
0 0 0
0 0 0
0 0 0
0 0 0
0 0 0
0 0 0
0 0 0
0 0 0
0 0 0
0 0 0
0 0 0
0 0 0
0 0 0
0 0 0
0 0 0
0 0 0
0 0 0
0 0 0
0 0 0
0 0 0
0 0 0
0 0 0
0 0 0
0 0 0
0 0 0
0 0 0
0 0 0
0 0 0
0 0 0
0 0 0
0 0 0
0 0 0
0 0 0
0 0 0
0 0 0
0 0 0
0 0 0
0 0 0
222 137 53
223 138 53
224 138 53
225 139 53
226 139 53
227 140 53
228 140 53
229 141 53
230 141 53
231 142 53
232 142 53
233 143 53
234 143 53
235 144 53
236 144 53
237 145 53
238 145 53
239 146 53
240 146 53
241 147 53
242 147 53
243 148 53
244 148 53
245 149 53
246 149 53
247 150 53
248 150 53
249 151 53
250 151 53
251 152 53
252 152 53
253 153 53
254 153 53
0 27 54
1 27 54
2 28 54
3 28 54
4 29 54
5 29 54
6 30 54
7 30 54
8 31 54
9 31 54
10 32 54
11 32 54
12 33 54
13 33 54
14 34 54
15 34 54
16 35 54
17 35 54
18 36 54
19 36 54
20 37 54
21 37 54
22 38 54
23 38 54
24 39 54
25 39 54
26 40 54
27 40 54
28 41 54
29 41 54
30 42 54
31 42 54
0 0 0
0 0 0
0 0 0
0 0 0
0 0 0
0 0 0
0 0 0
0 0 0
0 0 0
0 0 0
0 0 0
0 0 0
0 0 0
0 0 0
0 0 0
0 0 0
0 0 0
0 0 0
0 0 0
0 0 0
0 0 0
0 0 0
0 0 0
0 0 0
0 0 0
0 0 0
0 0 0
0 0 0
0 0 0
0 0 0
0 0 0
0 0 0
0 0 0
0 0 0
0 0 0
0 0 0
0 0 0
0 0 0
0 0 0
0 0 0
0 0 0
0 0 0
0 0 0
0 0 0
0 0 0
0 0 0
0 0 0
0 0 0
0 0 0
0 0 0
0 0 0
0 0 0
0 0 0
0 0 0
0 0 0
0 0 0
0 0 0
0 0 0
0 0 0
0 0 0
0 0 0
0 0 0
0 0 0
0 0 0
0 0 0
0 0 0
0 0 0
0 0 0
0 0 0
0 0 0
0 0 0
0 0 0
0 0 0
0 0 0
0 0 0
0 0 0
0 0 0
0 0 0
0 0 0
0 0 0
0 0 0
0 0 0
0 0 0
0 0 0
0 0 0
0 0 0
0 0 0
0 0 0
0 0 0
0 0 0
0 0 0
0 0 0
0 0 0
0 0 0
0 0 0
0 0 0
0 0 0
0 0 0
0 0 0
0 0 0
0 0 0
0 0 0
0 0 0
0 0 0
0 0 0
0 0 0
0 0 0
0 0 0
0 0 0
0 0 0
0 0 0
0 0 0
0 0 0
0 0 0
0 0 0
0 0 0
0 0 0
0 0 0
0 0 0
0 0 0
0 0 0
0 0 0
0 0 0
0 0 0
0 0 0
0 0 0
0 0 0
0 0 0
0 0 0
0 0 0
0 0 0
0 0 0
0 0 0
0 0 0
0 0 0
0 0 0
0 0 0
0 0 0
0 0 0
0 0 0
0 0 0
0 0 0
0 0 0
0 0 0
0 0 0
0 0 0
0 0 0
0 0 0
0 0 0
0 0 0
0 0 0
0 0 0
0 0 0
0 0 0
0 0 0
0 0 0
0 0 0
0 0 0
0 0 0
0 0 0
0 0 0
0 0 0
0 0 0
0 0 0
0 0 0
0 0 0
0 0 0
0 0 0
0 0 0
0 0 0
0 0 0
0 0 0
0 0 0
0 0 0
0 0 0
0 0 0
0 0 0
0 0 0
0 0 0
0 0 0
0 0 0
0 0 0
0 0 0
0 0 0
0 0 0
0 0 0
0 0 0
0 0 0
0 0 0
0 0 0
0 0 0
223 138 54
224 139 54
225 139 54
226 140 54
227 140 54
228 141 54
229 141 54
230 142 54
231 142 54
232 143 54
233 143 54
234 144 54
235 144 54
236 145 54
237 145 54
238 146 54
239 146 54
240 147 54
241 147 54
242 148 54
243 148 54
244 149 54
245 149 54
246 150 54
247 150 54
248 151 54
249 151 54
250 152 54
251 152 54
252 153 54
253 153 54
254 154 54
0 27 55
1 28 55
2 28 55
3 29 55
4 29 55
5 30 55
6 30 55
7 31 55
8 31 55
9 32 55
10 32 55
11 33 55
12 33 55
13 34 55
14 34 55
15 35 55
16 35 55
17 36 55
18 36 55
19 37 55
20 37 55
21 38 55
22 38 55
23 39 55
24 39 55
25 40 55
26 40 55
27 41 55
28 41 55
29 42 55
30 42 55
31 43 55
0 0 0
0 0 0
0 0 0
0 0 0
0 0 0
0 0 0
0 0 0
0 0 0
0 0 0
0 0 0
0 0 0
0 0 0
0 0 0
0 0 0
0 0 0
0 0 0
0 0 0
0 0 0
0 0 0
0 0 0
0 0 0
0 0 0
0 0 0
0 0 0
0 0 0
0 0 0
0 0 0
0 0 0
0 0 0
0 0 0
0 0 0
0 0 0
0 0 0
0 0 0
0 0 0
0 0 0
0 0 0
0 0 0
0 0 0
0 0 0
0 0 0
0 0 0
0 0 0
0 0 0
0 0 0
0 0 0
0 0 0
0 0 0
0 0 0
0 0 0
0 0 0
0 0 0
0 0 0
0 0 0
0 0 0
0 0 0
0 0 0
0 0 0
0 0 0
0 0 0
0 0 0
0 0 0
0 0 0
0 0 0
0 0 0
0 0 0
0 0 0
0 0 0
0 0 0
0 0 0
0 0 0
0 0 0
0 0 0
0 0 0
0 0 0
0 0 0
0 0 0
0 0 0
0 0 0
0 0 0
0 0 0
0 0 0
0 0 0
0 0 0
0 0 0
0 0 0
0 0 0
0 0 0
0 0 0
0 0 0
0 0 0
0 0 0
0 0 0
0 0 0
0 0 0
0 0 0
0 0 0
0 0 0
0 0 0
0 0 0
0 0 0
0 0 0
0 0 0
0 0 0
0 0 0
0 0 0
0 0 0
0 0 0
0 0 0
0 0 0
0 0 0
0 0 0
0 0 0
0 0 0
0 0 0
0 0 0
0 0 0
0 0 0
0 0 0
0 0 0
0 0 0
0 0 0
0 0 0
0 0 0
0 0 0
0 0 0
0 0 0
0 0 0
0 0 0
0 0 0
0 0 0
0 0 0
0 0 0
0 0 0
0 0 0
0 0 0
0 0 0
0 0 0
0 0 0
0 0 0
0 0 0
0 0 0
0 0 0
0 0 0
0 0 0
0 0 0
0 0 0
0 0 0
0 0 0
0 0 0
0 0 0
0 0 0
0 0 0
0 0 0
0 0 0
0 0 0
0 0 0
0 0 0
0 0 0
0 0 0
0 0 0
0 0 0
0 0 0
0 0 0
0 0 0
0 0 0
0 0 0
0 0 0
0 0 0
0 0 0
0 0 0
0 0 0
0 0 0
0 0 0
0 0 0
0 0 0
0 0 0
0 0 0
0 0 0
0 0 0
0 0 0
0 0 0
0 0 0
0 0 0
0 0 0
0 0 0
0 0 0
0 0 0
0 0 0
0 0 0
0 0 0
223 139 55
224 139 55
225 140 55
226 140 55
227 141 55
228 141 55
229 142 55
230 142 55
231 143 55
232 143 55
233 144 55
234 144 55
235 145 55
236 145 55
237 146 55
238 146 55
239 147 55
240 147 55
241 148 55
242 148 55
243 149 55
244 149 55
245 150 55
246 150 55
247 151 55
248 151 55
249 152 55
250 152 55
251 153 55
252 153 55
253 154 55
254 154 55
0 28 56
1 28 56
2 29 56
3 29 56
4 30 56
5 30 56
6 31 56
7 31 56
8 32 56
9 32 56
10 33 56
11 33 56
12 34 56
13 34 56
14 35 56
15 35 56
16 36 56
17 36 56
18 37 56
19 37 56
20 38 56
21 38 56
22 39 56
23 39 56
24 40 56
25 40 56
26 41 56
27 41 56
28 42 56
29 42 56
30 43 56
0 0 0
0 0 0
0 0 0
0 0 0
0 0 0
0 0 0
0 0 0
0 0 0
0 0 0
0 0 0
0 0 0
0 0 0
0 0 0
0 0 0
0 0 0
0 0 0
0 0 0
0 0 0
0 0 0
0 0 0
0 0 0
0 0 0
0 0 0
0 0 0
0 0 0
0 0 0
0 0 0
0 0 0
0 0 0
0 0 0
0 0 0
0 0 0
0 0 0
0 0 0
0 0 0
0 0 0
0 0 0
0 0 0
0 0 0
0 0 0
0 0 0
0 0 0
0 0 0
0 0 0
0 0 0
0 0 0
0 0 0
0 0 0
0 0 0
0 0 0
0 0 0
0 0 0
0 0 0
0 0 0
0 0 0
0 0 0
0 0 0
0 0 0
0 0 0
0 0 0
0 0 0
0 0 0
0 0 0
0 0 0
0 0 0
0 0 0
0 0 0
0 0 0
0 0 0
0 0 0
0 0 0
0 0 0
0 0 0
0 0 0
0 0 0
0 0 0
0 0 0
0 0 0
0 0 0
0 0 0
0 0 0
0 0 0
0 0 0
0 0 0
0 0 0
0 0 0
0 0 0
0 0 0
0 0 0
0 0 0
0 0 0
0 0 0
0 0 0
0 0 0
0 0 0
0 0 0
0 0 0
0 0 0
0 0 0
0 0 0
0 0 0
0 0 0
0 0 0
0 0 0
0 0 0
0 0 0
0 0 0
0 0 0
0 0 0
0 0 0
0 0 0
0 0 0
0 0 0
0 0 0
0 0 0
0 0 0
0 0 0
0 0 0
0 0 0
0 0 0
0 0 0
0 0 0
0 0 0
0 0 0
0 0 0
0 0 0
0 0 0
0 0 0
0 0 0
0 0 0
0 0 0
0 0 0
0 0 0
0 0 0
0 0 0
0 0 0
0 0 0
0 0 0
0 0 0
0 0 0
0 0 0
0 0 0
0 0 0
0 0 0
0 0 0
0 0 0
0 0 0
0 0 0
0 0 0
0 0 0
0 0 0
0 0 0
0 0 0
0 0 0
0 0 0
0 0 0
0 0 0
0 0 0
0 0 0
0 0 0
0 0 0
0 0 0
0 0 0
0 0 0
0 0 0
0 0 0
0 0 0
0 0 0
0 0 0
0 0 0
0 0 0
0 0 0
0 0 0
0 0 0
0 0 0
0 0 0
0 0 0
0 0 0
0 0 0
0 0 0
0 0 0
0 0 0
0 0 0
0 0 0
0 0 0
0 0 0
0 0 0
0 0 0
0 0 0
0 0 0
0 0 0
0 0 0
0 0 0
224 140 56
225 140 56
226 141 56
227 141 56
228 142 56
229 142 56
230 143 56
231 143 56
232 144 56
233 144 56
234 145 56
235 145 56
236 146 56
237 146 56
238 147 56
239 147 56
240 148 56
241 148 56
242 149 56
243 149 56
244 150 56
245 150 56
246 151 56
247 151 56
248 152 56
249 152 56
250 153 56
251 153 56
252 154 56
253 154 56
254 155 56
0 28 57
1 29 57
2 29 57
3 30 57
4 30 57
5 31 57
6 31 57
7 32 57
8 32 57
9 33 57
10 33 57
11 34 57
12 34 57
13 35 57
14 35 57
15 36 57
16 36 57
17 37 57
18 37 57
19 38 57
20 38 57
21 39 57
22 39 57
23 40 57
24 40 57
25 41 57
26 41 57
27 42 57
28 42 57
29 43 57
0 0 0
0 0 0
0 0 0
0 0 0
0 0 0
0 0 0
0 0 0
0 0 0
0 0 0
0 0 0
0 0 0
0 0 0
0 0 0
0 0 0
0 0 0
0 0 0
0 0 0
0 0 0
0 0 0
0 0 0
0 0 0
0 0 0
0 0 0
0 0 0
0 0 0
0 0 0
0 0 0
0 0 0
0 0 0
0 0 0
0 0 0
0 0 0
0 0 0
0 0 0
0 0 0
0 0 0
0 0 0
0 0 0
0 0 0
0 0 0
0 0 0
0 0 0
0 0 0
0 0 0
0 0 0
0 0 0
0 0 0
0 0 0
0 0 0
0 0 0
0 0 0
0 0 0
0 0 0
0 0 0
0 0 0
0 0 0
0 0 0
0 0 0
0 0 0
0 0 0
0 0 0
0 0 0
0 0 0
0 0 0
0 0 0
0 0 0
0 0 0
0 0 0
0 0 0
0 0 0
0 0 0
0 0 0
0 0 0
0 0 0
0 0 0
0 0 0
0 0 0
0 0 0
0 0 0
0 0 0
0 0 0
0 0 0
0 0 0
0 0 0
0 0 0
0 0 0
0 0 0
0 0 0
0 0 0
0 0 0
0 0 0
0 0 0
0 0 0
0 0 0
0 0 0
0 0 0
0 0 0
0 0 0
0 0 0
0 0 0
0 0 0
0 0 0
0 0 0
0 0 0
0 0 0
0 0 0
0 0 0
0 0 0
0 0 0
0 0 0
0 0 0
0 0 0
0 0 0
0 0 0
0 0 0
0 0 0
0 0 0
0 0 0
0 0 0
0 0 0
0 0 0
0 0 0
0 0 0
0 0 0
0 0 0
0 0 0
0 0 0
0 0 0
0 0 0
0 0 0
0 0 0
0 0 0
0 0 0
0 0 0
0 0 0
0 0 0
0 0 0
0 0 0
0 0 0
0 0 0
0 0 0
0 0 0
0 0 0
0 0 0
0 0 0
0 0 0
0 0 0
0 0 0
0 0 0
0 0 0
0 0 0
0 0 0
0 0 0
0 0 0
0 0 0
0 0 0
0 0 0
0 0 0
0 0 0
0 0 0
0 0 0
0 0 0
0 0 0
0 0 0
0 0 0
0 0 0
0 0 0
0 0 0
0 0 0
0 0 0
0 0 0
0 0 0
0 0 0
0 0 0
0 0 0
0 0 0
0 0 0
0 0 0
0 0 0
0 0 0
0 0 0
0 0 0
0 0 0
0 0 0
0 0 0
0 0 0
0 0 0
0 0 0
0 0 0
0 0 0
0 0 0
0 0 0
0 0 0
0 0 0
0 0 0
225 141 57
226 141 57
227 142 57
228 142 57
229 143 57
230 143 57
231 144 57
232 144 57
233 145 57
234 145 57
235 146 57
236 146 57
237 147 57
238 147 57
239 148 57
240 148 57
241 149 57
242 149 57
243 150 57
244 150 57
245 151 57
246 151 57
247 152 57
248 152 57
249 153 57
250 153 57
251 154 57
252 154 57
253 155 57
254 155 57
0 29 58
1 29 58
2 30 58
3 30 58
4 31 58
5 31 58
6 32 58
7 32 58
8 33 58
9 33 58
10 34 58
11 34 58
12 35 58
13 35 58
14 36 58
15 36 58
16 37 58
17 37 58
18 38 58
19 38 58
20 39 58
21 39 58
22 40 58
23 40 58
24 41 58
25 41 58
26 42 58
27 42 58
28 43 58
0 0 0
0 0 0
0 0 0
0 0 0
0 0 0
0 0 0
0 0 0
0 0 0
0 0 0
0 0 0
0 0 0
0 0 0
0 0 0
0 0 0
0 0 0
0 0 0
0 0 0
0 0 0
0 0 0
0 0 0
0 0 0
0 0 0
0 0 0
0 0 0
0 0 0
0 0 0
0 0 0
0 0 0
0 0 0
0 0 0
0 0 0
0 0 0
0 0 0
0 0 0
0 0 0
0 0 0
0 0 0
0 0 0
0 0 0
0 0 0
0 0 0
0 0 0
0 0 0
0 0 0
0 0 0
0 0 0
0 0 0
0 0 0
0 0 0
0 0 0
0 0 0
0 0 0
0 0 0
0 0 0
0 0 0
0 0 0
0 0 0
0 0 0
0 0 0
0 0 0
0 0 0
0 0 0
0 0 0
0 0 0
0 0 0
0 0 0
0 0 0
0 0 0
0 0 0
0 0 0
0 0 0
0 0 0
0 0 0
0 0 0
0 0 0
0 0 0
0 0 0
0 0 0
0 0 0
0 0 0
0 0 0
0 0 0
0 0 0
0 0 0
0 0 0
0 0 0
0 0 0
0 0 0
0 0 0
0 0 0
0 0 0
0 0 0
0 0 0
0 0 0
0 0 0
0 0 0
0 0 0
0 0 0
0 0 0
0 0 0
0 0 0
0 0 0
0 0 0
0 0 0
0 0 0
0 0 0
0 0 0
0 0 0
0 0 0
0 0 0
0 0 0
0 0 0
0 0 0
0 0 0
0 0 0
0 0 0
0 0 0
0 0 0
0 0 0
0 0 0
0 0 0
0 0 0
0 0 0
0 0 0
0 0 0
0 0 0
0 0 0
0 0 0
0 0 0
0 0 0
0 0 0
0 0 0
0 0 0
0 0 0
0 0 0
0 0 0
0 0 0
0 0 0
0 0 0
0 0 0
0 0 0
0 0 0
0 0 0
0 0 0
0 0 0
0 0 0
0 0 0
0 0 0
0 0 0
0 0 0
0 0 0
0 0 0
0 0 0
0 0 0
0 0 0
0 0 0
0 0 0
0 0 0
0 0 0
0 0 0
0 0 0
0 0 0
0 0 0
0 0 0
0 0 0
0 0 0
0 0 0
0 0 0
0 0 0
0 0 0
0 0 0
0 0 0
0 0 0
0 0 0
0 0 0
0 0 0
0 0 0
0 0 0
0 0 0
0 0 0
0 0 0
0 0 0
0 0 0
0 0 0
0 0 0
0 0 0
0 0 0
0 0 0
0 0 0
0 0 0
0 0 0
0 0 0
0 0 0
0 0 0
0 0 0
0 0 0
0 0 0
226 142 58
227 142 58
228 143 58
229 143 58
230 144 58
231 144 58
232 145 58
233 145 58
234 146 58
235 146 58
236 147 58
237 147 58
238 148 58
239 148 58
240 149 58
241 149 58
242 150 58
243 150 58
244 151 58
245 151 58
246 152 58
247 152 58
248 153 58
249 153 58
250 154 58
251 154 58
252 155 58
253 155 58
254 156 58
0 29 59
1 30 59
2 30 59
3 31 59
4 31 59
5 32 59
6 32 59
7 33 59
8 33 59
9 34 59
10 34 59
11 35 59
12 35 59
13 36 59
14 36 59
15 37 59
16 37 59
17 38 59
18 38 59
19 39 59
20 39 59
21 40 59
22 40 59
23 41 59
24 41 59
25 42 59
26 42 59
27 43 59
28 43 59
0 0 0
0 0 0
0 0 0
0 0 0
0 0 0
0 0 0
0 0 0
0 0 0
0 0 0
0 0 0
0 0 0
0 0 0
0 0 0
0 0 0
0 0 0
0 0 0
0 0 0
0 0 0
0 0 0
0 0 0
0 0 0
0 0 0
0 0 0
0 0 0
0 0 0
0 0 0
0 0 0
0 0 0
0 0 0
0 0 0
0 0 0
0 0 0
0 0 0
0 0 0
0 0 0
0 0 0
0 0 0
0 0 0
0 0 0
0 0 0
0 0 0
0 0 0
0 0 0
0 0 0
0 0 0
0 0 0
0 0 0
0 0 0
0 0 0
0 0 0
0 0 0
0 0 0
0 0 0
0 0 0
0 0 0
0 0 0
0 0 0
0 0 0
0 0 0
0 0 0
0 0 0
0 0 0
0 0 0
0 0 0
0 0 0
0 0 0
0 0 0
0 0 0
0 0 0
0 0 0
0 0 0
0 0 0
0 0 0
0 0 0
0 0 0
0 0 0
0 0 0
0 0 0
0 0 0
0 0 0
0 0 0
0 0 0
0 0 0
0 0 0
0 0 0
0 0 0
0 0 0
0 0 0
0 0 0
0 0 0
0 0 0
0 0 0
0 0 0
0 0 0
0 0 0
0 0 0
0 0 0
0 0 0
0 0 0
0 0 0
0 0 0
0 0 0
0 0 0
0 0 0
0 0 0
0 0 0
0 0 0
0 0 0
0 0 0
0 0 0
0 0 0
0 0 0
0 0 0
0 0 0
0 0 0
0 0 0
0 0 0
0 0 0
0 0 0
0 0 0
0 0 0
0 0 0
0 0 0
0 0 0
0 0 0
0 0 0
0 0 0
0 0 0
0 0 0
0 0 0
0 0 0
0 0 0
0 0 0
0 0 0
0 0 0
0 0 0
0 0 0
0 0 0
0 0 0
0 0 0
0 0 0
0 0 0
0 0 0
0 0 0
0 0 0
0 0 0
0 0 0
0 0 0
0 0 0
0 0 0
0 0 0
0 0 0
0 0 0
0 0 0
0 0 0
0 0 0
0 0 0
0 0 0
0 0 0
0 0 0
0 0 0
0 0 0
0 0 0
0 0 0
0 0 0
0 0 0
0 0 0
0 0 0
0 0 0
0 0 0
0 0 0
0 0 0
0 0 0
0 0 0
0 0 0
0 0 0
0 0 0
0 0 0
0 0 0
0 0 0
0 0 0
0 0 0
0 0 0
0 0 0
0 0 0
0 0 0
0 0 0
0 0 0
0 0 0
0 0 0
0 0 0
0 0 0
0 0 0
0 0 0
0 0 0
0 0 0
0 0 0
226 142 59
227 143 59
228 143 59
229 144 59
230 144 59
231 145 59
232 145 59
233 146 59
234 146 59
235 147 59
236 147 59
237 148 59
238 148 59
239 149 59
240 149 59
241 150 59
242 150 59
243 151 59
244 151 59
245 152 59
246 152 59
247 153 59
248 153 59
249 154 59
250 154 59
251 155 59
252 155 59
253 156 59
254 156 59
0 30 60
1 30 60
2 31 60
3 31 60
4 32 60
5 32 60
6 33 60
7 33 60
8 34 60
9 34 60
10 35 60
11 35 60
12 36 60
13 36 60
14 37 60
15 37 60
16 38 60
17 38 60
18 39 60
19 39 60
20 40 60
21 40 60
22 41 60
23 41 60
24 42 60
25 42 60
26 43 60
27 43 60
0 0 0
0 0 0
0 0 0
0 0 0
0 0 0
0 0 0
0 0 0
0 0 0
0 0 0
0 0 0
0 0 0
0 0 0
0 0 0
0 0 0
0 0 0
0 0 0
0 0 0
0 0 0
0 0 0
0 0 0
0 0 0
0 0 0
0 0 0
0 0 0
0 0 0
0 0 0
0 0 0
0 0 0
0 0 0
0 0 0
0 0 0
0 0 0
0 0 0
0 0 0
0 0 0
0 0 0
0 0 0
0 0 0
0 0 0
0 0 0
0 0 0
0 0 0
0 0 0
0 0 0
0 0 0
0 0 0
0 0 0
0 0 0
0 0 0
0 0 0
0 0 0
0 0 0
0 0 0
0 0 0
0 0 0
0 0 0
0 0 0
0 0 0
0 0 0
0 0 0
0 0 0
0 0 0
0 0 0
0 0 0
0 0 0
0 0 0
0 0 0
0 0 0
0 0 0
0 0 0
0 0 0
0 0 0
0 0 0
0 0 0
0 0 0
0 0 0
0 0 0
0 0 0
0 0 0
0 0 0
0 0 0
0 0 0
0 0 0
0 0 0
0 0 0
0 0 0
0 0 0
0 0 0
0 0 0
0 0 0
0 0 0
0 0 0
0 0 0
0 0 0
0 0 0
0 0 0
0 0 0
0 0 0
0 0 0
0 0 0
0 0 0
0 0 0
0 0 0
0 0 0
0 0 0
0 0 0
0 0 0
0 0 0
0 0 0
0 0 0
0 0 0
0 0 0
0 0 0
0 0 0
0 0 0
0 0 0
0 0 0
0 0 0
0 0 0
0 0 0
0 0 0
0 0 0
0 0 0
0 0 0
0 0 0
0 0 0
0 0 0
0 0 0
0 0 0
0 0 0
0 0 0
0 0 0
0 0 0
0 0 0
0 0 0
0 0 0
0 0 0
0 0 0
0 0 0
0 0 0
0 0 0
0 0 0
0 0 0
0 0 0
0 0 0
0 0 0
0 0 0
0 0 0
0 0 0
0 0 0
0 0 0
0 0 0
0 0 0
0 0 0
0 0 0
0 0 0
0 0 0
0 0 0
0 0 0
0 0 0
0 0 0
0 0 0
0 0 0
0 0 0
0 0 0
0 0 0
0 0 0
0 0 0
0 0 0
0 0 0
0 0 0
0 0 0
0 0 0
0 0 0
0 0 0
0 0 0
0 0 0
0 0 0
0 0 0
0 0 0
0 0 0
0 0 0
0 0 0
0 0 0
0 0 0
0 0 0
0 0 0
0 0 0
0 0 0
0 0 0
0 0 0
0 0 0
0 0 0
0 0 0
0 0 0
0 0 0
0 0 0
0 0 0
0 0 0
227 143 60
228 144 60
229 144 60
230 145 60
231 145 60
232 146 60
233 146 60
234 147 60
235 147 60
236 148 60
237 148 60
238 149 60
239 149 60
240 150 60
241 150 60
242 151 60
243 151 60
244 152 60
245 152 60
246 153 60
247 153 60
248 154 60
249 154 60
250 155 60
251 155 60
252 156 60
253 156 60
254 157 60
0 30 61
1 31 61
2 31 61
3 32 61
4 32 61
5 33 61
6 33 61
7 34 61
8 34 61
9 35 61
10 35 61
11 36 61
12 36 61
13 37 61
14 37 61
15 38 61
16 38 61
17 39 61
18 39 61
19 40 61
20 40 61
21 41 61
22 41 61
23 42 61
24 42 61
25 43 61
26 43 61
0 0 0
0 0 0
0 0 0
0 0 0
0 0 0
0 0 0
0 0 0
0 0 0
0 0 0
0 0 0
0 0 0
0 0 0
0 0 0
0 0 0
0 0 0
0 0 0
0 0 0
0 0 0
0 0 0
0 0 0
0 0 0
0 0 0
0 0 0
0 0 0
0 0 0
0 0 0
0 0 0
0 0 0
0 0 0
0 0 0
0 0 0
0 0 0
0 0 0
0 0 0
0 0 0
0 0 0
0 0 0
0 0 0
0 0 0
0 0 0
0 0 0
0 0 0
0 0 0
0 0 0
0 0 0
0 0 0
0 0 0
0 0 0
0 0 0
0 0 0
0 0 0
0 0 0
0 0 0
0 0 0
0 0 0
0 0 0
0 0 0
0 0 0
0 0 0
0 0 0
0 0 0
0 0 0
0 0 0
0 0 0
0 0 0
0 0 0
0 0 0
0 0 0
0 0 0
0 0 0
0 0 0
0 0 0
0 0 0
0 0 0
0 0 0
0 0 0
0 0 0
0 0 0
0 0 0
0 0 0
0 0 0
0 0 0
0 0 0
0 0 0
0 0 0
0 0 0
0 0 0
0 0 0
0 0 0
0 0 0
0 0 0
0 0 0
0 0 0
0 0 0
0 0 0
0 0 0
0 0 0
0 0 0
0 0 0
0 0 0
0 0 0
0 0 0
0 0 0
0 0 0
0 0 0
0 0 0
0 0 0
0 0 0
0 0 0
0 0 0
0 0 0
0 0 0
0 0 0
0 0 0
0 0 0
0 0 0
0 0 0
0 0 0
0 0 0
0 0 0
0 0 0
0 0 0
0 0 0
0 0 0
0 0 0
0 0 0
0 0 0
0 0 0
0 0 0
0 0 0
0 0 0
0 0 0
0 0 0
0 0 0
0 0 0
0 0 0
0 0 0
0 0 0
0 0 0
0 0 0
0 0 0
0 0 0
0 0 0
0 0 0
0 0 0
0 0 0
0 0 0
0 0 0
0 0 0
0 0 0
0 0 0
0 0 0
0 0 0
0 0 0
0 0 0
0 0 0
0 0 0
0 0 0
0 0 0
0 0 0
0 0 0
0 0 0
0 0 0
0 0 0
0 0 0
0 0 0
0 0 0
0 0 0
0 0 0
0 0 0
0 0 0
0 0 0
0 0 0
0 0 0
0 0 0
0 0 0
0 0 0
0 0 0
0 0 0
0 0 0
0 0 0
0 0 0
0 0 0
0 0 0
0 0 0
0 0 0
0 0 0
0 0 0
0 0 0
0 0 0
0 0 0
0 0 0
0 0 0
0 0 0
0 0 0
0 0 0
0 0 0
0 0 0
0 0 0
0 0 0
0 0 0
228 144 61
229 145 61
230 145 61
231 146 61
232 146 61
233 147 61
234 147 61
235 148 61
236 148 61
237 149 61
238 149 61
239 150 61
240 150 61
241 151 61
242 151 61
243 152 61
244 152 61
245 153 61
246 153 61
247 154 61
248 154 61
249 155 61
250 155 61
251 156 61
252 156 61
253 157 61
254 157 61
0 31 62
1 31 62
2 32 62
3 32 62
4 33 62
5 33 62
6 34 62
7 34 62
8 35 62
9 35 62
10 36 62
11 36 62
12 37 62
13 37 62
14 38 62
15 38 62
16 39 62
17 39 62
18 40 62
19 40 62
20 41 62
21 41 62
22 42 62
23 42 62
24 43 62
25 43 62
26 44 62
0 0 0
0 0 0
0 0 0
0 0 0
0 0 0
0 0 0
0 0 0
0 0 0
0 0 0
0 0 0
0 0 0
0 0 0
0 0 0
0 0 0
0 0 0
0 0 0
0 0 0
0 0 0
0 0 0
0 0 0
0 0 0
0 0 0
0 0 0
0 0 0
0 0 0
0 0 0
0 0 0
0 0 0
0 0 0
0 0 0
0 0 0
0 0 0
0 0 0
0 0 0
0 0 0
0 0 0
0 0 0
0 0 0
0 0 0
0 0 0
0 0 0
0 0 0
0 0 0
0 0 0
0 0 0
0 0 0
0 0 0
0 0 0
0 0 0
0 0 0
0 0 0
0 0 0
0 0 0
0 0 0
0 0 0
0 0 0
0 0 0
0 0 0
0 0 0
0 0 0
0 0 0
0 0 0
0 0 0
0 0 0
0 0 0
0 0 0
0 0 0
0 0 0
0 0 0
0 0 0
0 0 0
0 0 0
0 0 0
0 0 0
0 0 0
0 0 0
0 0 0
0 0 0
0 0 0
0 0 0
0 0 0
0 0 0
0 0 0
0 0 0
0 0 0
0 0 0
0 0 0
0 0 0
0 0 0
0 0 0
0 0 0
0 0 0
0 0 0
0 0 0
0 0 0
0 0 0
0 0 0
0 0 0
0 0 0
0 0 0
0 0 0
0 0 0
0 0 0
0 0 0
0 0 0
0 0 0
0 0 0
0 0 0
0 0 0
0 0 0
0 0 0
0 0 0
0 0 0
0 0 0
0 0 0
0 0 0
0 0 0
0 0 0
0 0 0
0 0 0
0 0 0
0 0 0
0 0 0
0 0 0
0 0 0
0 0 0
0 0 0
0 0 0
0 0 0
0 0 0
0 0 0
0 0 0
0 0 0
0 0 0
0 0 0
0 0 0
0 0 0
0 0 0
0 0 0
0 0 0
0 0 0
0 0 0
0 0 0
0 0 0
0 0 0
0 0 0
0 0 0
0 0 0
0 0 0
0 0 0
0 0 0
0 0 0
0 0 0
0 0 0
0 0 0
0 0 0
0 0 0
0 0 0
0 0 0
0 0 0
0 0 0
0 0 0
0 0 0
0 0 0
0 0 0
0 0 0
0 0 0
0 0 0
0 0 0
0 0 0
0 0 0
0 0 0
0 0 0
0 0 0
0 0 0
0 0 0
0 0 0
0 0 0
0 0 0
0 0 0
0 0 0
0 0 0
0 0 0
0 0 0
0 0 0
0 0 0
0 0 0
0 0 0
0 0 0
0 0 0
0 0 0
0 0 0
0 0 0
0 0 0
0 0 0
0 0 0
0 0 0
0 0 0
0 0 0
0 0 0
0 0 0
228 145 62
229 145 62
230 146 62
231 146 62
232 147 62
233 147 62
234 148 62
235 148 62
236 149 62
237 149 62
238 150 62
239 150 62
240 151 62
241 151 62
242 152 62
243 152 62
244 153 62
245 153 62
246 154 62
247 154 62
248 155 62
249 155 62
250 156 62
251 156 62
252 157 62
253 157 62
254 158 62
0 31 63
1 32 63
2 32 63
3 33 63
4 33 63
5 34 63
6 34 63
7 35 63
8 35 63
9 36 63
10 36 63
11 37 63
12 37 63
13 38 63
14 38 63
15 39 63
16 39 63
17 40 63
18 40 63
19 41 63
20 41 63
21 42 63
22 42 63
23 43 63
24 43 63
25 44 63
0 0 0
0 0 0
0 0 0
0 0 0
0 0 0
0 0 0
0 0 0
0 0 0
0 0 0
0 0 0
0 0 0
0 0 0
0 0 0
0 0 0
0 0 0
0 0 0
0 0 0
0 0 0
0 0 0
0 0 0
0 0 0
0 0 0
0 0 0
0 0 0
0 0 0
0 0 0
0 0 0
0 0 0
0 0 0
0 0 0
0 0 0
0 0 0
0 0 0
0 0 0
0 0 0
0 0 0
0 0 0
0 0 0
0 0 0
0 0 0
0 0 0
0 0 0
0 0 0
0 0 0
0 0 0
0 0 0
0 0 0
0 0 0
0 0 0
0 0 0
0 0 0
0 0 0
0 0 0
0 0 0
0 0 0
0 0 0
0 0 0
0 0 0
0 0 0
0 0 0
0 0 0
0 0 0
0 0 0
0 0 0
0 0 0
0 0 0
0 0 0
0 0 0
0 0 0
0 0 0
0 0 0
0 0 0
0 0 0
0 0 0
0 0 0
0 0 0
0 0 0
0 0 0
0 0 0
0 0 0
0 0 0
0 0 0
0 0 0
0 0 0
0 0 0
0 0 0
0 0 0
0 0 0
0 0 0
0 0 0
0 0 0
0 0 0
0 0 0
0 0 0
0 0 0
0 0 0
0 0 0
0 0 0
0 0 0
0 0 0
0 0 0
0 0 0
0 0 0
0 0 0
0 0 0
0 0 0
0 0 0
0 0 0
0 0 0
0 0 0
0 0 0
0 0 0
0 0 0
0 0 0
0 0 0
0 0 0
0 0 0
0 0 0
0 0 0
0 0 0
0 0 0
0 0 0
0 0 0
0 0 0
0 0 0
0 0 0
0 0 0
0 0 0
0 0 0
0 0 0
0 0 0
0 0 0
0 0 0
0 0 0
0 0 0
0 0 0
0 0 0
0 0 0
0 0 0
0 0 0
0 0 0
0 0 0
0 0 0
0 0 0
0 0 0
0 0 0
0 0 0
0 0 0
0 0 0
0 0 0
0 0 0
0 0 0
0 0 0
0 0 0
0 0 0
0 0 0
0 0 0
0 0 0
0 0 0
0 0 0
0 0 0
0 0 0
0 0 0
0 0 0
0 0 0
0 0 0
0 0 0
0 0 0
0 0 0
0 0 0
0 0 0
0 0 0
0 0 0
0 0 0
0 0 0
0 0 0
0 0 0
0 0 0
0 0 0
0 0 0
0 0 0
0 0 0
0 0 0
0 0 0
0 0 0
0 0 0
0 0 0
0 0 0
0 0 0
0 0 0
0 0 0
0 0 0
0 0 0
0 0 0
0 0 0
0 0 0
0 0 0
0 0 0
0 0 0
0 0 0
0 0 0
0 0 0
0 0 0
229 146 63
230 146 63
231 147 63
232 147 63
233 148 63
234 148 63
235 149 63
236 149 63
237 150 63
238 150 63
239 151 63
240 151 63
241 152 63
242 152 63
243 153 63
244 153 63
245 154 63
246 154 63
247 155 63
248 155 63
249 156 63
250 156 63
251 157 63
252 157 63
253 158 63
254 158 63
0 32 64
1 32 64
2 33 64
3 33 64
4 34 64
5 34 64
6 35 64
7 35 64
8 36 64
9 36 64
10 37 64
11 37 64
12 38 64
13 38 64
14 39 64
15 39 64
16 40 64
17 40 64
18 41 64
19 41 64
20 42 64
21 42 64
22 43 64
23 43 64
24 44 64
0 0 0
0 0 0
0 0 0
0 0 0
0 0 0
0 0 0
0 0 0
0 0 0
0 0 0
0 0 0
0 0 0
0 0 0
0 0 0
0 0 0
0 0 0
0 0 0
0 0 0
0 0 0
0 0 0
0 0 0
0 0 0
0 0 0
0 0 0
0 0 0
0 0 0
0 0 0
0 0 0
0 0 0
0 0 0
0 0 0
0 0 0
0 0 0
0 0 0
0 0 0
0 0 0
0 0 0
0 0 0
0 0 0
0 0 0
0 0 0
0 0 0
0 0 0
0 0 0
0 0 0
0 0 0
0 0 0
0 0 0
0 0 0
0 0 0
0 0 0
0 0 0
0 0 0
0 0 0
0 0 0
0 0 0
0 0 0
0 0 0
0 0 0
0 0 0
0 0 0
0 0 0
0 0 0
0 0 0
0 0 0
0 0 0
0 0 0
0 0 0
0 0 0
0 0 0
0 0 0
0 0 0
0 0 0
0 0 0
0 0 0
0 0 0
0 0 0
0 0 0
0 0 0
0 0 0
0 0 0
0 0 0
0 0 0
0 0 0
0 0 0
0 0 0
0 0 0
0 0 0
0 0 0
0 0 0
0 0 0
0 0 0
0 0 0
0 0 0
0 0 0
0 0 0
0 0 0
0 0 0
0 0 0
0 0 0
0 0 0
0 0 0
0 0 0
0 0 0
0 0 0
0 0 0
0 0 0
0 0 0
0 0 0
0 0 0
0 0 0
0 0 0
0 0 0
0 0 0
0 0 0
0 0 0
0 0 0
0 0 0
0 0 0
0 0 0
0 0 0
0 0 0
0 0 0
0 0 0
0 0 0
0 0 0
0 0 0
0 0 0
0 0 0
0 0 0
0 0 0
0 0 0
0 0 0
0 0 0
0 0 0
0 0 0
0 0 0
0 0 0
0 0 0
0 0 0
0 0 0
0 0 0
0 0 0
0 0 0
0 0 0
0 0 0
0 0 0
0 0 0
0 0 0
0 0 0
0 0 0
0 0 0
0 0 0
0 0 0
0 0 0
0 0 0
0 0 0
0 0 0
0 0 0
0 0 0
0 0 0
0 0 0
0 0 0
0 0 0
0 0 0
0 0 0
0 0 0
0 0 0
0 0 0
0 0 0
0 0 0
0 0 0
0 0 0
0 0 0
0 0 0
0 0 0
0 0 0
0 0 0
0 0 0
0 0 0
0 0 0
0 0 0
0 0 0
0 0 0
0 0 0
0 0 0
0 0 0
0 0 0
0 0 0
0 0 0
0 0 0
0 0 0
0 0 0
0 0 0
0 0 0
0 0 0
0 0 0
0 0 0
0 0 0
0 0 0
0 0 0
0 0 0
0 0 0
0 0 0
0 0 0
0 0 0
230 147 64
231 147 64
232 148 64
233 148 64
234 149 64
235 149 64
236 150 64
237 150 64
238 151 64
239 151 64
240 152 64
241 152 64
242 153 64
243 153 64
244 154 64
245 154 64
246 155 64
247 155 64
248 156 64
249 156 64
250 157 64
251 157 64
252 158 64
253 158 64
254 159 64
0 32 65
1 33 65
2 33 65
3 34 65
4 34 65
5 35 65
6 35 65
7 36 65
8 36 65
9 37 65
10 37 65
11 38 65
12 38 65
13 39 65
14 39 65
15 40 65
16 40 65
17 41 65
18 41 65
19 42 65
20 42 65
21 43 65
22 43 65
23 44 65
24 44 65
0 0 0
0 0 0
0 0 0
0 0 0
0 0 0
0 0 0
0 0 0
0 0 0
0 0 0
0 0 0
0 0 0
0 0 0
0 0 0
0 0 0
0 0 0
0 0 0
0 0 0
0 0 0
0 0 0
0 0 0
0 0 0
0 0 0
0 0 0
0 0 0
0 0 0
0 0 0
0 0 0
0 0 0
0 0 0
0 0 0
0 0 0
0 0 0
0 0 0
0 0 0
0 0 0
0 0 0
0 0 0
0 0 0
0 0 0
0 0 0
0 0 0
0 0 0
0 0 0
0 0 0
0 0 0
0 0 0
0 0 0
0 0 0
0 0 0
0 0 0
0 0 0
0 0 0
0 0 0
0 0 0
0 0 0
0 0 0
0 0 0
0 0 0
0 0 0
0 0 0
0 0 0
0 0 0
0 0 0
0 0 0
0 0 0
0 0 0
0 0 0
0 0 0
0 0 0
0 0 0
0 0 0
0 0 0
0 0 0
0 0 0
0 0 0
0 0 0
0 0 0
0 0 0
0 0 0
0 0 0
0 0 0
0 0 0
0 0 0
0 0 0
0 0 0
0 0 0
0 0 0
0 0 0
0 0 0
0 0 0
0 0 0
0 0 0
0 0 0
0 0 0
0 0 0
0 0 0
0 0 0
0 0 0
0 0 0
0 0 0
0 0 0
0 0 0
0 0 0
0 0 0
0 0 0
0 0 0
0 0 0
0 0 0
0 0 0
0 0 0
0 0 0
0 0 0
0 0 0
0 0 0
0 0 0
0 0 0
0 0 0
0 0 0
0 0 0
0 0 0
0 0 0
0 0 0
0 0 0
0 0 0
0 0 0
0 0 0
0 0 0
0 0 0
0 0 0
0 0 0
0 0 0
0 0 0
0 0 0
0 0 0
0 0 0
0 0 0
0 0 0
0 0 0
0 0 0
0 0 0
0 0 0
0 0 0
0 0 0
0 0 0
0 0 0
0 0 0
0 0 0
0 0 0
0 0 0
0 0 0
0 0 0
0 0 0
0 0 0
0 0 0
0 0 0
0 0 0
0 0 0
0 0 0
0 0 0
0 0 0
0 0 0
0 0 0
0 0 0
0 0 0
0 0 0
0 0 0
0 0 0
0 0 0
0 0 0
0 0 0
0 0 0
0 0 0
0 0 0
0 0 0
0 0 0
0 0 0
0 0 0
0 0 0
0 0 0
0 0 0
0 0 0
0 0 0
0 0 0
0 0 0
0 0 0
0 0 0
0 0 0
0 0 0
0 0 0
0 0 0
0 0 0
0 0 0
0 0 0
0 0 0
0 0 0
0 0 0
0 0 0
0 0 0
0 0 0
0 0 0
0 0 0
0 0 0
0 0 0
0 0 0
0 0 0
230 147 65
231 148 65
232 148 65
233 149 65
234 149 65
235 150 65
236 150 65
237 151 65
238 151 65
239 152 65
240 152 65
241 153 65
242 153 65
243 154 65
244 154 65
245 155 65
246 155 65
247 156 65
248 156 65
249 157 65
250 157 65
251 158 65
252 158 65
253 159 65
254 159 65
0 33 66
1 33 66
2 34 66
3 34 66
4 35 66
5 35 66
6 36 66
7 36 66
8 37 66
9 37 66
10 38 66
11 38 66
12 39 66
13 39 66
14 40 66
15 40 66
16 41 66
17 41 66
18 42 66
19 42 66
20 43 66
21 43 66
22 44 66
23 44 66
0 0 0
0 0 0
0 0 0
0 0 0
0 0 0
0 0 0
0 0 0
0 0 0
0 0 0
0 0 0
0 0 0
0 0 0
0 0 0
0 0 0
0 0 0
0 0 0
0 0 0
0 0 0
0 0 0
0 0 0
0 0 0
0 0 0
0 0 0
0 0 0
0 0 0
0 0 0
0 0 0
0 0 0
0 0 0
0 0 0
0 0 0
0 0 0
0 0 0
0 0 0
0 0 0
0 0 0
0 0 0
0 0 0
0 0 0
0 0 0
0 0 0
0 0 0
0 0 0
0 0 0
0 0 0
0 0 0
0 0 0
0 0 0
0 0 0
0 0 0
0 0 0
0 0 0
0 0 0
0 0 0
0 0 0
0 0 0
0 0 0
0 0 0
0 0 0
0 0 0
0 0 0
0 0 0
0 0 0
0 0 0
0 0 0
0 0 0
0 0 0
0 0 0
0 0 0
0 0 0
0 0 0
0 0 0
0 0 0
0 0 0
0 0 0
0 0 0
0 0 0
0 0 0
0 0 0
0 0 0
0 0 0
0 0 0
0 0 0
0 0 0
0 0 0
0 0 0
0 0 0
0 0 0
0 0 0
0 0 0
0 0 0
0 0 0
0 0 0
0 0 0
0 0 0
0 0 0
0 0 0
0 0 0
0 0 0
0 0 0
0 0 0
0 0 0
0 0 0
0 0 0
0 0 0
0 0 0
0 0 0
0 0 0
0 0 0
0 0 0
0 0 0
0 0 0
0 0 0
0 0 0
0 0 0
0 0 0
0 0 0
0 0 0
0 0 0
0 0 0
0 0 0
0 0 0
0 0 0
0 0 0
0 0 0
0 0 0
0 0 0
0 0 0
0 0 0
0 0 0
0 0 0
0 0 0
0 0 0
0 0 0
0 0 0
0 0 0
0 0 0
0 0 0
0 0 0
0 0 0
0 0 0
0 0 0
0 0 0
0 0 0
0 0 0
0 0 0
0 0 0
0 0 0
0 0 0
0 0 0
0 0 0
0 0 0
0 0 0
0 0 0
0 0 0
0 0 0
0 0 0
0 0 0
0 0 0
0 0 0
0 0 0
0 0 0
0 0 0
0 0 0
0 0 0
0 0 0
0 0 0
0 0 0
0 0 0
0 0 0
0 0 0
0 0 0
0 0 0
0 0 0
0 0 0
0 0 0
0 0 0
0 0 0
0 0 0
0 0 0
0 0 0
0 0 0
0 0 0
0 0 0
0 0 0
0 0 0
0 0 0
0 0 0
0 0 0
0 0 0
0 0 0
0 0 0
0 0 0
0 0 0
0 0 0
0 0 0
0 0 0
0 0 0
0 0 0
0 0 0
0 0 0
0 0 0
0 0 0
0 0 0
0 0 0
0 0 0
0 0 0
231 148 66
232 149 66
233 149 66
234 150 66
235 150 66
236 151 66
237 151 66
238 152 66
239 152 66
240 153 66
241 153 66
242 154 66
243 154 66
244 155 66
245 155 66
246 156 66
247 156 66
248 157 66
249 157 66
250 158 66
251 158 66
252 159 66
253 159 66
254 160 66
0 33 67
1 34 67
2 34 67
3 35 67
4 35 67
5 36 67
6 36 67
7 37 67
8 37 67
9 38 67
10 38 67
11 39 67
12 39 67
13 40 67
14 40 67
15 41 67
16 41 67
17 42 67
18 42 67
19 43 67
20 43 67
21 44 67
22 44 67
23 45 67
0 0 0
0 0 0
0 0 0
0 0 0
0 0 0
0 0 0
0 0 0
0 0 0
0 0 0
0 0 0
0 0 0
0 0 0
0 0 0
0 0 0
0 0 0
0 0 0
0 0 0
0 0 0
0 0 0
0 0 0
0 0 0
0 0 0
0 0 0
0 0 0
0 0 0
0 0 0
0 0 0
0 0 0
0 0 0
0 0 0
0 0 0
0 0 0
0 0 0
0 0 0
0 0 0
0 0 0
0 0 0
0 0 0
0 0 0
0 0 0
0 0 0
0 0 0
0 0 0
0 0 0
0 0 0
0 0 0
0 0 0
0 0 0
0 0 0
0 0 0
0 0 0
0 0 0
0 0 0
0 0 0
0 0 0
0 0 0
0 0 0
0 0 0
0 0 0
0 0 0
0 0 0
0 0 0
0 0 0
0 0 0
0 0 0
0 0 0
0 0 0
0 0 0
0 0 0
0 0 0
0 0 0
0 0 0
0 0 0
0 0 0
0 0 0
0 0 0
0 0 0
0 0 0
0 0 0
0 0 0
0 0 0
0 0 0
0 0 0
0 0 0
0 0 0
0 0 0
0 0 0
0 0 0
0 0 0
0 0 0
0 0 0
0 0 0
0 0 0
0 0 0
0 0 0
0 0 0
0 0 0
0 0 0
0 0 0
0 0 0
0 0 0
0 0 0
0 0 0
0 0 0
0 0 0
0 0 0
0 0 0
0 0 0
0 0 0
0 0 0
0 0 0
0 0 0
0 0 0
0 0 0
0 0 0
0 0 0
0 0 0
0 0 0
0 0 0
0 0 0
0 0 0
0 0 0
0 0 0
0 0 0
0 0 0
0 0 0
0 0 0
0 0 0
0 0 0
0 0 0
0 0 0
0 0 0
0 0 0
0 0 0
0 0 0
0 0 0
0 0 0
0 0 0
0 0 0
0 0 0
0 0 0
0 0 0
0 0 0
0 0 0
0 0 0
0 0 0
0 0 0
0 0 0
0 0 0
0 0 0
0 0 0
0 0 0
0 0 0
0 0 0
0 0 0
0 0 0
0 0 0
0 0 0
0 0 0
0 0 0
0 0 0
0 0 0
0 0 0
0 0 0
0 0 0
0 0 0
0 0 0
0 0 0
0 0 0
0 0 0
0 0 0
0 0 0
0 0 0
0 0 0
0 0 0
0 0 0
0 0 0
0 0 0
0 0 0
0 0 0
0 0 0
0 0 0
0 0 0
0 0 0
0 0 0
0 0 0
0 0 0
0 0 0
0 0 0
0 0 0
0 0 0
0 0 0
0 0 0
0 0 0
0 0 0
0 0 0
0 0 0
0 0 0
0 0 0
0 0 0
0 0 0
0 0 0
0 0 0
0 0 0
0 0 0
0 0 0
0 0 0
231 149 67
232 149 67
233 150 67
234 150 67
235 151 67
236 151 67
237 152 67
238 152 67
239 153 67
240 153 67
241 154 67
242 154 67
243 155 67
244 155 67
245 156 67
246 156 67
247 157 67
248 157 67
249 158 67
250 158 67
251 159 67
252 159 67
253 160 67
254 160 67
0 34 68
1 34 68
2 35 68
3 35 68
4 36 68
5 36 68
6 37 68
7 37 68
8 38 68
9 38 68
10 39 68
11 39 68
12 40 68
13 40 68
14 41 68
15 41 68
16 42 68
17 42 68
18 43 68
19 43 68
20 44 68
21 44 68
22 45 68
0 0 0
0 0 0
0 0 0
0 0 0
0 0 0
0 0 0
0 0 0
0 0 0
0 0 0
0 0 0
0 0 0
0 0 0
0 0 0
0 0 0
0 0 0
0 0 0
0 0 0
0 0 0
0 0 0
0 0 0
0 0 0
0 0 0
0 0 0
0 0 0
0 0 0
0 0 0
0 0 0
0 0 0
0 0 0
0 0 0
0 0 0
0 0 0
0 0 0
0 0 0
0 0 0
0 0 0
0 0 0
0 0 0
0 0 0
0 0 0
0 0 0
0 0 0
0 0 0
0 0 0
0 0 0
0 0 0
0 0 0
0 0 0
0 0 0
0 0 0
0 0 0
0 0 0
0 0 0
0 0 0
0 0 0
0 0 0
0 0 0
0 0 0
0 0 0
0 0 0
0 0 0
0 0 0
0 0 0
0 0 0
0 0 0
0 0 0
0 0 0
0 0 0
0 0 0
0 0 0
0 0 0
0 0 0
0 0 0
0 0 0
0 0 0
0 0 0
0 0 0
0 0 0
0 0 0
0 0 0
0 0 0
0 0 0
0 0 0
0 0 0
0 0 0
0 0 0
0 0 0
0 0 0
0 0 0
0 0 0
0 0 0
0 0 0
0 0 0
0 0 0
0 0 0
0 0 0
0 0 0
0 0 0
0 0 0
0 0 0
0 0 0
0 0 0
0 0 0
0 0 0
0 0 0
0 0 0
0 0 0
0 0 0
0 0 0
0 0 0
0 0 0
0 0 0
0 0 0
0 0 0
0 0 0
0 0 0
0 0 0
0 0 0
0 0 0
0 0 0
0 0 0
0 0 0
0 0 0
0 0 0
0 0 0
0 0 0
0 0 0
0 0 0
0 0 0
0 0 0
0 0 0
0 0 0
0 0 0
0 0 0
0 0 0
0 0 0
0 0 0
0 0 0
0 0 0
0 0 0
0 0 0
0 0 0
0 0 0
0 0 0
0 0 0
0 0 0
0 0 0
0 0 0
0 0 0
0 0 0
0 0 0
0 0 0
0 0 0
0 0 0
0 0 0
0 0 0
0 0 0
0 0 0
0 0 0
0 0 0
0 0 0
0 0 0
0 0 0
0 0 0
0 0 0
0 0 0
0 0 0
0 0 0
0 0 0
0 0 0
0 0 0
0 0 0
0 0 0
0 0 0
0 0 0
0 0 0
0 0 0
0 0 0
0 0 0
0 0 0
0 0 0
0 0 0
0 0 0
0 0 0
0 0 0
0 0 0
0 0 0
0 0 0
0 0 0
0 0 0
0 0 0
0 0 0
0 0 0
0 0 0
0 0 0
0 0 0
0 0 0
0 0 0
0 0 0
0 0 0
0 0 0
0 0 0
0 0 0
0 0 0
0 0 0
0 0 0
0 0 0
0 0 0
0 0 0
232 150 68
233 150 68
234 151 68
235 151 68
236 152 68
237 152 68
238 153 68
239 153 68
240 154 68
241 154 68
242 155 68
243 155 68
244 156 68
245 156 68
246 157 68
247 157 68
248 158 68
249 158 68
250 159 68
251 159 68
252 160 68
253 160 68
254 161 68
0 34 69
1 35 69
2 35 69
3 36 69
4 36 69
5 37 69
6 37 69
7 38 69
8 38 69
9 39 69
10 39 69
11 40 69
12 40 69
13 41 69
14 41 69
15 42 69
16 42 69
17 43 69
18 43 69
19 44 69
20 44 69
21 45 69
0 0 0
0 0 0
0 0 0
0 0 0
0 0 0
0 0 0
0 0 0
0 0 0
0 0 0
0 0 0
0 0 0
0 0 0
0 0 0
0 0 0
0 0 0
0 0 0
0 0 0
0 0 0
0 0 0
0 0 0
0 0 0
0 0 0
0 0 0
0 0 0
0 0 0
0 0 0
0 0 0
0 0 0
0 0 0
0 0 0
0 0 0
0 0 0
0 0 0
0 0 0
0 0 0
0 0 0
0 0 0
0 0 0
0 0 0
0 0 0
0 0 0
0 0 0
0 0 0
0 0 0
0 0 0
0 0 0
0 0 0
0 0 0
0 0 0
0 0 0
0 0 0
0 0 0
0 0 0
0 0 0
0 0 0
0 0 0
0 0 0
0 0 0
0 0 0
0 0 0
0 0 0
0 0 0
0 0 0
0 0 0
0 0 0
0 0 0
0 0 0
0 0 0
0 0 0
0 0 0
0 0 0
0 0 0
0 0 0
0 0 0
0 0 0
0 0 0
0 0 0
0 0 0
0 0 0
0 0 0
0 0 0
0 0 0
0 0 0
0 0 0
0 0 0
0 0 0
0 0 0
0 0 0
0 0 0
0 0 0
0 0 0
0 0 0
0 0 0
0 0 0
0 0 0
0 0 0
0 0 0
0 0 0
0 0 0
0 0 0
0 0 0
0 0 0
0 0 0
0 0 0
0 0 0
0 0 0
0 0 0
0 0 0
0 0 0
0 0 0
0 0 0
0 0 0
0 0 0
0 0 0
0 0 0
0 0 0
0 0 0
0 0 0
0 0 0
0 0 0
0 0 0
0 0 0
0 0 0
0 0 0
0 0 0
0 0 0
0 0 0
0 0 0
0 0 0
0 0 0
0 0 0
0 0 0
0 0 0
0 0 0
0 0 0
0 0 0
0 0 0
0 0 0
0 0 0
0 0 0
0 0 0
0 0 0
0 0 0
0 0 0
0 0 0
0 0 0
0 0 0
0 0 0
0 0 0
0 0 0
0 0 0
0 0 0
0 0 0
0 0 0
0 0 0
0 0 0
0 0 0
0 0 0
0 0 0
0 0 0
0 0 0
0 0 0
0 0 0
0 0 0
0 0 0
0 0 0
0 0 0
0 0 0
0 0 0
0 0 0
0 0 0
0 0 0
0 0 0
0 0 0
0 0 0
0 0 0
0 0 0
0 0 0
0 0 0
0 0 0
0 0 0
0 0 0
0 0 0
0 0 0
0 0 0
0 0 0
0 0 0
0 0 0
0 0 0
0 0 0
0 0 0
0 0 0
0 0 0
0 0 0
0 0 0
0 0 0
0 0 0
0 0 0
0 0 0
0 0 0
0 0 0
0 0 0
0 0 0
0 0 0
0 0 0
0 0 0
0 0 0
0 0 0
0 0 0
0 0 0
0 0 0
233 151 69
234 151 69
235 152 69
236 152 69
237 153 69
238 153 69
239 154 69
240 154 69
241 155 69
242 155 69
243 156 69
244 156 69
245 157 69
246 157 69
247 158 69
248 158 69
249 159 69
250 159 69
251 160 69
252 160 69
253 161 69
254 161 69
0 35 70
1 35 70
2 36 70
3 36 70
4 37 70
5 37 70
6 38 70
7 38 70
8 39 70
9 39 70
10 40 70
11 40 70
12 41 70
13 41 70
14 42 70
15 42 70
16 43 70
17 43 70
18 44 70
19 44 70
20 45 70
21 45 70
0 0 0
0 0 0
0 0 0
0 0 0
0 0 0
0 0 0
0 0 0
0 0 0
0 0 0
0 0 0
0 0 0
0 0 0
0 0 0
0 0 0
0 0 0
0 0 0
0 0 0
0 0 0
0 0 0
0 0 0
0 0 0
0 0 0
0 0 0
0 0 0
0 0 0
0 0 0
0 0 0
0 0 0
0 0 0
0 0 0
0 0 0
0 0 0
0 0 0
0 0 0
0 0 0
0 0 0
0 0 0
0 0 0
0 0 0
0 0 0
0 0 0
0 0 0
0 0 0
0 0 0
0 0 0
0 0 0
0 0 0
0 0 0
0 0 0
0 0 0
0 0 0
0 0 0
0 0 0
0 0 0
0 0 0
0 0 0
0 0 0
0 0 0
0 0 0
0 0 0
0 0 0
0 0 0
0 0 0
0 0 0
0 0 0
0 0 0
0 0 0
0 0 0
0 0 0
0 0 0
0 0 0
0 0 0
0 0 0
0 0 0
0 0 0
0 0 0
0 0 0
0 0 0
0 0 0
0 0 0
0 0 0
0 0 0
0 0 0
0 0 0
0 0 0
0 0 0
0 0 0
0 0 0
0 0 0
0 0 0
0 0 0
0 0 0
0 0 0
0 0 0
0 0 0
0 0 0
0 0 0
0 0 0
0 0 0
0 0 0
0 0 0
0 0 0
0 0 0
0 0 0
0 0 0
0 0 0
0 0 0
0 0 0
0 0 0
0 0 0
0 0 0
0 0 0
0 0 0
0 0 0
0 0 0
0 0 0
0 0 0
0 0 0
0 0 0
0 0 0
0 0 0
0 0 0
0 0 0
0 0 0
0 0 0
0 0 0
0 0 0
0 0 0
0 0 0
0 0 0
0 0 0
0 0 0
0 0 0
0 0 0
0 0 0
0 0 0
0 0 0
0 0 0
0 0 0
0 0 0
0 0 0
0 0 0
0 0 0
0 0 0
0 0 0
0 0 0
0 0 0
0 0 0
0 0 0
0 0 0
0 0 0
0 0 0
0 0 0
0 0 0
0 0 0
0 0 0
0 0 0
0 0 0
0 0 0
0 0 0
0 0 0
0 0 0
0 0 0
0 0 0
0 0 0
0 0 0
0 0 0
0 0 0
0 0 0
0 0 0
0 0 0
0 0 0
0 0 0
0 0 0
0 0 0
0 0 0
0 0 0
0 0 0
0 0 0
0 0 0
0 0 0
0 0 0
0 0 0
0 0 0
0 0 0
0 0 0
0 0 0
0 0 0
0 0 0
0 0 0
0 0 0
0 0 0
0 0 0
0 0 0
0 0 0
0 0 0
0 0 0
0 0 0
0 0 0
0 0 0
0 0 0
0 0 0
0 0 0
0 0 0
0 0 0
0 0 0
0 0 0
0 0 0
0 0 0
0 0 0
0 0 0
233 151 70
234 152 70
235 152 70
236 153 70
237 153 70
238 154 70
239 154 70
240 155 70
241 155 70
242 156 70
243 156 70
244 157 70
245 157 70
246 158 70
247 158 70
248 159 70
249 159 70
250 160 70
251 160 70
252 161 70
253 161 70
254 162 70
0 35 71
1 36 71
2 36 71
3 37 71
4 37 71
5 38 71
6 38 71
7 39 71
8 39 71
9 40 71
10 40 71
11 41 71
12 41 71
13 42 71
14 42 71
15 43 71
16 43 71
17 44 71
18 44 71
19 45 71
20 45 71
0 0 0
0 0 0
0 0 0
0 0 0
0 0 0
0 0 0
0 0 0
0 0 0
0 0 0
0 0 0
0 0 0
0 0 0
0 0 0
0 0 0
0 0 0
0 0 0
0 0 0
0 0 0
0 0 0
0 0 0
0 0 0
0 0 0
0 0 0
0 0 0
0 0 0
0 0 0
0 0 0
0 0 0
0 0 0
0 0 0
0 0 0
0 0 0
0 0 0
0 0 0
0 0 0
0 0 0
0 0 0
0 0 0
0 0 0
0 0 0
0 0 0
0 0 0
0 0 0
0 0 0
0 0 0
0 0 0
0 0 0
0 0 0
0 0 0
0 0 0
0 0 0
0 0 0
0 0 0
0 0 0
0 0 0
0 0 0
0 0 0
0 0 0
0 0 0
0 0 0
0 0 0
0 0 0
0 0 0
0 0 0
0 0 0
0 0 0
0 0 0
0 0 0
0 0 0
0 0 0
0 0 0
0 0 0
0 0 0
0 0 0
0 0 0
0 0 0
0 0 0
0 0 0
0 0 0
0 0 0
0 0 0
0 0 0
0 0 0
0 0 0
0 0 0
0 0 0
0 0 0
0 0 0
0 0 0
0 0 0
0 0 0
0 0 0
0 0 0
0 0 0
0 0 0
0 0 0
0 0 0
0 0 0
0 0 0
0 0 0
0 0 0
0 0 0
0 0 0
0 0 0
0 0 0
0 0 0
0 0 0
0 0 0
0 0 0
0 0 0
0 0 0
0 0 0
0 0 0
0 0 0
0 0 0
0 0 0
0 0 0
0 0 0
0 0 0
0 0 0
0 0 0
0 0 0
0 0 0
0 0 0
0 0 0
0 0 0
0 0 0
0 0 0
0 0 0
0 0 0
0 0 0
0 0 0
0 0 0
0 0 0
0 0 0
0 0 0
0 0 0
0 0 0
0 0 0
0 0 0
0 0 0
0 0 0
0 0 0
0 0 0
0 0 0
0 0 0
0 0 0
0 0 0
0 0 0
0 0 0
0 0 0
0 0 0
0 0 0
0 0 0
0 0 0
0 0 0
0 0 0
0 0 0
0 0 0
0 0 0
0 0 0
0 0 0
0 0 0
0 0 0
0 0 0
0 0 0
0 0 0
0 0 0
0 0 0
0 0 0
0 0 0
0 0 0
0 0 0
0 0 0
0 0 0
0 0 0
0 0 0
0 0 0
0 0 0
0 0 0
0 0 0
0 0 0
0 0 0
0 0 0
0 0 0
0 0 0
0 0 0
0 0 0
0 0 0
0 0 0
0 0 0
0 0 0
0 0 0
0 0 0
0 0 0
0 0 0
0 0 0
0 0 0
0 0 0
0 0 0
0 0 0
0 0 0
0 0 0
0 0 0
0 0 0
0 0 0
0 0 0
0 0 0
0 0 0
0 0 0
0 0 0
0 0 0
0 0 0
234 152 71
235 153 71
236 153 71
237 154 71
238 154 71
239 155 71
240 155 71
241 156 71
242 156 71
243 157 71
244 157 71
245 158 71
246 158 71
247 159 71
248 159 71
249 160 71
250 160 71
251 161 71
252 161 71
253 162 71
254 162 71
0 36 72
1 36 72
2 37 72
3 37 72
4 38 72
5 38 72
6 39 72
7 39 72
8 40 72
9 40 72
10 41 72
11 41 72
12 42 72
13 42 72
14 43 72
15 43 72
16 44 72
17 44 72
18 45 72
19 45 72
20 46 72
0 0 0
0 0 0
0 0 0
0 0 0
0 0 0
0 0 0
0 0 0
0 0 0
0 0 0
0 0 0
0 0 0
0 0 0
0 0 0
0 0 0
0 0 0
0 0 0
0 0 0
0 0 0
0 0 0
0 0 0
0 0 0
0 0 0
0 0 0
0 0 0
0 0 0
0 0 0
0 0 0
0 0 0
0 0 0
0 0 0
0 0 0
0 0 0
0 0 0
0 0 0
0 0 0
0 0 0
0 0 0
0 0 0
0 0 0
0 0 0
0 0 0
0 0 0
0 0 0
0 0 0
0 0 0
0 0 0
0 0 0
0 0 0
0 0 0
0 0 0
0 0 0
0 0 0
0 0 0
0 0 0
0 0 0
0 0 0
0 0 0
0 0 0
0 0 0
0 0 0
0 0 0
0 0 0
0 0 0
0 0 0
0 0 0
0 0 0
0 0 0
0 0 0
0 0 0
0 0 0
0 0 0
0 0 0
0 0 0
0 0 0
0 0 0
0 0 0
0 0 0
0 0 0
0 0 0
0 0 0
0 0 0
0 0 0
0 0 0
0 0 0
0 0 0
0 0 0
0 0 0
0 0 0
0 0 0
0 0 0
0 0 0
0 0 0
0 0 0
0 0 0
0 0 0
0 0 0
0 0 0
0 0 0
0 0 0
0 0 0
0 0 0
0 0 0
0 0 0
0 0 0
0 0 0
0 0 0
0 0 0
0 0 0
0 0 0
0 0 0
0 0 0
0 0 0
0 0 0
0 0 0
0 0 0
0 0 0
0 0 0
0 0 0
0 0 0
0 0 0
0 0 0
0 0 0
0 0 0
0 0 0
0 0 0
0 0 0
0 0 0
0 0 0
0 0 0
0 0 0
0 0 0
0 0 0
0 0 0
0 0 0
0 0 0
0 0 0
0 0 0
0 0 0
0 0 0
0 0 0
0 0 0
0 0 0
0 0 0
0 0 0
0 0 0
0 0 0
0 0 0
0 0 0
0 0 0
0 0 0
0 0 0
0 0 0
0 0 0
0 0 0
0 0 0
0 0 0
0 0 0
0 0 0
0 0 0
0 0 0
0 0 0
0 0 0
0 0 0
0 0 0
0 0 0
0 0 0
0 0 0
0 0 0
0 0 0
0 0 0
0 0 0
0 0 0
0 0 0
0 0 0
0 0 0
0 0 0
0 0 0
0 0 0
0 0 0
0 0 0
0 0 0
0 0 0
0 0 0
0 0 0
0 0 0
0 0 0
0 0 0
0 0 0
0 0 0
0 0 0
0 0 0
0 0 0
0 0 0
0 0 0
0 0 0
0 0 0
0 0 0
0 0 0
0 0 0
0 0 0
0 0 0
0 0 0
0 0 0
0 0 0
0 0 0
0 0 0
0 0 0
0 0 0
0 0 0
0 0 0
0 0 0
0 0 0
0 0 0
234 153 72
235 153 72
236 154 72
237 154 72
238 155 72
239 155 72
240 156 72
241 156 72
242 157 72
243 157 72
244 158 72
245 158 72
246 159 72
247 159 72
248 160 72
249 160 72
250 161 72
251 161 72
252 162 72
253 162 72
254 163 72
0 36 73
1 37 73
2 37 73
3 38 73
4 38 73
5 39 73
6 39 73
7 40 73
8 40 73
9 41 73
10 41 73
11 42 73
12 42 73
13 43 73
14 43 73
15 44 73
16 44 73
17 45 73
18 45 73
19 46 73
0 0 0
0 0 0
0 0 0
0 0 0
0 0 0
0 0 0
0 0 0
0 0 0
0 0 0
0 0 0
0 0 0
0 0 0
0 0 0
0 0 0
0 0 0
0 0 0
0 0 0
0 0 0
0 0 0
0 0 0
0 0 0
0 0 0
0 0 0
0 0 0
0 0 0
0 0 0
0 0 0
0 0 0
0 0 0
0 0 0
0 0 0
0 0 0
0 0 0
0 0 0
0 0 0
0 0 0
0 0 0
0 0 0
0 0 0
0 0 0
0 0 0
0 0 0
0 0 0
0 0 0
0 0 0
0 0 0
0 0 0
0 0 0
0 0 0
0 0 0
0 0 0
0 0 0
0 0 0
0 0 0
0 0 0
0 0 0
0 0 0
0 0 0
0 0 0
0 0 0
0 0 0
0 0 0
0 0 0
0 0 0
0 0 0
0 0 0
0 0 0
0 0 0
0 0 0
0 0 0
0 0 0
0 0 0
0 0 0
0 0 0
0 0 0
0 0 0
0 0 0
0 0 0
0 0 0
0 0 0
0 0 0
0 0 0
0 0 0
0 0 0
0 0 0
0 0 0
0 0 0
0 0 0
0 0 0
0 0 0
0 0 0
0 0 0
0 0 0
0 0 0
0 0 0
0 0 0
0 0 0
0 0 0
0 0 0
0 0 0
0 0 0
0 0 0
0 0 0
0 0 0
0 0 0
0 0 0
0 0 0
0 0 0
0 0 0
0 0 0
0 0 0
0 0 0
0 0 0
0 0 0
0 0 0
0 0 0
0 0 0
0 0 0
0 0 0
0 0 0
0 0 0
0 0 0
0 0 0
0 0 0
0 0 0
0 0 0
0 0 0
0 0 0
0 0 0
0 0 0
0 0 0
0 0 0
0 0 0
0 0 0
0 0 0
0 0 0
0 0 0
0 0 0
0 0 0
0 0 0
0 0 0
0 0 0
0 0 0
0 0 0
0 0 0
0 0 0
0 0 0
0 0 0
0 0 0
0 0 0
0 0 0
0 0 0
0 0 0
0 0 0
0 0 0
0 0 0
0 0 0
0 0 0
0 0 0
0 0 0
0 0 0
0 0 0
0 0 0
0 0 0
0 0 0
0 0 0
0 0 0
0 0 0
0 0 0
0 0 0
0 0 0
0 0 0
0 0 0
0 0 0
0 0 0
0 0 0
0 0 0
0 0 0
0 0 0
0 0 0
0 0 0
0 0 0
0 0 0
0 0 0
0 0 0
0 0 0
0 0 0
0 0 0
0 0 0
0 0 0
0 0 0
0 0 0
0 0 0
0 0 0
0 0 0
0 0 0
0 0 0
0 0 0
0 0 0
0 0 0
0 0 0
0 0 0
0 0 0
0 0 0
0 0 0
0 0 0
0 0 0
0 0 0
0 0 0
0 0 0
0 0 0
0 0 0
0 0 0
0 0 0
0 0 0
235 154 73
236 154 73
237 155 73
238 155 73
239 156 73
240 156 73
241 157 73
242 157 73
243 158 73
244 158 73
245 159 73
246 159 73
247 160 73
248 160 73
249 161 73
250 161 73
251 162 73
252 162 73
253 163 73
254 163 73
0 37 74
1 37 74
2 38 74
3 38 74
4 39 74
5 39 74
6 40 74
7 40 74
8 41 74
9 41 74
10 42 74
11 42 74
12 43 74
13 43 74
14 44 74
15 44 74
16 45 74
17 45 74
18 46 74
19 46 74
0 0 0
0 0 0
0 0 0
0 0 0
0 0 0
0 0 0
0 0 0
0 0 0
0 0 0
0 0 0
0 0 0
0 0 0
0 0 0
0 0 0
0 0 0
0 0 0
0 0 0
0 0 0
0 0 0
0 0 0
0 0 0
0 0 0
0 0 0
0 0 0
0 0 0
0 0 0
0 0 0
0 0 0
0 0 0
0 0 0
0 0 0
0 0 0
0 0 0
0 0 0
0 0 0
0 0 0
0 0 0
0 0 0
0 0 0
0 0 0
0 0 0
0 0 0
0 0 0
0 0 0
0 0 0
0 0 0
0 0 0
0 0 0
0 0 0
0 0 0
0 0 0
0 0 0
0 0 0
0 0 0
0 0 0
0 0 0
0 0 0
0 0 0
0 0 0
0 0 0
0 0 0
0 0 0
0 0 0
0 0 0
0 0 0
0 0 0
0 0 0
0 0 0
0 0 0
0 0 0
0 0 0
0 0 0
0 0 0
0 0 0
0 0 0
0 0 0
0 0 0
0 0 0
0 0 0
0 0 0
0 0 0
0 0 0
0 0 0
0 0 0
0 0 0
0 0 0
0 0 0
0 0 0
0 0 0
0 0 0
0 0 0
0 0 0
0 0 0
0 0 0
0 0 0
0 0 0
0 0 0
0 0 0
0 0 0
0 0 0
0 0 0
0 0 0
0 0 0
0 0 0
0 0 0
0 0 0
0 0 0
0 0 0
0 0 0
0 0 0
0 0 0
0 0 0
0 0 0
0 0 0
0 0 0
0 0 0
0 0 0
0 0 0
0 0 0
0 0 0
0 0 0
0 0 0
0 0 0
0 0 0
0 0 0
0 0 0
0 0 0
0 0 0
0 0 0
0 0 0
0 0 0
0 0 0
0 0 0
0 0 0
0 0 0
0 0 0
0 0 0
0 0 0
0 0 0
0 0 0
0 0 0
0 0 0
0 0 0
0 0 0
0 0 0
0 0 0
0 0 0
0 0 0
0 0 0
0 0 0
0 0 0
0 0 0
0 0 0
0 0 0
0 0 0
0 0 0
0 0 0
0 0 0
0 0 0
0 0 0
0 0 0
0 0 0
0 0 0
0 0 0
0 0 0
0 0 0
0 0 0
0 0 0
0 0 0
0 0 0
0 0 0
0 0 0
0 0 0
0 0 0
0 0 0
0 0 0
0 0 0
0 0 0
0 0 0
0 0 0
0 0 0
0 0 0
0 0 0
0 0 0
0 0 0
0 0 0
0 0 0
0 0 0
0 0 0
0 0 0
0 0 0
0 0 0
0 0 0
0 0 0
0 0 0
0 0 0
0 0 0
0 0 0
0 0 0
0 0 0
0 0 0
0 0 0
0 0 0
0 0 0
0 0 0
0 0 0
0 0 0
0 0 0
0 0 0
0 0 0
0 0 0
0 0 0
0 0 0
0 0 0
0 0 0
235 154 74
236 155 74
237 155 74
238 156 74
239 156 74
240 157 74
241 157 74
242 158 74
243 158 74
244 159 74
245 159 74
246 160 74
247 160 74
248 161 74
249 161 74
250 162 74
251 162 74
252 163 74
253 163 74
254 164 74
0 37 75
1 38 75
2 38 75
3 39 75
4 39 75
5 40 75
6 40 75
7 41 75
8 41 75
9 42 75
10 42 75
11 43 75
12 43 75
13 44 75
14 44 75
15 45 75
16 45 75
17 46 75
18 46 75
0 0 0
0 0 0
0 0 0
0 0 0
0 0 0
0 0 0
0 0 0
0 0 0
0 0 0
0 0 0
0 0 0
0 0 0
0 0 0
0 0 0
0 0 0
0 0 0
0 0 0
0 0 0
0 0 0
0 0 0
0 0 0
0 0 0
0 0 0
0 0 0
0 0 0
0 0 0
0 0 0
0 0 0
0 0 0
0 0 0
0 0 0
0 0 0
0 0 0
0 0 0
0 0 0
0 0 0
0 0 0
0 0 0
0 0 0
0 0 0
0 0 0
0 0 0
0 0 0
0 0 0
0 0 0
0 0 0
0 0 0
0 0 0
0 0 0
0 0 0
0 0 0
0 0 0
0 0 0
0 0 0
0 0 0
0 0 0
0 0 0
0 0 0
0 0 0
0 0 0
0 0 0
0 0 0
0 0 0
0 0 0
0 0 0
0 0 0
0 0 0
0 0 0
0 0 0
0 0 0
0 0 0
0 0 0
0 0 0
0 0 0
0 0 0
0 0 0
0 0 0
0 0 0
0 0 0
0 0 0
0 0 0
0 0 0
0 0 0
0 0 0
0 0 0
0 0 0
0 0 0
0 0 0
0 0 0
0 0 0
0 0 0
0 0 0
0 0 0
0 0 0
0 0 0
0 0 0
0 0 0
0 0 0
0 0 0
0 0 0
0 0 0
0 0 0
0 0 0
0 0 0
0 0 0
0 0 0
0 0 0
0 0 0
0 0 0
0 0 0
0 0 0
0 0 0
0 0 0
0 0 0
0 0 0
0 0 0
0 0 0
0 0 0
0 0 0
0 0 0
0 0 0
0 0 0
0 0 0
0 0 0
0 0 0
0 0 0
0 0 0
0 0 0
0 0 0
0 0 0
0 0 0
0 0 0
0 0 0
0 0 0
0 0 0
0 0 0
0 0 0
0 0 0
0 0 0
0 0 0
0 0 0
0 0 0
0 0 0
0 0 0
0 0 0
0 0 0
0 0 0
0 0 0
0 0 0
0 0 0
0 0 0
0 0 0
0 0 0
0 0 0
0 0 0
0 0 0
0 0 0
0 0 0
0 0 0
0 0 0
0 0 0
0 0 0
0 0 0
0 0 0
0 0 0
0 0 0
0 0 0
0 0 0
0 0 0
0 0 0
0 0 0
0 0 0
0 0 0
0 0 0
0 0 0
0 0 0
0 0 0
0 0 0
0 0 0
0 0 0
0 0 0
0 0 0
0 0 0
0 0 0
0 0 0
0 0 0
0 0 0
0 0 0
0 0 0
0 0 0
0 0 0
0 0 0
0 0 0
0 0 0
0 0 0
0 0 0
0 0 0
0 0 0
0 0 0
0 0 0
0 0 0
0 0 0
0 0 0
0 0 0
0 0 0
0 0 0
0 0 0
0 0 0
0 0 0
0 0 0
0 0 0
0 0 0
0 0 0
0 0 0
0 0 0
0 0 0
0 0 0
236 155 75
237 156 75
238 156 75
239 157 75
240 157 75
241 158 75
242 158 75
243 159 75
244 159 75
245 160 75
246 160 75
247 161 75
248 161 75
249 162 75
250 162 75
251 163 75
252 163 75
253 164 75
254 164 75
0 38 76
1 38 76
2 39 76
3 39 76
4 40 76
5 40 76
6 41 76
7 41 76
8 42 76
9 42 76
10 43 76
11 43 76
12 44 76
13 44 76
14 45 76
15 45 76
16 46 76
17 46 76
18 47 76
0 0 0
0 0 0
0 0 0
0 0 0
0 0 0
0 0 0
0 0 0
0 0 0
0 0 0
0 0 0
0 0 0
0 0 0
0 0 0
0 0 0
0 0 0
0 0 0
0 0 0
0 0 0
0 0 0
0 0 0
0 0 0
0 0 0
0 0 0
0 0 0
0 0 0
0 0 0
0 0 0
0 0 0
0 0 0
0 0 0
0 0 0
0 0 0
0 0 0
0 0 0
0 0 0
0 0 0
0 0 0
0 0 0
0 0 0
0 0 0
0 0 0
0 0 0
0 0 0
0 0 0
0 0 0
0 0 0
0 0 0
0 0 0
0 0 0
0 0 0
0 0 0
0 0 0
0 0 0
0 0 0
0 0 0
0 0 0
0 0 0
0 0 0
0 0 0
0 0 0
0 0 0
0 0 0
0 0 0
0 0 0
0 0 0
0 0 0
0 0 0
0 0 0
0 0 0
0 0 0
0 0 0
0 0 0
0 0 0
0 0 0
0 0 0
0 0 0
0 0 0
0 0 0
0 0 0
0 0 0
0 0 0
0 0 0
0 0 0
0 0 0
0 0 0
0 0 0
0 0 0
0 0 0
0 0 0
0 0 0
0 0 0
0 0 0
0 0 0
0 0 0
0 0 0
0 0 0
0 0 0
0 0 0
0 0 0
0 0 0
0 0 0
0 0 0
0 0 0
0 0 0
0 0 0
0 0 0
0 0 0
0 0 0
0 0 0
0 0 0
0 0 0
0 0 0
0 0 0
0 0 0
0 0 0
0 0 0
0 0 0
0 0 0
0 0 0
0 0 0
0 0 0
0 0 0
0 0 0
0 0 0
0 0 0
0 0 0
0 0 0
0 0 0
0 0 0
0 0 0
0 0 0
0 0 0
0 0 0
0 0 0
0 0 0
0 0 0
0 0 0
0 0 0
0 0 0
0 0 0
0 0 0
0 0 0
0 0 0
0 0 0
0 0 0
0 0 0
0 0 0
0 0 0
0 0 0
0 0 0
0 0 0
0 0 0
0 0 0
0 0 0
0 0 0
0 0 0
0 0 0
0 0 0
0 0 0
0 0 0
0 0 0
0 0 0
0 0 0
0 0 0
0 0 0
0 0 0
0 0 0
0 0 0
0 0 0
0 0 0
0 0 0
0 0 0
0 0 0
0 0 0
0 0 0
0 0 0
0 0 0
0 0 0
0 0 0
0 0 0
0 0 0
0 0 0
0 0 0
0 0 0
0 0 0
0 0 0
0 0 0
0 0 0
0 0 0
0 0 0
0 0 0
0 0 0
0 0 0
0 0 0
0 0 0
0 0 0
0 0 0
0 0 0
0 0 0
0 0 0
0 0 0
0 0 0
0 0 0
0 0 0
0 0 0
0 0 0
0 0 0
0 0 0
0 0 0
0 0 0
0 0 0
0 0 0
0 0 0
0 0 0
0 0 0
0 0 0
0 0 0
236 156 76
237 156 76
238 157 76
239 157 76
240 158 76
241 158 76
242 159 76
243 159 76
244 160 76
245 160 76
246 161 76
247 161 76
248 162 76
249 162 76
250 163 76
251 163 76
252 164 76
253 164 76
254 165 76
0 38 77
1 39 77
2 39 77
3 40 77
4 40 77
5 41 77
6 41 77
7 42 77
8 42 77
9 43 77
10 43 77
11 44 77
12 44 77
13 45 77
14 45 77
15 46 77
16 46 77
17 47 77
0 0 0
0 0 0
0 0 0
0 0 0
0 0 0
0 0 0
0 0 0
0 0 0
0 0 0
0 0 0
0 0 0
0 0 0
0 0 0
0 0 0
0 0 0
0 0 0
0 0 0
0 0 0
0 0 0
0 0 0
0 0 0
0 0 0
0 0 0
0 0 0
0 0 0
0 0 0
0 0 0
0 0 0
0 0 0
0 0 0
0 0 0
0 0 0
0 0 0
0 0 0
0 0 0
0 0 0
0 0 0
0 0 0
0 0 0
0 0 0
0 0 0
0 0 0
0 0 0
0 0 0
0 0 0
0 0 0
0 0 0
0 0 0
0 0 0
0 0 0
0 0 0
0 0 0
0 0 0
0 0 0
0 0 0
0 0 0
0 0 0
0 0 0
0 0 0
0 0 0
0 0 0
0 0 0
0 0 0
0 0 0
0 0 0
0 0 0
0 0 0
0 0 0
0 0 0
0 0 0
0 0 0
0 0 0
0 0 0
0 0 0
0 0 0
0 0 0
0 0 0
0 0 0
0 0 0
0 0 0
0 0 0
0 0 0
0 0 0
0 0 0
0 0 0
0 0 0
0 0 0
0 0 0
0 0 0
0 0 0
0 0 0
0 0 0
0 0 0
0 0 0
0 0 0
0 0 0
0 0 0
0 0 0
0 0 0
0 0 0
0 0 0
0 0 0
0 0 0
0 0 0
0 0 0
0 0 0
0 0 0
0 0 0
0 0 0
0 0 0
0 0 0
0 0 0
0 0 0
0 0 0
0 0 0
0 0 0
0 0 0
0 0 0
0 0 0
0 0 0
0 0 0
0 0 0
0 0 0
0 0 0
0 0 0
0 0 0
0 0 0
0 0 0
0 0 0
0 0 0
0 0 0
0 0 0
0 0 0
0 0 0
0 0 0
0 0 0
0 0 0
0 0 0
0 0 0
0 0 0
0 0 0
0 0 0
0 0 0
0 0 0
0 0 0
0 0 0
0 0 0
0 0 0
0 0 0
0 0 0
0 0 0
0 0 0
0 0 0
0 0 0
0 0 0
0 0 0
0 0 0
0 0 0
0 0 0
0 0 0
0 0 0
0 0 0
0 0 0
0 0 0
0 0 0
0 0 0
0 0 0
0 0 0
0 0 0
0 0 0
0 0 0
0 0 0
0 0 0
0 0 0
0 0 0
0 0 0
0 0 0
0 0 0
0 0 0
0 0 0
0 0 0
0 0 0
0 0 0
0 0 0
0 0 0
0 0 0
0 0 0
0 0 0
0 0 0
0 0 0
0 0 0
0 0 0
0 0 0
0 0 0
0 0 0
0 0 0
0 0 0
0 0 0
0 0 0
0 0 0
0 0 0
0 0 0
0 0 0
0 0 0
0 0 0
0 0 0
0 0 0
0 0 0
0 0 0
0 0 0
0 0 0
0 0 0
0 0 0
0 0 0
0 0 0
0 0 0
0 0 0
0 0 0
0 0 0
237 157 77
238 157 77
239 158 77
240 158 77
241 159 77
242 159 77
243 160 77
244 160 77
245 161 77
246 161 77
247 162 77
248 162 77
249 163 77
250 163 77
251 164 77
252 164 77
253 165 77
254 165 77
0 39 78
1 39 78
2 40 78
3 40 78
4 41 78
5 41 78
6 42 78
7 42 78
8 43 78
9 43 78
10 44 78
11 44 78
12 45 78
13 45 78
14 46 78
15 46 78
16 47 78
17 47 78
0 0 0
0 0 0
0 0 0
0 0 0
0 0 0
0 0 0
0 0 0
0 0 0
0 0 0
0 0 0
0 0 0
0 0 0
0 0 0
0 0 0
0 0 0
0 0 0
0 0 0
0 0 0
0 0 0
0 0 0
0 0 0
0 0 0
0 0 0
0 0 0
0 0 0
0 0 0
0 0 0
0 0 0
0 0 0
0 0 0
0 0 0
0 0 0
0 0 0
0 0 0
0 0 0
0 0 0
0 0 0
0 0 0
0 0 0
0 0 0
0 0 0
0 0 0
0 0 0
0 0 0
0 0 0
0 0 0
0 0 0
0 0 0
0 0 0
0 0 0
0 0 0
0 0 0
0 0 0
0 0 0
0 0 0
0 0 0
0 0 0
0 0 0
0 0 0
0 0 0
0 0 0
0 0 0
0 0 0
0 0 0
0 0 0
0 0 0
0 0 0
0 0 0
0 0 0
0 0 0
0 0 0
0 0 0
0 0 0
0 0 0
0 0 0
0 0 0
0 0 0
0 0 0
0 0 0
0 0 0
0 0 0
0 0 0
0 0 0
0 0 0
0 0 0
0 0 0
0 0 0
0 0 0
0 0 0
0 0 0
0 0 0
0 0 0
0 0 0
0 0 0
0 0 0
0 0 0
0 0 0
0 0 0
0 0 0
0 0 0
0 0 0
0 0 0
0 0 0
0 0 0
0 0 0
0 0 0
0 0 0
0 0 0
0 0 0
0 0 0
0 0 0
0 0 0
0 0 0
0 0 0
0 0 0
0 0 0
0 0 0
0 0 0
0 0 0
0 0 0
0 0 0
0 0 0
0 0 0
0 0 0
0 0 0
0 0 0
0 0 0
0 0 0
0 0 0
0 0 0
0 0 0
0 0 0
0 0 0
0 0 0
0 0 0
0 0 0
0 0 0
0 0 0
0 0 0
0 0 0
0 0 0
0 0 0
0 0 0
0 0 0
0 0 0
0 0 0
0 0 0
0 0 0
0 0 0
0 0 0
0 0 0
0 0 0
0 0 0
0 0 0
0 0 0
0 0 0
0 0 0
0 0 0
0 0 0
0 0 0
0 0 0
0 0 0
0 0 0
0 0 0
0 0 0
0 0 0
0 0 0
0 0 0
0 0 0
0 0 0
0 0 0
0 0 0
0 0 0
0 0 0
0 0 0
0 0 0
0 0 0
0 0 0
0 0 0
0 0 0
0 0 0
0 0 0
0 0 0
0 0 0
0 0 0
0 0 0
0 0 0
0 0 0
0 0 0
0 0 0
0 0 0
0 0 0
0 0 0
0 0 0
0 0 0
0 0 0
0 0 0
0 0 0
0 0 0
0 0 0
0 0 0
0 0 0
0 0 0
0 0 0
0 0 0
0 0 0
0 0 0
0 0 0
0 0 0
0 0 0
0 0 0
0 0 0
0 0 0
0 0 0
0 0 0
0 0 0
0 0 0
0 0 0
0 0 0
237 157 78
238 158 78
239 158 78
240 159 78
241 159 78
242 160 78
243 160 78
244 161 78
245 161 78
246 162 78
247 162 78
248 163 78
249 163 78
250 164 78
251 164 78
252 165 78
253 165 78
254 166 78
0 39 79
1 40 79
2 40 79
3 41 79
4 41 79
5 42 79
6 42 79
7 43 79
8 43 79
9 44 79
10 44 79
11 45 79
12 45 79
13 46 79
14 46 79
15 47 79
16 47 79
17 48 79
0 0 0
0 0 0
0 0 0
0 0 0
0 0 0
0 0 0
0 0 0
0 0 0
0 0 0
0 0 0
0 0 0
0 0 0
0 0 0
0 0 0
0 0 0
0 0 0
0 0 0
0 0 0
0 0 0
0 0 0
0 0 0
0 0 0
0 0 0
0 0 0
0 0 0
0 0 0
0 0 0
0 0 0
0 0 0
0 0 0
0 0 0
0 0 0
0 0 0
0 0 0
0 0 0
0 0 0
0 0 0
0 0 0
0 0 0
0 0 0
0 0 0
0 0 0
0 0 0
0 0 0
0 0 0
0 0 0
0 0 0
0 0 0
0 0 0
0 0 0
0 0 0
0 0 0
0 0 0
0 0 0
0 0 0
0 0 0
0 0 0
0 0 0
0 0 0
0 0 0
0 0 0
0 0 0
0 0 0
0 0 0
0 0 0
0 0 0
0 0 0
0 0 0
0 0 0
0 0 0
0 0 0
0 0 0
0 0 0
0 0 0
0 0 0
0 0 0
0 0 0
0 0 0
0 0 0
0 0 0
0 0 0
0 0 0
0 0 0
0 0 0
0 0 0
0 0 0
0 0 0
0 0 0
0 0 0
0 0 0
0 0 0
0 0 0
0 0 0
0 0 0
0 0 0
0 0 0
0 0 0
0 0 0
0 0 0
0 0 0
0 0 0
0 0 0
0 0 0
0 0 0
0 0 0
0 0 0
0 0 0
0 0 0
0 0 0
0 0 0
0 0 0
0 0 0
0 0 0
0 0 0
0 0 0
0 0 0
0 0 0
0 0 0
0 0 0
0 0 0
0 0 0
0 0 0
0 0 0
0 0 0
0 0 0
0 0 0
0 0 0
0 0 0
0 0 0
0 0 0
0 0 0
0 0 0
0 0 0
0 0 0
0 0 0
0 0 0
0 0 0
0 0 0
0 0 0
0 0 0
0 0 0
0 0 0
0 0 0
0 0 0
0 0 0
0 0 0
0 0 0
0 0 0
0 0 0
0 0 0
0 0 0
0 0 0
0 0 0
0 0 0
0 0 0
0 0 0
0 0 0
0 0 0
0 0 0
0 0 0
0 0 0
0 0 0
0 0 0
0 0 0
0 0 0
0 0 0
0 0 0
0 0 0
0 0 0
0 0 0
0 0 0
0 0 0
0 0 0
0 0 0
0 0 0
0 0 0
0 0 0
0 0 0
0 0 0
0 0 0
0 0 0
0 0 0
0 0 0
0 0 0
0 0 0
0 0 0
0 0 0
0 0 0
0 0 0
0 0 0
0 0 0
0 0 0
0 0 0
0 0 0
0 0 0
0 0 0
0 0 0
0 0 0
0 0 0
0 0 0
0 0 0
0 0 0
0 0 0
0 0 0
0 0 0
0 0 0
0 0 0
0 0 0
0 0 0
0 0 0
0 0 0
0 0 0
0 0 0
0 0 0
0 0 0
0 0 0
0 0 0
0 0 0
0 0 0
237 158 79
238 158 79
239 159 79
240 159 79
241 160 79
242 160 79
243 161 79
244 161 79
245 162 79
246 162 79
247 163 79
248 163 79
249 164 79
250 164 79
251 165 79
252 165 79
253 166 79
254 166 79
0 40 80
1 40 80
2 41 80
3 41 80
4 42 80
5 42 80
6 43 80
7 43 80
8 44 80
9 44 80
10 45 80
11 45 80
12 46 80
13 46 80
14 47 80
15 47 80
16 48 80
0 0 0
0 0 0
0 0 0
0 0 0
0 0 0
0 0 0
0 0 0
0 0 0
0 0 0
0 0 0
0 0 0
0 0 0
0 0 0
0 0 0
0 0 0
0 0 0
0 0 0
0 0 0
0 0 0
0 0 0
0 0 0
0 0 0
0 0 0
0 0 0
0 0 0
0 0 0
0 0 0
0 0 0
0 0 0
0 0 0
0 0 0
0 0 0
0 0 0
0 0 0
0 0 0
0 0 0
0 0 0
0 0 0
0 0 0
0 0 0
0 0 0
0 0 0
0 0 0
0 0 0
0 0 0
0 0 0
0 0 0
0 0 0
0 0 0
0 0 0
0 0 0
0 0 0
0 0 0
0 0 0
0 0 0
0 0 0
0 0 0
0 0 0
0 0 0
0 0 0
0 0 0
0 0 0
0 0 0
0 0 0
0 0 0
0 0 0
0 0 0
0 0 0
0 0 0
0 0 0
0 0 0
0 0 0
0 0 0
0 0 0
0 0 0
0 0 0
0 0 0
0 0 0
0 0 0
0 0 0
0 0 0
0 0 0
0 0 0
0 0 0
0 0 0
0 0 0
0 0 0
0 0 0
0 0 0
0 0 0
0 0 0
0 0 0
0 0 0
0 0 0
0 0 0
0 0 0
0 0 0
0 0 0
0 0 0
0 0 0
0 0 0
0 0 0
0 0 0
0 0 0
0 0 0
0 0 0
0 0 0
0 0 0
0 0 0
0 0 0
0 0 0
0 0 0
0 0 0
0 0 0
0 0 0
0 0 0
0 0 0
0 0 0
0 0 0
0 0 0
0 0 0
0 0 0
0 0 0
0 0 0
0 0 0
0 0 0
0 0 0
0 0 0
0 0 0
0 0 0
0 0 0
0 0 0
0 0 0
0 0 0
0 0 0
0 0 0
0 0 0
0 0 0
0 0 0
0 0 0
0 0 0
0 0 0
0 0 0
0 0 0
0 0 0
0 0 0
0 0 0
0 0 0
0 0 0
0 0 0
0 0 0
0 0 0
0 0 0
0 0 0
0 0 0
0 0 0
0 0 0
0 0 0
0 0 0
0 0 0
0 0 0
0 0 0
0 0 0
0 0 0
0 0 0
0 0 0
0 0 0
0 0 0
0 0 0
0 0 0
0 0 0
0 0 0
0 0 0
0 0 0
0 0 0
0 0 0
0 0 0
0 0 0
0 0 0
0 0 0
0 0 0
0 0 0
0 0 0
0 0 0
0 0 0
0 0 0
0 0 0
0 0 0
0 0 0
0 0 0
0 0 0
0 0 0
0 0 0
0 0 0
0 0 0
0 0 0
0 0 0
0 0 0
0 0 0
0 0 0
0 0 0
0 0 0
0 0 0
0 0 0
0 0 0
0 0 0
0 0 0
0 0 0
0 0 0
0 0 0
0 0 0
0 0 0
0 0 0
0 0 0
0 0 0
0 0 0
0 0 0
0 0 0
0 0 0
0 0 0
0 0 0
238 159 80
239 159 80
240 160 80
241 160 80
242 161 80
243 161 80
244 162 80
245 162 80
246 163 80
247 163 80
248 164 80
249 164 80
250 165 80
251 165 80
252 166 80
253 166 80
254 167 80
0 40 81
1 41 81
2 41 81
3 42 81
4 42 81
5 43 81
6 43 81
7 44 81
8 44 81
9 45 81
10 45 81
11 46 81
12 46 81
13 47 81
14 47 81
15 48 81
16 48 81
0 0 0
0 0 0
0 0 0
0 0 0
0 0 0
0 0 0
0 0 0
0 0 0
0 0 0
0 0 0
0 0 0
0 0 0
0 0 0
0 0 0
0 0 0
0 0 0
0 0 0
0 0 0
0 0 0
0 0 0
0 0 0
0 0 0
0 0 0
0 0 0
0 0 0
0 0 0
0 0 0
0 0 0
0 0 0
0 0 0
0 0 0
0 0 0
0 0 0
0 0 0
0 0 0
0 0 0
0 0 0
0 0 0
0 0 0
0 0 0
0 0 0
0 0 0
0 0 0
0 0 0
0 0 0
0 0 0
0 0 0
0 0 0
0 0 0
0 0 0
0 0 0
0 0 0
0 0 0
0 0 0
0 0 0
0 0 0
0 0 0
0 0 0
0 0 0
0 0 0
0 0 0
0 0 0
0 0 0
0 0 0
0 0 0
0 0 0
0 0 0
0 0 0
0 0 0
0 0 0
0 0 0
0 0 0
0 0 0
0 0 0
0 0 0
0 0 0
0 0 0
0 0 0
0 0 0
0 0 0
0 0 0
0 0 0
0 0 0
0 0 0
0 0 0
0 0 0
0 0 0
0 0 0
0 0 0
0 0 0
0 0 0
0 0 0
0 0 0
0 0 0
0 0 0
0 0 0
0 0 0
0 0 0
0 0 0
0 0 0
0 0 0
0 0 0
0 0 0
0 0 0
0 0 0
0 0 0
0 0 0
0 0 0
0 0 0
0 0 0
0 0 0
0 0 0
0 0 0
0 0 0
0 0 0
0 0 0
0 0 0
0 0 0
0 0 0
0 0 0
0 0 0
0 0 0
0 0 0
0 0 0
0 0 0
0 0 0
0 0 0
0 0 0
0 0 0
0 0 0
0 0 0
0 0 0
0 0 0
0 0 0
0 0 0
0 0 0
0 0 0
0 0 0
0 0 0
0 0 0
0 0 0
0 0 0
0 0 0
0 0 0
0 0 0
0 0 0
0 0 0
0 0 0
0 0 0
0 0 0
0 0 0
0 0 0
0 0 0
0 0 0
0 0 0
0 0 0
0 0 0
0 0 0
0 0 0
0 0 0
0 0 0
0 0 0
0 0 0
0 0 0
0 0 0
0 0 0
0 0 0
0 0 0
0 0 0
0 0 0
0 0 0
0 0 0
0 0 0
0 0 0
0 0 0
0 0 0
0 0 0
0 0 0
0 0 0
0 0 0
0 0 0
0 0 0
0 0 0
0 0 0
0 0 0
0 0 0
0 0 0
0 0 0
0 0 0
0 0 0
0 0 0
0 0 0
0 0 0
0 0 0
0 0 0
0 0 0
0 0 0
0 0 0
0 0 0
0 0 0
0 0 0
0 0 0
0 0 0
0 0 0
0 0 0
0 0 0
0 0 0
0 0 0
0 0 0
0 0 0
0 0 0
0 0 0
0 0 0
0 0 0
0 0 0
0 0 0
0 0 0
0 0 0
0 0 0
0 0 0
0 0 0
238 159 81
239 160 81
240 160 81
241 161 81
242 161 81
243 162 81
244 162 81
245 163 81
246 163 81
247 164 81
248 164 81
249 165 81
250 165 81
251 166 81
252 166 81
253 167 81
254 167 81
0 41 82
1 41 82
2 42 82
3 42 82
4 43 82
5 43 82
6 44 82
7 44 82
8 45 82
9 45 82
10 46 82
11 46 82
12 47 82
13 47 82
14 48 82
15 48 82
0 0 0
0 0 0
0 0 0
0 0 0
0 0 0
0 0 0
0 0 0
0 0 0
0 0 0
0 0 0
0 0 0
0 0 0
0 0 0
0 0 0
0 0 0
0 0 0
0 0 0
0 0 0
0 0 0
0 0 0
0 0 0
0 0 0
0 0 0
0 0 0
0 0 0
0 0 0
0 0 0
0 0 0
0 0 0
0 0 0
0 0 0
0 0 0
0 0 0
0 0 0
0 0 0
0 0 0
0 0 0
0 0 0
0 0 0
0 0 0
0 0 0
0 0 0
0 0 0
0 0 0
0 0 0
0 0 0
0 0 0
0 0 0
0 0 0
0 0 0
0 0 0
0 0 0
0 0 0
0 0 0
0 0 0
0 0 0
0 0 0
0 0 0
0 0 0
0 0 0
0 0 0
0 0 0
0 0 0
0 0 0
0 0 0
0 0 0
0 0 0
0 0 0
0 0 0
0 0 0
0 0 0
0 0 0
0 0 0
0 0 0
0 0 0
0 0 0
0 0 0
0 0 0
0 0 0
0 0 0
0 0 0
0 0 0
0 0 0
0 0 0
0 0 0
0 0 0
0 0 0
0 0 0
0 0 0
0 0 0
0 0 0
0 0 0
0 0 0
0 0 0
0 0 0
0 0 0
0 0 0
0 0 0
0 0 0
0 0 0
0 0 0
0 0 0
0 0 0
0 0 0
0 0 0
0 0 0
0 0 0
0 0 0
0 0 0
0 0 0
0 0 0
0 0 0
0 0 0
0 0 0
0 0 0
0 0 0
0 0 0
0 0 0
0 0 0
0 0 0
0 0 0
0 0 0
0 0 0
0 0 0
0 0 0
0 0 0
0 0 0
0 0 0
0 0 0
0 0 0
0 0 0
0 0 0
0 0 0
0 0 0
0 0 0
0 0 0
0 0 0
0 0 0
0 0 0
0 0 0
0 0 0
0 0 0
0 0 0
0 0 0
0 0 0
0 0 0
0 0 0
0 0 0
0 0 0
0 0 0
0 0 0
0 0 0
0 0 0
0 0 0
0 0 0
0 0 0
0 0 0
0 0 0
0 0 0
0 0 0
0 0 0
0 0 0
0 0 0
0 0 0
0 0 0
0 0 0
0 0 0
0 0 0
0 0 0
0 0 0
0 0 0
0 0 0
0 0 0
0 0 0
0 0 0
0 0 0
0 0 0
0 0 0
0 0 0
0 0 0
0 0 0
0 0 0
0 0 0
0 0 0
0 0 0
0 0 0
0 0 0
0 0 0
0 0 0
0 0 0
0 0 0
0 0 0
0 0 0
0 0 0
0 0 0
0 0 0
0 0 0
0 0 0
0 0 0
0 0 0
0 0 0
0 0 0
0 0 0
0 0 0
0 0 0
0 0 0
0 0 0
0 0 0
0 0 0
0 0 0
0 0 0
0 0 0
0 0 0
0 0 0
0 0 0
0 0 0
0 0 0
0 0 0
0 0 0
0 0 0
0 0 0
0 0 0
0 0 0
239 160 82
240 161 82
241 161 82
242 162 82
243 162 82
244 163 82
245 163 82
246 164 82
247 164 82
248 165 82
249 165 82
250 166 82
251 166 82
252 167 82
253 167 82
254 168 82
0 41 83
1 42 83
2 42 83
3 43 83
4 43 83
5 44 83
6 44 83
7 45 83
8 45 83
9 46 83
10 46 83
11 47 83
12 47 83
13 48 83
14 48 83
15 49 83
0 0 0
0 0 0
0 0 0
0 0 0
0 0 0
0 0 0
0 0 0
0 0 0
0 0 0
0 0 0
0 0 0
0 0 0
0 0 0
0 0 0
0 0 0
0 0 0
0 0 0
0 0 0
0 0 0
0 0 0
0 0 0
0 0 0
0 0 0
0 0 0
0 0 0
0 0 0
0 0 0
0 0 0
0 0 0
0 0 0
0 0 0
0 0 0
0 0 0
0 0 0
0 0 0
0 0 0
0 0 0
0 0 0
0 0 0
0 0 0
0 0 0
0 0 0
0 0 0
0 0 0
0 0 0
0 0 0
0 0 0
0 0 0
0 0 0
0 0 0
0 0 0
0 0 0
0 0 0
0 0 0
0 0 0
0 0 0
0 0 0
0 0 0
0 0 0
0 0 0
0 0 0
0 0 0
0 0 0
0 0 0
0 0 0
0 0 0
0 0 0
0 0 0
0 0 0
0 0 0
0 0 0
0 0 0
0 0 0
0 0 0
0 0 0
0 0 0
0 0 0
0 0 0
0 0 0
0 0 0
0 0 0
0 0 0
0 0 0
0 0 0
0 0 0
0 0 0
0 0 0
0 0 0
0 0 0
0 0 0
0 0 0
0 0 0
0 0 0
0 0 0
0 0 0
0 0 0
0 0 0
0 0 0
0 0 0
0 0 0
0 0 0
0 0 0
0 0 0
0 0 0
0 0 0
0 0 0
0 0 0
0 0 0
0 0 0
0 0 0
0 0 0
0 0 0
0 0 0
0 0 0
0 0 0
0 0 0
0 0 0
0 0 0
0 0 0
0 0 0
0 0 0
0 0 0
0 0 0
0 0 0
0 0 0
0 0 0
0 0 0
0 0 0
0 0 0
0 0 0
0 0 0
0 0 0
0 0 0
0 0 0
0 0 0
0 0 0
0 0 0
0 0 0
0 0 0
0 0 0
0 0 0
0 0 0
0 0 0
0 0 0
0 0 0
0 0 0
0 0 0
0 0 0
0 0 0
0 0 0
0 0 0
0 0 0
0 0 0
0 0 0
0 0 0
0 0 0
0 0 0
0 0 0
0 0 0
0 0 0
0 0 0
0 0 0
0 0 0
0 0 0
0 0 0
0 0 0
0 0 0
0 0 0
0 0 0
0 0 0
0 0 0
0 0 0
0 0 0
0 0 0
0 0 0
0 0 0
0 0 0
0 0 0
0 0 0
0 0 0
0 0 0
0 0 0
0 0 0
0 0 0
0 0 0
0 0 0
0 0 0
0 0 0
0 0 0
0 0 0
0 0 0
0 0 0
0 0 0
0 0 0
0 0 0
0 0 0
0 0 0
0 0 0
0 0 0
0 0 0
0 0 0
0 0 0
0 0 0
0 0 0
0 0 0
0 0 0
0 0 0
0 0 0
0 0 0
0 0 0
0 0 0
0 0 0
0 0 0
0 0 0
0 0 0
0 0 0
0 0 0
0 0 0
0 0 0
0 0 0
0 0 0
0 0 0
0 0 0
239 161 83
240 161 83
241 162 83
242 162 83
243 163 83
244 163 83
245 164 83
246 164 83
247 165 83
248 165 83
249 166 83
250 166 83
251 167 83
252 167 83
253 168 83
254 168 83
0 42 84
1 42 84
2 43 84
3 43 84
4 44 84
5 44 84
6 45 84
7 45 84
8 46 84
9 46 84
10 47 84
11 47 84
12 48 84
13 48 84
14 49 84
0 0 0
0 0 0
0 0 0
0 0 0
0 0 0
0 0 0
0 0 0
0 0 0
0 0 0
0 0 0
0 0 0
0 0 0
0 0 0
0 0 0
0 0 0
0 0 0
0 0 0
0 0 0
0 0 0
0 0 0
0 0 0
0 0 0
0 0 0
0 0 0
0 0 0
0 0 0
0 0 0
0 0 0
0 0 0
0 0 0
0 0 0
0 0 0
0 0 0
0 0 0
0 0 0
0 0 0
0 0 0
0 0 0
0 0 0
0 0 0
0 0 0
0 0 0
0 0 0
0 0 0
0 0 0
0 0 0
0 0 0
0 0 0
0 0 0
0 0 0
0 0 0
0 0 0
0 0 0
0 0 0
0 0 0
0 0 0
0 0 0
0 0 0
0 0 0
0 0 0
0 0 0
0 0 0
0 0 0
0 0 0
0 0 0
0 0 0
0 0 0
0 0 0
0 0 0
0 0 0
0 0 0
0 0 0
0 0 0
0 0 0
0 0 0
0 0 0
0 0 0
0 0 0
0 0 0
0 0 0
0 0 0
0 0 0
0 0 0
0 0 0
0 0 0
0 0 0
0 0 0
0 0 0
0 0 0
0 0 0
0 0 0
0 0 0
0 0 0
0 0 0
0 0 0
0 0 0
0 0 0
0 0 0
0 0 0
0 0 0
0 0 0
0 0 0
0 0 0
0 0 0
0 0 0
0 0 0
0 0 0
0 0 0
0 0 0
0 0 0
0 0 0
0 0 0
0 0 0
0 0 0
0 0 0
0 0 0
0 0 0
0 0 0
0 0 0
0 0 0
0 0 0
0 0 0
0 0 0
0 0 0
0 0 0
0 0 0
0 0 0
0 0 0
0 0 0
0 0 0
0 0 0
0 0 0
0 0 0
0 0 0
0 0 0
0 0 0
0 0 0
0 0 0
0 0 0
0 0 0
0 0 0
0 0 0
0 0 0
0 0 0
0 0 0
0 0 0
0 0 0
0 0 0
0 0 0
0 0 0
0 0 0
0 0 0
0 0 0
0 0 0
0 0 0
0 0 0
0 0 0
0 0 0
0 0 0
0 0 0
0 0 0
0 0 0
0 0 0
0 0 0
0 0 0
0 0 0
0 0 0
0 0 0
0 0 0
0 0 0
0 0 0
0 0 0
0 0 0
0 0 0
0 0 0
0 0 0
0 0 0
0 0 0
0 0 0
0 0 0
0 0 0
0 0 0
0 0 0
0 0 0
0 0 0
0 0 0
0 0 0
0 0 0
0 0 0
0 0 0
0 0 0
0 0 0
0 0 0
0 0 0
0 0 0
0 0 0
0 0 0
0 0 0
0 0 0
0 0 0
0 0 0
0 0 0
0 0 0
0 0 0
0 0 0
0 0 0
0 0 0
0 0 0
0 0 0
0 0 0
0 0 0
0 0 0
0 0 0
0 0 0
0 0 0
0 0 0
0 0 0
0 0 0
0 0 0
0 0 0
0 0 0
0 0 0
0 0 0
0 0 0
0 0 0
240 162 84
241 162 84
242 163 84
243 163 84
244 164 84
245 164 84
246 165 84
247 165 84
248 166 84
249 166 84
250 167 84
251 167 84
252 168 84
253 168 84
254 169 84
0 42 85
1 43 85
2 43 85
3 44 85
4 44 85
5 45 85
6 45 85
7 46 85
8 46 85
9 47 85
10 47 85
11 48 85
12 48 85
13 49 85
14 49 85
0 0 0
0 0 0
0 0 0
0 0 0
0 0 0
0 0 0
0 0 0
0 0 0
0 0 0
0 0 0
0 0 0
0 0 0
0 0 0
0 0 0
0 0 0
0 0 0
0 0 0
0 0 0
0 0 0
0 0 0
0 0 0
0 0 0
0 0 0
0 0 0
0 0 0
0 0 0
0 0 0
0 0 0
0 0 0
0 0 0
0 0 0
0 0 0
0 0 0
0 0 0
0 0 0
0 0 0
0 0 0
0 0 0
0 0 0
0 0 0
0 0 0
0 0 0
0 0 0
0 0 0
0 0 0
0 0 0
0 0 0
0 0 0
0 0 0
0 0 0
0 0 0
0 0 0
0 0 0
0 0 0
0 0 0
0 0 0
0 0 0
0 0 0
0 0 0
0 0 0
0 0 0
0 0 0
0 0 0
0 0 0
0 0 0
0 0 0
0 0 0
0 0 0
0 0 0
0 0 0
0 0 0
0 0 0
0 0 0
0 0 0
0 0 0
0 0 0
0 0 0
0 0 0
0 0 0
0 0 0
0 0 0
0 0 0
0 0 0
0 0 0
0 0 0
0 0 0
0 0 0
0 0 0
0 0 0
0 0 0
0 0 0
0 0 0
0 0 0
0 0 0
0 0 0
0 0 0
0 0 0
0 0 0
0 0 0
0 0 0
0 0 0
0 0 0
0 0 0
0 0 0
0 0 0
0 0 0
0 0 0
0 0 0
0 0 0
0 0 0
0 0 0
0 0 0
0 0 0
0 0 0
0 0 0
0 0 0
0 0 0
0 0 0
0 0 0
0 0 0
0 0 0
0 0 0
0 0 0
0 0 0
0 0 0
0 0 0
0 0 0
0 0 0
0 0 0
0 0 0
0 0 0
0 0 0
0 0 0
0 0 0
0 0 0
0 0 0
0 0 0
0 0 0
0 0 0
0 0 0
0 0 0
0 0 0
0 0 0
0 0 0
0 0 0
0 0 0
0 0 0
0 0 0
0 0 0
0 0 0
0 0 0
0 0 0
0 0 0
0 0 0
0 0 0
0 0 0
0 0 0
0 0 0
0 0 0
0 0 0
0 0 0
0 0 0
0 0 0
0 0 0
0 0 0
0 0 0
0 0 0
0 0 0
0 0 0
0 0 0
0 0 0
0 0 0
0 0 0
0 0 0
0 0 0
0 0 0
0 0 0
0 0 0
0 0 0
0 0 0
0 0 0
0 0 0
0 0 0
0 0 0
0 0 0
0 0 0
0 0 0
0 0 0
0 0 0
0 0 0
0 0 0
0 0 0
0 0 0
0 0 0
0 0 0
0 0 0
0 0 0
0 0 0
0 0 0
0 0 0
0 0 0
0 0 0
0 0 0
0 0 0
0 0 0
0 0 0
0 0 0
0 0 0
0 0 0
0 0 0
0 0 0
0 0 0
0 0 0
0 0 0
0 0 0
0 0 0
0 0 0
0 0 0
0 0 0
0 0 0
0 0 0
0 0 0
0 0 0
0 0 0
0 0 0
240 162 85
241 163 85
242 163 85
243 164 85
244 164 85
245 165 85
246 165 85
247 166 85
248 166 85
249 167 85
250 167 85
251 168 85
252 168 85
253 169 85
254 169 85
0 43 86
1 43 86
2 44 86
3 44 86
4 45 86
5 45 86
6 46 86
7 46 86
8 47 86
9 47 86
10 48 86
11 48 86
12 49 86
13 49 86
14 50 86
0 0 0
0 0 0
0 0 0
0 0 0
0 0 0
0 0 0
0 0 0
0 0 0
0 0 0
0 0 0
0 0 0
0 0 0
0 0 0
0 0 0
0 0 0
0 0 0
0 0 0
0 0 0
0 0 0
0 0 0
0 0 0
0 0 0
0 0 0
0 0 0
0 0 0
0 0 0
0 0 0
0 0 0
0 0 0
0 0 0
0 0 0
0 0 0
0 0 0
0 0 0
0 0 0
0 0 0
0 0 0
0 0 0
0 0 0
0 0 0
0 0 0
0 0 0
0 0 0
0 0 0
0 0 0
0 0 0
0 0 0
0 0 0
0 0 0
0 0 0
0 0 0
0 0 0
0 0 0
0 0 0
0 0 0
0 0 0
0 0 0
0 0 0
0 0 0
0 0 0
0 0 0
0 0 0
0 0 0
0 0 0
0 0 0
0 0 0
0 0 0
0 0 0
0 0 0
0 0 0
0 0 0
0 0 0
0 0 0
0 0 0
0 0 0
0 0 0
0 0 0
0 0 0
0 0 0
0 0 0
0 0 0
0 0 0
0 0 0
0 0 0
0 0 0
0 0 0
0 0 0
0 0 0
0 0 0
0 0 0
0 0 0
0 0 0
0 0 0
0 0 0
0 0 0
0 0 0
0 0 0
0 0 0
0 0 0
0 0 0
0 0 0
0 0 0
0 0 0
0 0 0
0 0 0
0 0 0
0 0 0
0 0 0
0 0 0
0 0 0
0 0 0
0 0 0
0 0 0
0 0 0
0 0 0
0 0 0
0 0 0
0 0 0
0 0 0
0 0 0
0 0 0
0 0 0
0 0 0
0 0 0
0 0 0
0 0 0
0 0 0
0 0 0
0 0 0
0 0 0
0 0 0
0 0 0
0 0 0
0 0 0
0 0 0
0 0 0
0 0 0
0 0 0
0 0 0
0 0 0
0 0 0
0 0 0
0 0 0
0 0 0
0 0 0
0 0 0
0 0 0
0 0 0
0 0 0
0 0 0
0 0 0
0 0 0
0 0 0
0 0 0
0 0 0
0 0 0
0 0 0
0 0 0
0 0 0
0 0 0
0 0 0
0 0 0
0 0 0
0 0 0
0 0 0
0 0 0
0 0 0
0 0 0
0 0 0
0 0 0
0 0 0
0 0 0
0 0 0
0 0 0
0 0 0
0 0 0
0 0 0
0 0 0
0 0 0
0 0 0
0 0 0
0 0 0
0 0 0
0 0 0
0 0 0
0 0 0
0 0 0
0 0 0
0 0 0
0 0 0
0 0 0
0 0 0
0 0 0
0 0 0
0 0 0
0 0 0
0 0 0
0 0 0
0 0 0
0 0 0
0 0 0
0 0 0
0 0 0
0 0 0
0 0 0
0 0 0
0 0 0
0 0 0
0 0 0
0 0 0
0 0 0
0 0 0
0 0 0
0 0 0
0 0 0
0 0 0
0 0 0
0 0 0
0 0 0
0 0 0
0 0 0
0 0 0
0 0 0
0 0 0
0 0 0
240 163 86
241 163 86
242 164 86
243 164 86
244 165 86
245 165 86
246 166 86
247 166 86
248 167 86
249 167 86
250 168 86
251 168 86
252 169 86
253 169 86
254 170 86
0 43 87
1 44 87
2 44 87
3 45 87
4 45 87
5 46 87
6 46 87
7 47 87
8 47 87
9 48 87
10 48 87
11 49 87
12 49 87
13 50 87
0 0 0
0 0 0
0 0 0
0 0 0
0 0 0
0 0 0
0 0 0
0 0 0
0 0 0
0 0 0
0 0 0
0 0 0
0 0 0
0 0 0
0 0 0
0 0 0
0 0 0
0 0 0
0 0 0
0 0 0
0 0 0
0 0 0
0 0 0
0 0 0
0 0 0
0 0 0
0 0 0
0 0 0
0 0 0
0 0 0
0 0 0
0 0 0
0 0 0
0 0 0
0 0 0
0 0 0
0 0 0
0 0 0
0 0 0
0 0 0
0 0 0
0 0 0
0 0 0
0 0 0
0 0 0
0 0 0
0 0 0
0 0 0
0 0 0
0 0 0
0 0 0
0 0 0
0 0 0
0 0 0
0 0 0
0 0 0
0 0 0
0 0 0
0 0 0
0 0 0
0 0 0
0 0 0
0 0 0
0 0 0
0 0 0
0 0 0
0 0 0
0 0 0
0 0 0
0 0 0
0 0 0
0 0 0
0 0 0
0 0 0
0 0 0
0 0 0
0 0 0
0 0 0
0 0 0
0 0 0
0 0 0
0 0 0
0 0 0
0 0 0
0 0 0
0 0 0
0 0 0
0 0 0
0 0 0
0 0 0
0 0 0
0 0 0
0 0 0
0 0 0
0 0 0
0 0 0
0 0 0
0 0 0
0 0 0
0 0 0
0 0 0
0 0 0
0 0 0
0 0 0
0 0 0
0 0 0
0 0 0
0 0 0
0 0 0
0 0 0
0 0 0
0 0 0
0 0 0
0 0 0
0 0 0
0 0 0
0 0 0
0 0 0
0 0 0
0 0 0
0 0 0
0 0 0
0 0 0
0 0 0
0 0 0
0 0 0
0 0 0
0 0 0
0 0 0
0 0 0
0 0 0
0 0 0
0 0 0
0 0 0
0 0 0
0 0 0
0 0 0
0 0 0
0 0 0
0 0 0
0 0 0
0 0 0
0 0 0
0 0 0
0 0 0
0 0 0
0 0 0
0 0 0
0 0 0
0 0 0
0 0 0
0 0 0
0 0 0
0 0 0
0 0 0
0 0 0
0 0 0
0 0 0
0 0 0
0 0 0
0 0 0
0 0 0
0 0 0
0 0 0
0 0 0
0 0 0
0 0 0
0 0 0
0 0 0
0 0 0
0 0 0
0 0 0
0 0 0
0 0 0
0 0 0
0 0 0
0 0 0
0 0 0
0 0 0
0 0 0
0 0 0
0 0 0
0 0 0
0 0 0
0 0 0
0 0 0
0 0 0
0 0 0
0 0 0
0 0 0
0 0 0
0 0 0
0 0 0
0 0 0
0 0 0
0 0 0
0 0 0
0 0 0
0 0 0
0 0 0
0 0 0
0 0 0
0 0 0
0 0 0
0 0 0
0 0 0
0 0 0
0 0 0
0 0 0
0 0 0
0 0 0
0 0 0
0 0 0
0 0 0
0 0 0
0 0 0
0 0 0
0 0 0
0 0 0
0 0 0
0 0 0
0 0 0
0 0 0
0 0 0
0 0 0
0 0 0
0 0 0
241 164 87
242 164 87
243 165 87
244 165 87
245 166 87
246 166 87
247 167 87
248 167 87
249 168 87
250 168 87
251 169 87
252 169 87
253 170 87
254 170 87
0 44 88
1 44 88
2 45 88
3 45 88
4 46 88
5 46 88
6 47 88
7 47 88
8 48 88
9 48 88
10 49 88
11 49 88
12 50 88
13 50 88
0 0 0
0 0 0
0 0 0
0 0 0
0 0 0
0 0 0
0 0 0
0 0 0
0 0 0
0 0 0
0 0 0
0 0 0
0 0 0
0 0 0
0 0 0
0 0 0
0 0 0
0 0 0
0 0 0
0 0 0
0 0 0
0 0 0
0 0 0
0 0 0
0 0 0
0 0 0
0 0 0
0 0 0
0 0 0
0 0 0
0 0 0
0 0 0
0 0 0
0 0 0
0 0 0
0 0 0
0 0 0
0 0 0
0 0 0
0 0 0
0 0 0
0 0 0
0 0 0
0 0 0
0 0 0
0 0 0
0 0 0
0 0 0
0 0 0
0 0 0
0 0 0
0 0 0
0 0 0
0 0 0
0 0 0
0 0 0
0 0 0
0 0 0
0 0 0
0 0 0
0 0 0
0 0 0
0 0 0
0 0 0
0 0 0
0 0 0
0 0 0
0 0 0
0 0 0
0 0 0
0 0 0
0 0 0
0 0 0
0 0 0
0 0 0
0 0 0
0 0 0
0 0 0
0 0 0
0 0 0
0 0 0
0 0 0
0 0 0
0 0 0
0 0 0
0 0 0
0 0 0
0 0 0
0 0 0
0 0 0
0 0 0
0 0 0
0 0 0
0 0 0
0 0 0
0 0 0
0 0 0
0 0 0
0 0 0
0 0 0
0 0 0
0 0 0
0 0 0
0 0 0
0 0 0
0 0 0
0 0 0
0 0 0
0 0 0
0 0 0
0 0 0
0 0 0
0 0 0
0 0 0
0 0 0
0 0 0
0 0 0
0 0 0
0 0 0
0 0 0
0 0 0
0 0 0
0 0 0
0 0 0
0 0 0
0 0 0
0 0 0
0 0 0
0 0 0
0 0 0
0 0 0
0 0 0
0 0 0
0 0 0
0 0 0
0 0 0
0 0 0
0 0 0
0 0 0
0 0 0
0 0 0
0 0 0
0 0 0
0 0 0
0 0 0
0 0 0
0 0 0
0 0 0
0 0 0
0 0 0
0 0 0
0 0 0
0 0 0
0 0 0
0 0 0
0 0 0
0 0 0
0 0 0
0 0 0
0 0 0
0 0 0
0 0 0
0 0 0
0 0 0
0 0 0
0 0 0
0 0 0
0 0 0
0 0 0
0 0 0
0 0 0
0 0 0
0 0 0
0 0 0
0 0 0
0 0 0
0 0 0
0 0 0
0 0 0
0 0 0
0 0 0
0 0 0
0 0 0
0 0 0
0 0 0
0 0 0
0 0 0
0 0 0
0 0 0
0 0 0
0 0 0
0 0 0
0 0 0
0 0 0
0 0 0
0 0 0
0 0 0
0 0 0
0 0 0
0 0 0
0 0 0
0 0 0
0 0 0
0 0 0
0 0 0
0 0 0
0 0 0
0 0 0
0 0 0
0 0 0
0 0 0
0 0 0
0 0 0
0 0 0
0 0 0
0 0 0
0 0 0
0 0 0
0 0 0
0 0 0
0 0 0
0 0 0
0 0 0
0 0 0
0 0 0
0 0 0
0 0 0
241 164 88
242 165 88
243 165 88
244 166 88
245 166 88
246 167 88
247 167 88
248 168 88
249 168 88
250 169 88
251 169 88
252 170 88
253 170 88
254 171 88
0 44 89
1 45 89
2 45 89
3 46 89
4 46 89
5 47 89
6 47 89
7 48 89
8 48 89
9 49 89
10 49 89
11 50 89
12 50 89
13 51 89
0 0 0
0 0 0
0 0 0
0 0 0
0 0 0
0 0 0
0 0 0
0 0 0
0 0 0
0 0 0
0 0 0
0 0 0
0 0 0
0 0 0
0 0 0
0 0 0
0 0 0
0 0 0
0 0 0
0 0 0
0 0 0
0 0 0
0 0 0
0 0 0
0 0 0
0 0 0
0 0 0
0 0 0
0 0 0
0 0 0
0 0 0
0 0 0
0 0 0
0 0 0
0 0 0
0 0 0
0 0 0
0 0 0
0 0 0
0 0 0
0 0 0
0 0 0
0 0 0
0 0 0
0 0 0
0 0 0
0 0 0
0 0 0
0 0 0
0 0 0
0 0 0
0 0 0
0 0 0
0 0 0
0 0 0
0 0 0
0 0 0
0 0 0
0 0 0
0 0 0
0 0 0
0 0 0
0 0 0
0 0 0
0 0 0
0 0 0
0 0 0
0 0 0
0 0 0
0 0 0
0 0 0
0 0 0
0 0 0
0 0 0
0 0 0
0 0 0
0 0 0
0 0 0
0 0 0
0 0 0
0 0 0
0 0 0
0 0 0
0 0 0
0 0 0
0 0 0
0 0 0
0 0 0
0 0 0
0 0 0
0 0 0
0 0 0
0 0 0
0 0 0
0 0 0
0 0 0
0 0 0
0 0 0
0 0 0
0 0 0
0 0 0
0 0 0
0 0 0
0 0 0
0 0 0
0 0 0
0 0 0
0 0 0
0 0 0
0 0 0
0 0 0
0 0 0
0 0 0
0 0 0
0 0 0
0 0 0
0 0 0
0 0 0
0 0 0
0 0 0
0 0 0
0 0 0
0 0 0
0 0 0
0 0 0
0 0 0
0 0 0
0 0 0
0 0 0
0 0 0
0 0 0
0 0 0
0 0 0
0 0 0
0 0 0
0 0 0
0 0 0
0 0 0
0 0 0
0 0 0
0 0 0
0 0 0
0 0 0
0 0 0
0 0 0
0 0 0
0 0 0
0 0 0
0 0 0
0 0 0
0 0 0
0 0 0
0 0 0
0 0 0
0 0 0
0 0 0
0 0 0
0 0 0
0 0 0
0 0 0
0 0 0
0 0 0
0 0 0
0 0 0
0 0 0
0 0 0
0 0 0
0 0 0
0 0 0
0 0 0
0 0 0
0 0 0
0 0 0
0 0 0
0 0 0
0 0 0
0 0 0
0 0 0
0 0 0
0 0 0
0 0 0
0 0 0
0 0 0
0 0 0
0 0 0
0 0 0
0 0 0
0 0 0
0 0 0
0 0 0
0 0 0
0 0 0
0 0 0
0 0 0
0 0 0
0 0 0
0 0 0
0 0 0
0 0 0
0 0 0
0 0 0
0 0 0
0 0 0
0 0 0
0 0 0
0 0 0
0 0 0
0 0 0
0 0 0
0 0 0
0 0 0
0 0 0
0 0 0
0 0 0
0 0 0
0 0 0
0 0 0
0 0 0
0 0 0
0 0 0
0 0 0
0 0 0
0 0 0
0 0 0
0 0 0
0 0 0
0 0 0
241 165 89
242 165 89
243 166 89
244 166 89
245 167 89
246 167 89
247 168 89
248 168 89
249 169 89
250 169 89
251 170 89
252 170 89
253 171 89
254 171 89
0 45 90
1 45 90
2 46 90
3 46 90
4 47 90
5 47 90
6 48 90
7 48 90
8 49 90
9 49 90
10 50 90
11 50 90
12 51 90
0 0 0
0 0 0
0 0 0
0 0 0
0 0 0
0 0 0
0 0 0
0 0 0
0 0 0
0 0 0
0 0 0
0 0 0
0 0 0
0 0 0
0 0 0
0 0 0
0 0 0
0 0 0
0 0 0
0 0 0
0 0 0
0 0 0
0 0 0
0 0 0
0 0 0
0 0 0
0 0 0
0 0 0
0 0 0
0 0 0
0 0 0
0 0 0
0 0 0
0 0 0
0 0 0
0 0 0
0 0 0
0 0 0
0 0 0
0 0 0
0 0 0
0 0 0
0 0 0
0 0 0
0 0 0
0 0 0
0 0 0
0 0 0
0 0 0
0 0 0
0 0 0
0 0 0
0 0 0
0 0 0
0 0 0
0 0 0
0 0 0
0 0 0
0 0 0
0 0 0
0 0 0
0 0 0
0 0 0
0 0 0
0 0 0
0 0 0
0 0 0
0 0 0
0 0 0
0 0 0
0 0 0
0 0 0
0 0 0
0 0 0
0 0 0
0 0 0
0 0 0
0 0 0
0 0 0
0 0 0
0 0 0
0 0 0
0 0 0
0 0 0
0 0 0
0 0 0
0 0 0
0 0 0
0 0 0
0 0 0
0 0 0
0 0 0
0 0 0
0 0 0
0 0 0
0 0 0
0 0 0
0 0 0
0 0 0
0 0 0
0 0 0
0 0 0
0 0 0
0 0 0
0 0 0
0 0 0
0 0 0
0 0 0
0 0 0
0 0 0
0 0 0
0 0 0
0 0 0
0 0 0
0 0 0
0 0 0
0 0 0
0 0 0
0 0 0
0 0 0
0 0 0
0 0 0
0 0 0
0 0 0
0 0 0
0 0 0
0 0 0
0 0 0
0 0 0
0 0 0
0 0 0
0 0 0
0 0 0
0 0 0
0 0 0
0 0 0
0 0 0
0 0 0
0 0 0
0 0 0
0 0 0
0 0 0
0 0 0
0 0 0
0 0 0
0 0 0
0 0 0
0 0 0
0 0 0
0 0 0
0 0 0
0 0 0
0 0 0
0 0 0
0 0 0
0 0 0
0 0 0
0 0 0
0 0 0
0 0 0
0 0 0
0 0 0
0 0 0
0 0 0
0 0 0
0 0 0
0 0 0
0 0 0
0 0 0
0 0 0
0 0 0
0 0 0
0 0 0
0 0 0
0 0 0
0 0 0
0 0 0
0 0 0
0 0 0
0 0 0
0 0 0
0 0 0
0 0 0
0 0 0
0 0 0
0 0 0
0 0 0
0 0 0
0 0 0
0 0 0
0 0 0
0 0 0
0 0 0
0 0 0
0 0 0
0 0 0
0 0 0
0 0 0
0 0 0
0 0 0
0 0 0
0 0 0
0 0 0
0 0 0
0 0 0
0 0 0
0 0 0
0 0 0
0 0 0
0 0 0
0 0 0
0 0 0
0 0 0
0 0 0
0 0 0
0 0 0
0 0 0
0 0 0
0 0 0
0 0 0
0 0 0
0 0 0
0 0 0
0 0 0
0 0 0
0 0 0
0 0 0
0 0 0
0 0 0
242 166 90
243 166 90
244 167 90
245 167 90
246 168 90
247 168 90
248 169 90
249 169 90
250 170 90
251 170 90
252 171 90
253 171 90
254 172 90
0 45 91
1 46 91
2 46 91
3 47 91
4 47 91
5 48 91
6 48 91
7 49 91
8 49 91
9 50 91
10 50 91
11 51 91
12 51 91
0 0 0
0 0 0
0 0 0
0 0 0
0 0 0
0 0 0
0 0 0
0 0 0
0 0 0
0 0 0
0 0 0
0 0 0
0 0 0
0 0 0
0 0 0
0 0 0
0 0 0
0 0 0
0 0 0
0 0 0
0 0 0
0 0 0
0 0 0
0 0 0
0 0 0
0 0 0
0 0 0
0 0 0
0 0 0
0 0 0
0 0 0
0 0 0
0 0 0
0 0 0
0 0 0
0 0 0
0 0 0
0 0 0
0 0 0
0 0 0
0 0 0
0 0 0
0 0 0
0 0 0
0 0 0
0 0 0
0 0 0
0 0 0
0 0 0
0 0 0
0 0 0
0 0 0
0 0 0
0 0 0
0 0 0
0 0 0
0 0 0
0 0 0
0 0 0
0 0 0
0 0 0
0 0 0
0 0 0
0 0 0
0 0 0
0 0 0
0 0 0
0 0 0
0 0 0
0 0 0
0 0 0
0 0 0
0 0 0
0 0 0
0 0 0
0 0 0
0 0 0
0 0 0
0 0 0
0 0 0
0 0 0
0 0 0
0 0 0
0 0 0
0 0 0
0 0 0
0 0 0
0 0 0
0 0 0
0 0 0
0 0 0
0 0 0
0 0 0
0 0 0
0 0 0
0 0 0
0 0 0
0 0 0
0 0 0
0 0 0
0 0 0
0 0 0
0 0 0
0 0 0
0 0 0
0 0 0
0 0 0
0 0 0
0 0 0
0 0 0
0 0 0
0 0 0
0 0 0
0 0 0
0 0 0
0 0 0
0 0 0
0 0 0
0 0 0
0 0 0
0 0 0
0 0 0
0 0 0
0 0 0
0 0 0
0 0 0
0 0 0
0 0 0
0 0 0
0 0 0
0 0 0
0 0 0
0 0 0
0 0 0
0 0 0
0 0 0
0 0 0
0 0 0
0 0 0
0 0 0
0 0 0
0 0 0
0 0 0
0 0 0
0 0 0
0 0 0
0 0 0
0 0 0
0 0 0
0 0 0
0 0 0
0 0 0
0 0 0
0 0 0
0 0 0
0 0 0
0 0 0
0 0 0
0 0 0
0 0 0
0 0 0
0 0 0
0 0 0
0 0 0
0 0 0
0 0 0
0 0 0
0 0 0
0 0 0
0 0 0
0 0 0
0 0 0
0 0 0
0 0 0
0 0 0
0 0 0
0 0 0
0 0 0
0 0 0
0 0 0
0 0 0
0 0 0
0 0 0
0 0 0
0 0 0
0 0 0
0 0 0
0 0 0
0 0 0
0 0 0
0 0 0
0 0 0
0 0 0
0 0 0
0 0 0
0 0 0
0 0 0
0 0 0
0 0 0
0 0 0
0 0 0
0 0 0
0 0 0
0 0 0
0 0 0
0 0 0
0 0 0
0 0 0
0 0 0
0 0 0
0 0 0
0 0 0
0 0 0
0 0 0
0 0 0
0 0 0
0 0 0
0 0 0
0 0 0
0 0 0
0 0 0
0 0 0
0 0 0
0 0 0
0 0 0
0 0 0
0 0 0
0 0 0
0 0 0
242 166 91
243 167 91
244 167 91
245 168 91
246 168 91
247 169 91
248 169 91
249 170 91
250 170 91
251 171 91
252 171 91
253 172 91
254 172 91
0 46 92
1 46 92
2 47 92
3 47 92
4 48 92
5 48 92
6 49 92
7 49 92
8 50 92
9 50 92
10 51 92
11 51 92
12 52 92
0 0 0
0 0 0
0 0 0
0 0 0
0 0 0
0 0 0
0 0 0
0 0 0
0 0 0
0 0 0
0 0 0
0 0 0
0 0 0
0 0 0
0 0 0
0 0 0
0 0 0
0 0 0
0 0 0
0 0 0
0 0 0
0 0 0
0 0 0
0 0 0
0 0 0
0 0 0
0 0 0
0 0 0
0 0 0
0 0 0
0 0 0
0 0 0
0 0 0
0 0 0
0 0 0
0 0 0
0 0 0
0 0 0
0 0 0
0 0 0
0 0 0
0 0 0
0 0 0
0 0 0
0 0 0
0 0 0
0 0 0
0 0 0
0 0 0
0 0 0
0 0 0
0 0 0
0 0 0
0 0 0
0 0 0
0 0 0
0 0 0
0 0 0
0 0 0
0 0 0
0 0 0
0 0 0
0 0 0
0 0 0
0 0 0
0 0 0
0 0 0
0 0 0
0 0 0
0 0 0
0 0 0
0 0 0
0 0 0
0 0 0
0 0 0
0 0 0
0 0 0
0 0 0
0 0 0
0 0 0
0 0 0
0 0 0
0 0 0
0 0 0
0 0 0
0 0 0
0 0 0
0 0 0
0 0 0
0 0 0
0 0 0
0 0 0
0 0 0
0 0 0
0 0 0
0 0 0
0 0 0
0 0 0
0 0 0
0 0 0
0 0 0
0 0 0
0 0 0
0 0 0
0 0 0
0 0 0
0 0 0
0 0 0
0 0 0
0 0 0
0 0 0
0 0 0
0 0 0
0 0 0
0 0 0
0 0 0
0 0 0
0 0 0
0 0 0
0 0 0
0 0 0
0 0 0
0 0 0
0 0 0
0 0 0
0 0 0
0 0 0
0 0 0
0 0 0
0 0 0
0 0 0
0 0 0
0 0 0
0 0 0
0 0 0
0 0 0
0 0 0
0 0 0
0 0 0
0 0 0
0 0 0
0 0 0
0 0 0
0 0 0
0 0 0
0 0 0
0 0 0
0 0 0
0 0 0
0 0 0
0 0 0
0 0 0
0 0 0
0 0 0
0 0 0
0 0 0
0 0 0
0 0 0
0 0 0
0 0 0
0 0 0
0 0 0
0 0 0
0 0 0
0 0 0
0 0 0
0 0 0
0 0 0
0 0 0
0 0 0
0 0 0
0 0 0
0 0 0
0 0 0
0 0 0
0 0 0
0 0 0
0 0 0
0 0 0
0 0 0
0 0 0
0 0 0
0 0 0
0 0 0
0 0 0
0 0 0
0 0 0
0 0 0
0 0 0
0 0 0
0 0 0
0 0 0
0 0 0
0 0 0
0 0 0
0 0 0
0 0 0
0 0 0
0 0 0
0 0 0
0 0 0
0 0 0
0 0 0
0 0 0
0 0 0
0 0 0
0 0 0
0 0 0
0 0 0
0 0 0
0 0 0
0 0 0
0 0 0
0 0 0
0 0 0
0 0 0
0 0 0
0 0 0
0 0 0
0 0 0
0 0 0
0 0 0
0 0 0
0 0 0
0 0 0
0 0 0
0 0 0
0 0 0
0 0 0
242 167 92
243 167 92
244 168 92
245 168 92
246 169 92
247 169 92
248 170 92
249 170 92
250 171 92
251 171 92
252 172 92
253 172 92
254 173 92
0 46 93
1 47 93
2 47 93
3 48 93
4 48 93
5 49 93
6 49 93
7 50 93
8 50 93
9 51 93
10 51 93
11 52 93
0 0 0
0 0 0
0 0 0
0 0 0
0 0 0
0 0 0
0 0 0
0 0 0
0 0 0
0 0 0
0 0 0
0 0 0
0 0 0
0 0 0
0 0 0
0 0 0
0 0 0
0 0 0
0 0 0
0 0 0
0 0 0
0 0 0
0 0 0
0 0 0
0 0 0
0 0 0
0 0 0
0 0 0
0 0 0
0 0 0
0 0 0
0 0 0
0 0 0
0 0 0
0 0 0
0 0 0
0 0 0
0 0 0
0 0 0
0 0 0
0 0 0
0 0 0
0 0 0
0 0 0
0 0 0
0 0 0
0 0 0
0 0 0
0 0 0
0 0 0
0 0 0
0 0 0
0 0 0
0 0 0
0 0 0
0 0 0
0 0 0
0 0 0
0 0 0
0 0 0
0 0 0
0 0 0
0 0 0
0 0 0
0 0 0
0 0 0
0 0 0
0 0 0
0 0 0
0 0 0
0 0 0
0 0 0
0 0 0
0 0 0
0 0 0
0 0 0
0 0 0
0 0 0
0 0 0
0 0 0
0 0 0
0 0 0
0 0 0
0 0 0
0 0 0
0 0 0
0 0 0
0 0 0
0 0 0
0 0 0
0 0 0
0 0 0
0 0 0
0 0 0
0 0 0
0 0 0
0 0 0
0 0 0
0 0 0
0 0 0
0 0 0
0 0 0
0 0 0
0 0 0
0 0 0
0 0 0
0 0 0
0 0 0
0 0 0
0 0 0
0 0 0
0 0 0
0 0 0
0 0 0
0 0 0
0 0 0
0 0 0
0 0 0
0 0 0
0 0 0
0 0 0
0 0 0
0 0 0
0 0 0
0 0 0
0 0 0
0 0 0
0 0 0
0 0 0
0 0 0
0 0 0
0 0 0
0 0 0
0 0 0
0 0 0
0 0 0
0 0 0
0 0 0
0 0 0
0 0 0
0 0 0
0 0 0
0 0 0
0 0 0
0 0 0
0 0 0
0 0 0
0 0 0
0 0 0
0 0 0
0 0 0
0 0 0
0 0 0
0 0 0
0 0 0
0 0 0
0 0 0
0 0 0
0 0 0
0 0 0
0 0 0
0 0 0
0 0 0
0 0 0
0 0 0
0 0 0
0 0 0
0 0 0
0 0 0
0 0 0
0 0 0
0 0 0
0 0 0
0 0 0
0 0 0
0 0 0
0 0 0
0 0 0
0 0 0
0 0 0
0 0 0
0 0 0
0 0 0
0 0 0
0 0 0
0 0 0
0 0 0
0 0 0
0 0 0
0 0 0
0 0 0
0 0 0
0 0 0
0 0 0
0 0 0
0 0 0
0 0 0
0 0 0
0 0 0
0 0 0
0 0 0
0 0 0
0 0 0
0 0 0
0 0 0
0 0 0
0 0 0
0 0 0
0 0 0
0 0 0
0 0 0
0 0 0
0 0 0
0 0 0
0 0 0
0 0 0
0 0 0
0 0 0
0 0 0
0 0 0
0 0 0
0 0 0
0 0 0
0 0 0
0 0 0
0 0 0
0 0 0
0 0 0
0 0 0
0 0 0
0 0 0
243 168 93
244 168 93
245 169 93
246 169 93
247 170 93
248 170 93
249 171 93
250 171 93
251 172 93
252 172 93
253 173 93
254 173 93
0 47 94
1 47 94
2 48 94
3 48 94
4 49 94
5 49 94
6 50 94
7 50 94
8 51 94
9 51 94
10 52 94
11 52 94
0 0 0
0 0 0
0 0 0
0 0 0
0 0 0
0 0 0
0 0 0
0 0 0
0 0 0
0 0 0
0 0 0
0 0 0
0 0 0
0 0 0
0 0 0
0 0 0
0 0 0
0 0 0
0 0 0
0 0 0
0 0 0
0 0 0
0 0 0
0 0 0
0 0 0
0 0 0
0 0 0
0 0 0
0 0 0
0 0 0
0 0 0
0 0 0
0 0 0
0 0 0
0 0 0
0 0 0
0 0 0
0 0 0
0 0 0
0 0 0
0 0 0
0 0 0
0 0 0
0 0 0
0 0 0
0 0 0
0 0 0
0 0 0
0 0 0
0 0 0
0 0 0
0 0 0
0 0 0
0 0 0
0 0 0
0 0 0
0 0 0
0 0 0
0 0 0
0 0 0
0 0 0
0 0 0
0 0 0
0 0 0
0 0 0
0 0 0
0 0 0
0 0 0
0 0 0
0 0 0
0 0 0
0 0 0
0 0 0
0 0 0
0 0 0
0 0 0
0 0 0
0 0 0
0 0 0
0 0 0
0 0 0
0 0 0
0 0 0
0 0 0
0 0 0
0 0 0
0 0 0
0 0 0
0 0 0
0 0 0
0 0 0
0 0 0
0 0 0
0 0 0
0 0 0
0 0 0
0 0 0
0 0 0
0 0 0
0 0 0
0 0 0
0 0 0
0 0 0
0 0 0
0 0 0
0 0 0
0 0 0
0 0 0
0 0 0
0 0 0
0 0 0
0 0 0
0 0 0
0 0 0
0 0 0
0 0 0
0 0 0
0 0 0
0 0 0
0 0 0
0 0 0
0 0 0
0 0 0
0 0 0
0 0 0
0 0 0
0 0 0
0 0 0
0 0 0
0 0 0
0 0 0
0 0 0
0 0 0
0 0 0
0 0 0
0 0 0
0 0 0
0 0 0
0 0 0
0 0 0
0 0 0
0 0 0
0 0 0
0 0 0
0 0 0
0 0 0
0 0 0
0 0 0
0 0 0
0 0 0
0 0 0
0 0 0
0 0 0
0 0 0
0 0 0
0 0 0
0 0 0
0 0 0
0 0 0
0 0 0
0 0 0
0 0 0
0 0 0
0 0 0
0 0 0
0 0 0
0 0 0
0 0 0
0 0 0
0 0 0
0 0 0
0 0 0
0 0 0
0 0 0
0 0 0
0 0 0
0 0 0
0 0 0
0 0 0
0 0 0
0 0 0
0 0 0
0 0 0
0 0 0
0 0 0
0 0 0
0 0 0
0 0 0
0 0 0
0 0 0
0 0 0
0 0 0
0 0 0
0 0 0
0 0 0
0 0 0
0 0 0
0 0 0
0 0 0
0 0 0
0 0 0
0 0 0
0 0 0
0 0 0
0 0 0
0 0 0
0 0 0
0 0 0
0 0 0
0 0 0
0 0 0
0 0 0
0 0 0
0 0 0
0 0 0
0 0 0
0 0 0
0 0 0
0 0 0
0 0 0
0 0 0
0 0 0
0 0 0
0 0 0
0 0 0
0 0 0
0 0 0
0 0 0
0 0 0
0 0 0
0 0 0
243 168 94
244 169 94
245 169 94
246 170 94
247 170 94
248 171 94
249 171 94
250 172 94
251 172 94
252 173 94
253 173 94
254 174 94
0 47 95
1 48 95
2 48 95
3 49 95
4 49 95
5 50 95
6 50 95
7 51 95
8 51 95
9 52 95
10 52 95
11 53 95
0 0 0
0 0 0
0 0 0
0 0 0
0 0 0
0 0 0
0 0 0
0 0 0
0 0 0
0 0 0
0 0 0
0 0 0
0 0 0
0 0 0
0 0 0
0 0 0
0 0 0
0 0 0
0 0 0
0 0 0
0 0 0
0 0 0
0 0 0
0 0 0
0 0 0
0 0 0
0 0 0
0 0 0
0 0 0
0 0 0
0 0 0
0 0 0
0 0 0
0 0 0
0 0 0
0 0 0
0 0 0
0 0 0
0 0 0
0 0 0
0 0 0
0 0 0
0 0 0
0 0 0
0 0 0
0 0 0
0 0 0
0 0 0
0 0 0
0 0 0
0 0 0
0 0 0
0 0 0
0 0 0
0 0 0
0 0 0
0 0 0
0 0 0
0 0 0
0 0 0
0 0 0
0 0 0
0 0 0
0 0 0
0 0 0
0 0 0
0 0 0
0 0 0
0 0 0
0 0 0
0 0 0
0 0 0
0 0 0
0 0 0
0 0 0
0 0 0
0 0 0
0 0 0
0 0 0
0 0 0
0 0 0
0 0 0
0 0 0
0 0 0
0 0 0
0 0 0
0 0 0
0 0 0
0 0 0
0 0 0
0 0 0
0 0 0
0 0 0
0 0 0
0 0 0
0 0 0
0 0 0
0 0 0
0 0 0
0 0 0
0 0 0
0 0 0
0 0 0
0 0 0
0 0 0
0 0 0
0 0 0
0 0 0
0 0 0
0 0 0
0 0 0
0 0 0
0 0 0
0 0 0
0 0 0
0 0 0
0 0 0
0 0 0
0 0 0
0 0 0
0 0 0
0 0 0
0 0 0
0 0 0
0 0 0
0 0 0
0 0 0
0 0 0
0 0 0
0 0 0
0 0 0
0 0 0
0 0 0
0 0 0
0 0 0
0 0 0
0 0 0
0 0 0
0 0 0
0 0 0
0 0 0
0 0 0
0 0 0
0 0 0
0 0 0
0 0 0
0 0 0
0 0 0
0 0 0
0 0 0
0 0 0
0 0 0
0 0 0
0 0 0
0 0 0
0 0 0
0 0 0
0 0 0
0 0 0
0 0 0
0 0 0
0 0 0
0 0 0
0 0 0
0 0 0
0 0 0
0 0 0
0 0 0
0 0 0
0 0 0
0 0 0
0 0 0
0 0 0
0 0 0
0 0 0
0 0 0
0 0 0
0 0 0
0 0 0
0 0 0
0 0 0
0 0 0
0 0 0
0 0 0
0 0 0
0 0 0
0 0 0
0 0 0
0 0 0
0 0 0
0 0 0
0 0 0
0 0 0
0 0 0
0 0 0
0 0 0
0 0 0
0 0 0
0 0 0
0 0 0
0 0 0
0 0 0
0 0 0
0 0 0
0 0 0
0 0 0
0 0 0
0 0 0
0 0 0
0 0 0
0 0 0
0 0 0
0 0 0
0 0 0
0 0 0
0 0 0
0 0 0
0 0 0
0 0 0
0 0 0
0 0 0
0 0 0
0 0 0
0 0 0
0 0 0
0 0 0
0 0 0
0 0 0
0 0 0
0 0 0
0 0 0
243 169 95
244 169 95
245 170 95
246 170 95
247 171 95
248 171 95
249 172 95
250 172 95
251 173 95
252 173 95
253 174 95
254 174 95
0 48 96
1 48 96
2 49 96
3 49 96
4 50 96
5 50 96
6 51 96
7 51 96
8 52 96
9 52 96
10 53 96
11 53 96
0 0 0
0 0 0
0 0 0
0 0 0
0 0 0
0 0 0
0 0 0
0 0 0
0 0 0
0 0 0
0 0 0
0 0 0
0 0 0
0 0 0
0 0 0
0 0 0
0 0 0
0 0 0
0 0 0
0 0 0
0 0 0
0 0 0
0 0 0
0 0 0
0 0 0
0 0 0
0 0 0
0 0 0
0 0 0
0 0 0
0 0 0
0 0 0
0 0 0
0 0 0
0 0 0
0 0 0
0 0 0
0 0 0
0 0 0
0 0 0
0 0 0
0 0 0
0 0 0
0 0 0
0 0 0
0 0 0
0 0 0
0 0 0
0 0 0
0 0 0
0 0 0
0 0 0
0 0 0
0 0 0
0 0 0
0 0 0
0 0 0
0 0 0
0 0 0
0 0 0
0 0 0
0 0 0
0 0 0
0 0 0
0 0 0
0 0 0
0 0 0
0 0 0
0 0 0
0 0 0
0 0 0
0 0 0
0 0 0
0 0 0
0 0 0
0 0 0
0 0 0
0 0 0
0 0 0
0 0 0
0 0 0
0 0 0
0 0 0
0 0 0
0 0 0
0 0 0
0 0 0
0 0 0
0 0 0
0 0 0
0 0 0
0 0 0
0 0 0
0 0 0
0 0 0
0 0 0
0 0 0
0 0 0
0 0 0
0 0 0
0 0 0
0 0 0
0 0 0
0 0 0
0 0 0
0 0 0
0 0 0
0 0 0
0 0 0
0 0 0
0 0 0
0 0 0
0 0 0
0 0 0
0 0 0
0 0 0
0 0 0
0 0 0
0 0 0
0 0 0
0 0 0
0 0 0
0 0 0
0 0 0
0 0 0
0 0 0
0 0 0
0 0 0
0 0 0
0 0 0
0 0 0
0 0 0
0 0 0
0 0 0
0 0 0
0 0 0
0 0 0
0 0 0
0 0 0
0 0 0
0 0 0
0 0 0
0 0 0
0 0 0
0 0 0
0 0 0
0 0 0
0 0 0
0 0 0
0 0 0
0 0 0
0 0 0
0 0 0
0 0 0
0 0 0
0 0 0
0 0 0
0 0 0
0 0 0
0 0 0
0 0 0
0 0 0
0 0 0
0 0 0
0 0 0
0 0 0
0 0 0
0 0 0
0 0 0
0 0 0
0 0 0
0 0 0
0 0 0
0 0 0
0 0 0
0 0 0
0 0 0
0 0 0
0 0 0
0 0 0
0 0 0
0 0 0
0 0 0
0 0 0
0 0 0
0 0 0
0 0 0
0 0 0
0 0 0
0 0 0
0 0 0
0 0 0
0 0 0
0 0 0
0 0 0
0 0 0
0 0 0
0 0 0
0 0 0
0 0 0
0 0 0
0 0 0
0 0 0
0 0 0
0 0 0
0 0 0
0 0 0
0 0 0
0 0 0
0 0 0
0 0 0
0 0 0
0 0 0
0 0 0
0 0 0
0 0 0
0 0 0
0 0 0
0 0 0
0 0 0
0 0 0
0 0 0
0 0 0
0 0 0
0 0 0
0 0 0
0 0 0
0 0 0
0 0 0
0 0 0
0 0 0
243 169 96
244 170 96
245 170 96
246 171 96
247 171 96
248 172 96
249 172 96
250 173 96
251 173 96
252 174 96
253 174 96
254 175 96
0 48 97
1 49 97
2 49 97
3 50 97
4 50 97
5 51 97
6 51 97
7 52 97
8 52 97
9 53 97
10 53 97
0 0 0
0 0 0
0 0 0
0 0 0
0 0 0
0 0 0
0 0 0
0 0 0
0 0 0
0 0 0
0 0 0
0 0 0
0 0 0
0 0 0
0 0 0
0 0 0
0 0 0
0 0 0
0 0 0
0 0 0
0 0 0
0 0 0
0 0 0
0 0 0
0 0 0
0 0 0
0 0 0
0 0 0
0 0 0
0 0 0
0 0 0
0 0 0
0 0 0
0 0 0
0 0 0
0 0 0
0 0 0
0 0 0
0 0 0
0 0 0
0 0 0
0 0 0
0 0 0
0 0 0
0 0 0
0 0 0
0 0 0
0 0 0
0 0 0
0 0 0
0 0 0
0 0 0
0 0 0
0 0 0
0 0 0
0 0 0
0 0 0
0 0 0
0 0 0
0 0 0
0 0 0
0 0 0
0 0 0
0 0 0
0 0 0
0 0 0
0 0 0
0 0 0
0 0 0
0 0 0
0 0 0
0 0 0
0 0 0
0 0 0
0 0 0
0 0 0
0 0 0
0 0 0
0 0 0
0 0 0
0 0 0
0 0 0
0 0 0
0 0 0
0 0 0
0 0 0
0 0 0
0 0 0
0 0 0
0 0 0
0 0 0
0 0 0
0 0 0
0 0 0
0 0 0
0 0 0
0 0 0
0 0 0
0 0 0
0 0 0
0 0 0
0 0 0
0 0 0
0 0 0
0 0 0
0 0 0
0 0 0
0 0 0
0 0 0
0 0 0
0 0 0
0 0 0
0 0 0
0 0 0
0 0 0
0 0 0
0 0 0
0 0 0
0 0 0
0 0 0
0 0 0
0 0 0
0 0 0
0 0 0
0 0 0
0 0 0
0 0 0
0 0 0
0 0 0
0 0 0
0 0 0
0 0 0
0 0 0
0 0 0
0 0 0
0 0 0
0 0 0
0 0 0
0 0 0
0 0 0
0 0 0
0 0 0
0 0 0
0 0 0
0 0 0
0 0 0
0 0 0
0 0 0
0 0 0
0 0 0
0 0 0
0 0 0
0 0 0
0 0 0
0 0 0
0 0 0
0 0 0
0 0 0
0 0 0
0 0 0
0 0 0
0 0 0
0 0 0
0 0 0
0 0 0
0 0 0
0 0 0
0 0 0
0 0 0
0 0 0
0 0 0
0 0 0
0 0 0
0 0 0
0 0 0
0 0 0
0 0 0
0 0 0
0 0 0
0 0 0
0 0 0
0 0 0
0 0 0
0 0 0
0 0 0
0 0 0
0 0 0
0 0 0
0 0 0
0 0 0
0 0 0
0 0 0
0 0 0
0 0 0
0 0 0
0 0 0
0 0 0
0 0 0
0 0 0
0 0 0
0 0 0
0 0 0
0 0 0
0 0 0
0 0 0
0 0 0
0 0 0
0 0 0
0 0 0
0 0 0
0 0 0
0 0 0
0 0 0
0 0 0
0 0 0
0 0 0
0 0 0
0 0 0
0 0 0
0 0 0
0 0 0
0 0 0
0 0 0
0 0 0
0 0 0
0 0 0
0 0 0
0 0 0
0 0 0
0 0 0
0 0 0
0 0 0
0 0 0
244 170 97
245 171 97
246 171 97
247 172 97
248 172 97
249 173 97
250 173 97
251 174 97
252 174 97
253 175 97
254 175 97
0 49 98
1 49 98
2 50 98
3 50 98
4 51 98
5 51 98
6 52 98
7 52 98
8 53 98
9 53 98
10 54 98
0 0 0
0 0 0
0 0 0
0 0 0
0 0 0
0 0 0
0 0 0
0 0 0
0 0 0
0 0 0
0 0 0
0 0 0
0 0 0
0 0 0
0 0 0
0 0 0
0 0 0
0 0 0
0 0 0
0 0 0
0 0 0
0 0 0
0 0 0
0 0 0
0 0 0
0 0 0
0 0 0
0 0 0
0 0 0
0 0 0
0 0 0
0 0 0
0 0 0
0 0 0
0 0 0
0 0 0
0 0 0
0 0 0
0 0 0
0 0 0
0 0 0
0 0 0
0 0 0
0 0 0
0 0 0
0 0 0
0 0 0
0 0 0
0 0 0
0 0 0
0 0 0
0 0 0
0 0 0
0 0 0
0 0 0
0 0 0
0 0 0
0 0 0
0 0 0
0 0 0
0 0 0
0 0 0
0 0 0
0 0 0
0 0 0
0 0 0
0 0 0
0 0 0
0 0 0
0 0 0
0 0 0
0 0 0
0 0 0
0 0 0
0 0 0
0 0 0
0 0 0
0 0 0
0 0 0
0 0 0
0 0 0
0 0 0
0 0 0
0 0 0
0 0 0
0 0 0
0 0 0
0 0 0
0 0 0
0 0 0
0 0 0
0 0 0
0 0 0
0 0 0
0 0 0
0 0 0
0 0 0
0 0 0
0 0 0
0 0 0
0 0 0
0 0 0
0 0 0
0 0 0
0 0 0
0 0 0
0 0 0
0 0 0
0 0 0
0 0 0
0 0 0
0 0 0
0 0 0
0 0 0
0 0 0
0 0 0
0 0 0
0 0 0
0 0 0
0 0 0
0 0 0
0 0 0
0 0 0
0 0 0
0 0 0
0 0 0
0 0 0
0 0 0
0 0 0
0 0 0
0 0 0
0 0 0
0 0 0
0 0 0
0 0 0
0 0 0
0 0 0
0 0 0
0 0 0
0 0 0
0 0 0
0 0 0
0 0 0
0 0 0
0 0 0
0 0 0
0 0 0
0 0 0
0 0 0
0 0 0
0 0 0
0 0 0
0 0 0
0 0 0
0 0 0
0 0 0
0 0 0
0 0 0
0 0 0
0 0 0
0 0 0
0 0 0
0 0 0
0 0 0
0 0 0
0 0 0
0 0 0
0 0 0
0 0 0
0 0 0
0 0 0
0 0 0
0 0 0
0 0 0
0 0 0
0 0 0
0 0 0
0 0 0
0 0 0
0 0 0
0 0 0
0 0 0
0 0 0
0 0 0
0 0 0
0 0 0
0 0 0
0 0 0
0 0 0
0 0 0
0 0 0
0 0 0
0 0 0
0 0 0
0 0 0
0 0 0
0 0 0
0 0 0
0 0 0
0 0 0
0 0 0
0 0 0
0 0 0
0 0 0
0 0 0
0 0 0
0 0 0
0 0 0
0 0 0
0 0 0
0 0 0
0 0 0
0 0 0
0 0 0
0 0 0
0 0 0
0 0 0
0 0 0
0 0 0
0 0 0
0 0 0
0 0 0
0 0 0
0 0 0
0 0 0
0 0 0
0 0 0
0 0 0
0 0 0
0 0 0
0 0 0
0 0 0
0 0 0
244 171 98
245 171 98
246 172 98
247 172 98
248 173 98
249 173 98
250 174 98
251 174 98
252 175 98
253 175 98
254 176 98
0 49 99
1 50 99
2 50 99
3 51 99
4 51 99
5 52 99
6 52 99
7 53 99
8 53 99
9 54 99
10 54 99
0 0 0
0 0 0
0 0 0
0 0 0
0 0 0
0 0 0
0 0 0
0 0 0
0 0 0
0 0 0
0 0 0
0 0 0
0 0 0
0 0 0
0 0 0
0 0 0
0 0 0
0 0 0
0 0 0
0 0 0
0 0 0
0 0 0
0 0 0
0 0 0
0 0 0
0 0 0
0 0 0
0 0 0
0 0 0
0 0 0
0 0 0
0 0 0
0 0 0
0 0 0
0 0 0
0 0 0
0 0 0
0 0 0
0 0 0
0 0 0
0 0 0
0 0 0
0 0 0
0 0 0
0 0 0
0 0 0
0 0 0
0 0 0
0 0 0
0 0 0
0 0 0
0 0 0
0 0 0
0 0 0
0 0 0
0 0 0
0 0 0
0 0 0
0 0 0
0 0 0
0 0 0
0 0 0
0 0 0
0 0 0
0 0 0
0 0 0
0 0 0
0 0 0
0 0 0
0 0 0
0 0 0
0 0 0
0 0 0
0 0 0
0 0 0
0 0 0
0 0 0
0 0 0
0 0 0
0 0 0
0 0 0
0 0 0
0 0 0
0 0 0
0 0 0
0 0 0
0 0 0
0 0 0
0 0 0
0 0 0
0 0 0
0 0 0
0 0 0
0 0 0
0 0 0
0 0 0
0 0 0
0 0 0
0 0 0
0 0 0
0 0 0
0 0 0
0 0 0
0 0 0
0 0 0
0 0 0
0 0 0
0 0 0
0 0 0
0 0 0
0 0 0
0 0 0
0 0 0
0 0 0
0 0 0
0 0 0
0 0 0
0 0 0
0 0 0
0 0 0
0 0 0
0 0 0
0 0 0
0 0 0
0 0 0
0 0 0
0 0 0
0 0 0
0 0 0
0 0 0
0 0 0
0 0 0
0 0 0
0 0 0
0 0 0
0 0 0
0 0 0
0 0 0
0 0 0
0 0 0
0 0 0
0 0 0
0 0 0
0 0 0
0 0 0
0 0 0
0 0 0
0 0 0
0 0 0
0 0 0
0 0 0
0 0 0
0 0 0
0 0 0
0 0 0
0 0 0
0 0 0
0 0 0
0 0 0
0 0 0
0 0 0
0 0 0
0 0 0
0 0 0
0 0 0
0 0 0
0 0 0
0 0 0
0 0 0
0 0 0
0 0 0
0 0 0
0 0 0
0 0 0
0 0 0
0 0 0
0 0 0
0 0 0
0 0 0
0 0 0
0 0 0
0 0 0
0 0 0
0 0 0
0 0 0
0 0 0
0 0 0
0 0 0
0 0 0
0 0 0
0 0 0
0 0 0
0 0 0
0 0 0
0 0 0
0 0 0
0 0 0
0 0 0
0 0 0
0 0 0
0 0 0
0 0 0
0 0 0
0 0 0
0 0 0
0 0 0
0 0 0
0 0 0
0 0 0
0 0 0
0 0 0
0 0 0
0 0 0
0 0 0
0 0 0
0 0 0
0 0 0
0 0 0
0 0 0
0 0 0
0 0 0
0 0 0
0 0 0
0 0 0
0 0 0
0 0 0
0 0 0
0 0 0
0 0 0
0 0 0
0 0 0
0 0 0
0 0 0
244 171 99
245 172 99
246 172 99
247 173 99
248 173 99
249 174 99
250 174 99
251 175 99
252 175 99
253 176 99
254 176 99
0 50 100
1 50 100
2 51 100
3 51 100
4 52 100
5 52 100
6 53 100
7 53 100
8 54 100
9 54 100
10 55 100
0 0 0
0 0 0
0 0 0
0 0 0
0 0 0
0 0 0
0 0 0
0 0 0
0 0 0
0 0 0
0 0 0
0 0 0
0 0 0
0 0 0
0 0 0
0 0 0
0 0 0
0 0 0
0 0 0
0 0 0
0 0 0
0 0 0
0 0 0
0 0 0
0 0 0
0 0 0
0 0 0
0 0 0
0 0 0
0 0 0
0 0 0
0 0 0
0 0 0
0 0 0
0 0 0
0 0 0
0 0 0
0 0 0
0 0 0
0 0 0
0 0 0
0 0 0
0 0 0
0 0 0
0 0 0
0 0 0
0 0 0
0 0 0
0 0 0
0 0 0
0 0 0
0 0 0
0 0 0
0 0 0
0 0 0
0 0 0
0 0 0
0 0 0
0 0 0
0 0 0
0 0 0
0 0 0
0 0 0
0 0 0
0 0 0
0 0 0
0 0 0
0 0 0
0 0 0
0 0 0
0 0 0
0 0 0
0 0 0
0 0 0
0 0 0
0 0 0
0 0 0
0 0 0
0 0 0
0 0 0
0 0 0
0 0 0
0 0 0
0 0 0
0 0 0
0 0 0
0 0 0
0 0 0
0 0 0
0 0 0
0 0 0
0 0 0
0 0 0
0 0 0
0 0 0
0 0 0
0 0 0
0 0 0
0 0 0
0 0 0
0 0 0
0 0 0
0 0 0
0 0 0
0 0 0
0 0 0
0 0 0
0 0 0
0 0 0
0 0 0
0 0 0
0 0 0
0 0 0
0 0 0
0 0 0
0 0 0
0 0 0
0 0 0
0 0 0
0 0 0
0 0 0
0 0 0
0 0 0
0 0 0
0 0 0
0 0 0
0 0 0
0 0 0
0 0 0
0 0 0
0 0 0
0 0 0
0 0 0
0 0 0
0 0 0
0 0 0
0 0 0
0 0 0
0 0 0
0 0 0
0 0 0
0 0 0
0 0 0
0 0 0
0 0 0
0 0 0
0 0 0
0 0 0
0 0 0
0 0 0
0 0 0
0 0 0
0 0 0
0 0 0
0 0 0
0 0 0
0 0 0
0 0 0
0 0 0
0 0 0
0 0 0
0 0 0
0 0 0
0 0 0
0 0 0
0 0 0
0 0 0
0 0 0
0 0 0
0 0 0
0 0 0
0 0 0
0 0 0
0 0 0
0 0 0
0 0 0
0 0 0
0 0 0
0 0 0
0 0 0
0 0 0
0 0 0
0 0 0
0 0 0
0 0 0
0 0 0
0 0 0
0 0 0
0 0 0
0 0 0
0 0 0
0 0 0
0 0 0
0 0 0
0 0 0
0 0 0
0 0 0
0 0 0
0 0 0
0 0 0
0 0 0
0 0 0
0 0 0
0 0 0
0 0 0
0 0 0
0 0 0
0 0 0
0 0 0
0 0 0
0 0 0
0 0 0
0 0 0
0 0 0
0 0 0
0 0 0
0 0 0
0 0 0
0 0 0
0 0 0
0 0 0
0 0 0
0 0 0
0 0 0
0 0 0
0 0 0
0 0 0
0 0 0
0 0 0
0 0 0
0 0 0
0 0 0
0 0 0
244 172 100
245 172 100
246 173 100
247 173 100
248 174 100
249 174 100
250 175 100
251 175 100
252 176 100
253 176 100
254 177 100
0 50 101
1 51 101
2 51 101
3 52 101
4 52 101
5 53 101
6 53 101
7 54 101
8 54 101
9 55 101
0 0 0
0 0 0
0 0 0
0 0 0
0 0 0
0 0 0
0 0 0
0 0 0
0 0 0
0 0 0
0 0 0
0 0 0
0 0 0
0 0 0
0 0 0
0 0 0
0 0 0
0 0 0
0 0 0
0 0 0
0 0 0
0 0 0
0 0 0
0 0 0
0 0 0
0 0 0
0 0 0
0 0 0
0 0 0
0 0 0
0 0 0
0 0 0
0 0 0
0 0 0
0 0 0
0 0 0
0 0 0
0 0 0
0 0 0
0 0 0
0 0 0
0 0 0
0 0 0
0 0 0
0 0 0
0 0 0
0 0 0
0 0 0
0 0 0
0 0 0
0 0 0
0 0 0
0 0 0
0 0 0
0 0 0
0 0 0
0 0 0
0 0 0
0 0 0
0 0 0
0 0 0
0 0 0
0 0 0
0 0 0
0 0 0
0 0 0
0 0 0
0 0 0
0 0 0
0 0 0
0 0 0
0 0 0
0 0 0
0 0 0
0 0 0
0 0 0
0 0 0
0 0 0
0 0 0
0 0 0
0 0 0
0 0 0
0 0 0
0 0 0
0 0 0
0 0 0
0 0 0
0 0 0
0 0 0
0 0 0
0 0 0
0 0 0
0 0 0
0 0 0
0 0 0
0 0 0
0 0 0
0 0 0
0 0 0
0 0 0
0 0 0
0 0 0
0 0 0
0 0 0
0 0 0
0 0 0
0 0 0
0 0 0
0 0 0
0 0 0
0 0 0
0 0 0
0 0 0
0 0 0
0 0 0
0 0 0
0 0 0
0 0 0
0 0 0
0 0 0
0 0 0
0 0 0
0 0 0
0 0 0
0 0 0
0 0 0
0 0 0
0 0 0
0 0 0
0 0 0
0 0 0
0 0 0
0 0 0
0 0 0
0 0 0
0 0 0
0 0 0
0 0 0
0 0 0
0 0 0
0 0 0
0 0 0
0 0 0
0 0 0
0 0 0
0 0 0
0 0 0
0 0 0
0 0 0
0 0 0
0 0 0
0 0 0
0 0 0
0 0 0
0 0 0
0 0 0
0 0 0
0 0 0
0 0 0
0 0 0
0 0 0
0 0 0
0 0 0
0 0 0
0 0 0
0 0 0
0 0 0
0 0 0
0 0 0
0 0 0
0 0 0
0 0 0
0 0 0
0 0 0
0 0 0
0 0 0
0 0 0
0 0 0
0 0 0
0 0 0
0 0 0
0 0 0
0 0 0
0 0 0
0 0 0
0 0 0
0 0 0
0 0 0
0 0 0
0 0 0
0 0 0
0 0 0
0 0 0
0 0 0
0 0 0
0 0 0
0 0 0
0 0 0
0 0 0
0 0 0
0 0 0
0 0 0
0 0 0
0 0 0
0 0 0
0 0 0
0 0 0
0 0 0
0 0 0
0 0 0
0 0 0
0 0 0
0 0 0
0 0 0
0 0 0
0 0 0
0 0 0
0 0 0
0 0 0
0 0 0
0 0 0
0 0 0
0 0 0
0 0 0
0 0 0
0 0 0
0 0 0
0 0 0
0 0 0
0 0 0
0 0 0
0 0 0
0 0 0
0 0 0
0 0 0
245 173 101
246 173 101
247 174 101
248 174 101
249 175 101
250 175 101
251 176 101
252 176 101
253 177 101
254 177 101
0 51 102
1 51 102
2 52 102
3 52 102
4 53 102
5 53 102
6 54 102
7 54 102
8 55 102
9 55 102
0 0 0
0 0 0
0 0 0
0 0 0
0 0 0
0 0 0
0 0 0
0 0 0
0 0 0
0 0 0
0 0 0
0 0 0
0 0 0
0 0 0
0 0 0
0 0 0
0 0 0
0 0 0
0 0 0
0 0 0
0 0 0
0 0 0
0 0 0
0 0 0
0 0 0
0 0 0
0 0 0
0 0 0
0 0 0
0 0 0
0 0 0
0 0 0
0 0 0
0 0 0
0 0 0
0 0 0
0 0 0
0 0 0
0 0 0
0 0 0
0 0 0
0 0 0
0 0 0
0 0 0
0 0 0
0 0 0
0 0 0
0 0 0
0 0 0
0 0 0
0 0 0
0 0 0
0 0 0
0 0 0
0 0 0
0 0 0
0 0 0
0 0 0
0 0 0
0 0 0
0 0 0
0 0 0
0 0 0
0 0 0
0 0 0
0 0 0
0 0 0
0 0 0
0 0 0
0 0 0
0 0 0
0 0 0
0 0 0
0 0 0
0 0 0
0 0 0
0 0 0
0 0 0
0 0 0
0 0 0
0 0 0
0 0 0
0 0 0
0 0 0
0 0 0
0 0 0
0 0 0
0 0 0
0 0 0
0 0 0
0 0 0
0 0 0
0 0 0
0 0 0
0 0 0
0 0 0
0 0 0
0 0 0
0 0 0
0 0 0
0 0 0
0 0 0
0 0 0
0 0 0
0 0 0
0 0 0
0 0 0
0 0 0
0 0 0
0 0 0
0 0 0
0 0 0
0 0 0
0 0 0
0 0 0
0 0 0
0 0 0
0 0 0
0 0 0
0 0 0
0 0 0
0 0 0
0 0 0
0 0 0
0 0 0
0 0 0
0 0 0
0 0 0
0 0 0
0 0 0
0 0 0
0 0 0
0 0 0
0 0 0
0 0 0
0 0 0
0 0 0
0 0 0
0 0 0
0 0 0
0 0 0
0 0 0
0 0 0
0 0 0
0 0 0
0 0 0
0 0 0
0 0 0
0 0 0
0 0 0
0 0 0
0 0 0
0 0 0
0 0 0
0 0 0
0 0 0
0 0 0
0 0 0
0 0 0
0 0 0
0 0 0
0 0 0
0 0 0
0 0 0
0 0 0
0 0 0
0 0 0
0 0 0
0 0 0
0 0 0
0 0 0
0 0 0
0 0 0
0 0 0
0 0 0
0 0 0
0 0 0
0 0 0
0 0 0
0 0 0
0 0 0
0 0 0
0 0 0
0 0 0
0 0 0
0 0 0
0 0 0
0 0 0
0 0 0
0 0 0
0 0 0
0 0 0
0 0 0
0 0 0
0 0 0
0 0 0
0 0 0
0 0 0
0 0 0
0 0 0
0 0 0
0 0 0
0 0 0
0 0 0
0 0 0
0 0 0
0 0 0
0 0 0
0 0 0
0 0 0
0 0 0
0 0 0
0 0 0
0 0 0
0 0 0
0 0 0
0 0 0
0 0 0
0 0 0
0 0 0
0 0 0
0 0 0
0 0 0
0 0 0
0 0 0
0 0 0
0 0 0
0 0 0
0 0 0
0 0 0
0 0 0
0 0 0
0 0 0
0 0 0
0 0 0
245 173 102
246 174 102
247 174 102
248 175 102
249 175 102
250 176 102
251 176 102
252 177 102
253 177 102
254 178 102
0 51 103
1 52 103
2 52 103
3 53 103
4 53 103
5 54 103
6 54 103
7 55 103
8 55 103
9 56 103
0 0 0
0 0 0
0 0 0
0 0 0
0 0 0
0 0 0
0 0 0
0 0 0
0 0 0
0 0 0
0 0 0
0 0 0
0 0 0
0 0 0
0 0 0
0 0 0
0 0 0
0 0 0
0 0 0
0 0 0
0 0 0
0 0 0
0 0 0
0 0 0
0 0 0
0 0 0
0 0 0
0 0 0
0 0 0
0 0 0
0 0 0
0 0 0
0 0 0
0 0 0
0 0 0
0 0 0
0 0 0
0 0 0
0 0 0
0 0 0
0 0 0
0 0 0
0 0 0
0 0 0
0 0 0
0 0 0
0 0 0
0 0 0
0 0 0
0 0 0
0 0 0
0 0 0
0 0 0
0 0 0
0 0 0
0 0 0
0 0 0
0 0 0
0 0 0
0 0 0
0 0 0
0 0 0
0 0 0
0 0 0
0 0 0
0 0 0
0 0 0
0 0 0
0 0 0
0 0 0
0 0 0
0 0 0
0 0 0
0 0 0
0 0 0
0 0 0
0 0 0
0 0 0
0 0 0
0 0 0
0 0 0
0 0 0
0 0 0
0 0 0
0 0 0
0 0 0
0 0 0
0 0 0
0 0 0
0 0 0
0 0 0
0 0 0
0 0 0
0 0 0
0 0 0
0 0 0
0 0 0
0 0 0
0 0 0
0 0 0
0 0 0
0 0 0
0 0 0
0 0 0
0 0 0
0 0 0
0 0 0
0 0 0
0 0 0
0 0 0
0 0 0
0 0 0
0 0 0
0 0 0
0 0 0
0 0 0
0 0 0
0 0 0
0 0 0
0 0 0
0 0 0
0 0 0
0 0 0
0 0 0
0 0 0
0 0 0
0 0 0
0 0 0
0 0 0
0 0 0
0 0 0
0 0 0
0 0 0
0 0 0
0 0 0
0 0 0
0 0 0
0 0 0
0 0 0
0 0 0
0 0 0
0 0 0
0 0 0
0 0 0
0 0 0
0 0 0
0 0 0
0 0 0
0 0 0
0 0 0
0 0 0
0 0 0
0 0 0
0 0 0
0 0 0
0 0 0
0 0 0
0 0 0
0 0 0
0 0 0
0 0 0
0 0 0
0 0 0
0 0 0
0 0 0
0 0 0
0 0 0
0 0 0
0 0 0
0 0 0
0 0 0
0 0 0
0 0 0
0 0 0
0 0 0
0 0 0
0 0 0
0 0 0
0 0 0
0 0 0
0 0 0
0 0 0
0 0 0
0 0 0
0 0 0
0 0 0
0 0 0
0 0 0
0 0 0
0 0 0
0 0 0
0 0 0
0 0 0
0 0 0
0 0 0
0 0 0
0 0 0
0 0 0
0 0 0
0 0 0
0 0 0
0 0 0
0 0 0
0 0 0
0 0 0
0 0 0
0 0 0
0 0 0
0 0 0
0 0 0
0 0 0
0 0 0
0 0 0
0 0 0
0 0 0
0 0 0
0 0 0
0 0 0
0 0 0
0 0 0
0 0 0
0 0 0
0 0 0
0 0 0
0 0 0
0 0 0
0 0 0
0 0 0
0 0 0
0 0 0
0 0 0
0 0 0
0 0 0
0 0 0
0 0 0
245 174 103
246 174 103
247 175 103
248 175 103
249 176 103
250 176 103
251 177 103
252 177 103
253 178 103
254 178 103
0 52 104
1 52 104
2 53 104
3 53 104
4 54 104
5 54 104
6 55 104
7 55 104
8 56 104
9 56 104
0 0 0
0 0 0
0 0 0
0 0 0
0 0 0
0 0 0
0 0 0
0 0 0
0 0 0
0 0 0
0 0 0
0 0 0
0 0 0
0 0 0
0 0 0
0 0 0
0 0 0
0 0 0
0 0 0
0 0 0
0 0 0
0 0 0
0 0 0
0 0 0
0 0 0
0 0 0
0 0 0
0 0 0
0 0 0
0 0 0
0 0 0
0 0 0
0 0 0
0 0 0
0 0 0
0 0 0
0 0 0
0 0 0
0 0 0
0 0 0
0 0 0
0 0 0
0 0 0
0 0 0
0 0 0
0 0 0
0 0 0
0 0 0
0 0 0
0 0 0
0 0 0
0 0 0
0 0 0
0 0 0
0 0 0
0 0 0
0 0 0
0 0 0
0 0 0
0 0 0
0 0 0
0 0 0
0 0 0
0 0 0
0 0 0
0 0 0
0 0 0
0 0 0
0 0 0
0 0 0
0 0 0
0 0 0
0 0 0
0 0 0
0 0 0
0 0 0
0 0 0
0 0 0
0 0 0
0 0 0
0 0 0
0 0 0
0 0 0
0 0 0
0 0 0
0 0 0
0 0 0
0 0 0
0 0 0
0 0 0
0 0 0
0 0 0
0 0 0
0 0 0
0 0 0
0 0 0
0 0 0
0 0 0
0 0 0
0 0 0
0 0 0
0 0 0
0 0 0
0 0 0
0 0 0
0 0 0
0 0 0
0 0 0
0 0 0
0 0 0
0 0 0
0 0 0
0 0 0
0 0 0
0 0 0
0 0 0
0 0 0
0 0 0
0 0 0
0 0 0
0 0 0
0 0 0
0 0 0
0 0 0
0 0 0
0 0 0
0 0 0
0 0 0
0 0 0
0 0 0
0 0 0
0 0 0
0 0 0
0 0 0
0 0 0
0 0 0
0 0 0
0 0 0
0 0 0
0 0 0
0 0 0
0 0 0
0 0 0
0 0 0
0 0 0
0 0 0
0 0 0
0 0 0
0 0 0
0 0 0
0 0 0
0 0 0
0 0 0
0 0 0
0 0 0
0 0 0
0 0 0
0 0 0
0 0 0
0 0 0
0 0 0
0 0 0
0 0 0
0 0 0
0 0 0
0 0 0
0 0 0
0 0 0
0 0 0
0 0 0
0 0 0
0 0 0
0 0 0
0 0 0
0 0 0
0 0 0
0 0 0
0 0 0
0 0 0
0 0 0
0 0 0
0 0 0
0 0 0
0 0 0
0 0 0
0 0 0
0 0 0
0 0 0
0 0 0
0 0 0
0 0 0
0 0 0
0 0 0
0 0 0
0 0 0
0 0 0
0 0 0
0 0 0
0 0 0
0 0 0
0 0 0
0 0 0
0 0 0
0 0 0
0 0 0
0 0 0
0 0 0
0 0 0
0 0 0
0 0 0
0 0 0
0 0 0
0 0 0
0 0 0
0 0 0
0 0 0
0 0 0
0 0 0
0 0 0
0 0 0
0 0 0
0 0 0
0 0 0
0 0 0
0 0 0
0 0 0
0 0 0
0 0 0
0 0 0
0 0 0
0 0 0
0 0 0
0 0 0
0 0 0
0 0 0
245 174 104
246 175 104
247 175 104
248 176 104
249 176 104
250 177 104
251 177 104
252 178 104
253 178 104
254 179 104
0 52 105
1 53 105
2 53 105
3 54 105
4 54 105
5 55 105
6 55 105
7 56 105
8 56 105
9 57 105
0 0 0
0 0 0
0 0 0
0 0 0
0 0 0
0 0 0
0 0 0
0 0 0
0 0 0
0 0 0
0 0 0
0 0 0
0 0 0
0 0 0
0 0 0
0 0 0
0 0 0
0 0 0
0 0 0
0 0 0
0 0 0
0 0 0
0 0 0
0 0 0
0 0 0
0 0 0
0 0 0
0 0 0
0 0 0
0 0 0
0 0 0
0 0 0
0 0 0
0 0 0
0 0 0
0 0 0
0 0 0
0 0 0
0 0 0
0 0 0
0 0 0
0 0 0
0 0 0
0 0 0
0 0 0
0 0 0
0 0 0
0 0 0
0 0 0
0 0 0
0 0 0
0 0 0
0 0 0
0 0 0
0 0 0
0 0 0
0 0 0
0 0 0
0 0 0
0 0 0
0 0 0
0 0 0
0 0 0
0 0 0
0 0 0
0 0 0
0 0 0
0 0 0
0 0 0
0 0 0
0 0 0
0 0 0
0 0 0
0 0 0
0 0 0
0 0 0
0 0 0
0 0 0
0 0 0
0 0 0
0 0 0
0 0 0
0 0 0
0 0 0
0 0 0
0 0 0
0 0 0
0 0 0
0 0 0
0 0 0
0 0 0
0 0 0
0 0 0
0 0 0
0 0 0
0 0 0
0 0 0
0 0 0
0 0 0
0 0 0
0 0 0
0 0 0
0 0 0
0 0 0
0 0 0
0 0 0
0 0 0
0 0 0
0 0 0
0 0 0
0 0 0
0 0 0
0 0 0
0 0 0
0 0 0
0 0 0
0 0 0
0 0 0
0 0 0
0 0 0
0 0 0
0 0 0
0 0 0
0 0 0
0 0 0
0 0 0
0 0 0
0 0 0
0 0 0
0 0 0
0 0 0
0 0 0
0 0 0
0 0 0
0 0 0
0 0 0
0 0 0
0 0 0
0 0 0
0 0 0
0 0 0
0 0 0
0 0 0
0 0 0
0 0 0
0 0 0
0 0 0
0 0 0
0 0 0
0 0 0
0 0 0
0 0 0
0 0 0
0 0 0
0 0 0
0 0 0
0 0 0
0 0 0
0 0 0
0 0 0
0 0 0
0 0 0
0 0 0
0 0 0
0 0 0
0 0 0
0 0 0
0 0 0
0 0 0
0 0 0
0 0 0
0 0 0
0 0 0
0 0 0
0 0 0
0 0 0
0 0 0
0 0 0
0 0 0
0 0 0
0 0 0
0 0 0
0 0 0
0 0 0
0 0 0
0 0 0
0 0 0
0 0 0
0 0 0
0 0 0
0 0 0
0 0 0
0 0 0
0 0 0
0 0 0
0 0 0
0 0 0
0 0 0
0 0 0
0 0 0
0 0 0
0 0 0
0 0 0
0 0 0
0 0 0
0 0 0
0 0 0
0 0 0
0 0 0
0 0 0
0 0 0
0 0 0
0 0 0
0 0 0
0 0 0
0 0 0
0 0 0
0 0 0
0 0 0
0 0 0
0 0 0
0 0 0
0 0 0
0 0 0
0 0 0
0 0 0
0 0 0
0 0 0
0 0 0
0 0 0
0 0 0
0 0 0
0 0 0
0 0 0
0 0 0
245 175 105
246 175 105
247 176 105
248 176 105
249 177 105
250 177 105
251 178 105
252 178 105
253 179 105
254 179 105
0 53 106
1 53 106
2 54 106
3 54 106
4 55 106
5 55 106
6 56 106
7 56 106
8 57 106
0 0 0
0 0 0
0 0 0
0 0 0
0 0 0
0 0 0
0 0 0
0 0 0
0 0 0
0 0 0
0 0 0
0 0 0
0 0 0
0 0 0
0 0 0
0 0 0
0 0 0
0 0 0
0 0 0
0 0 0
0 0 0
0 0 0
0 0 0
0 0 0
0 0 0
0 0 0
0 0 0
0 0 0
0 0 0
0 0 0
0 0 0
0 0 0
0 0 0
0 0 0
0 0 0
0 0 0
0 0 0
0 0 0
0 0 0
0 0 0
0 0 0
0 0 0
0 0 0
0 0 0
0 0 0
0 0 0
0 0 0
0 0 0
0 0 0
0 0 0
0 0 0
0 0 0
0 0 0
0 0 0
0 0 0
0 0 0
0 0 0
0 0 0
0 0 0
0 0 0
0 0 0
0 0 0
0 0 0
0 0 0
0 0 0
0 0 0
0 0 0
0 0 0
0 0 0
0 0 0
0 0 0
0 0 0
0 0 0
0 0 0
0 0 0
0 0 0
0 0 0
0 0 0
0 0 0
0 0 0
0 0 0
0 0 0
0 0 0
0 0 0
0 0 0
0 0 0
0 0 0
0 0 0
0 0 0
0 0 0
0 0 0
0 0 0
0 0 0
0 0 0
0 0 0
0 0 0
0 0 0
0 0 0
0 0 0
0 0 0
0 0 0
0 0 0
0 0 0
0 0 0
0 0 0
0 0 0
0 0 0
0 0 0
0 0 0
0 0 0
0 0 0
0 0 0
0 0 0
0 0 0
0 0 0
0 0 0
0 0 0
0 0 0
0 0 0
0 0 0
0 0 0
0 0 0
0 0 0
0 0 0
0 0 0
0 0 0
0 0 0
0 0 0
0 0 0
0 0 0
0 0 0
0 0 0
0 0 0
0 0 0
0 0 0
0 0 0
0 0 0
0 0 0
0 0 0
0 0 0
0 0 0
0 0 0
0 0 0
0 0 0
0 0 0
0 0 0
0 0 0
0 0 0
0 0 0
0 0 0
0 0 0
0 0 0
0 0 0
0 0 0
0 0 0
0 0 0
0 0 0
0 0 0
0 0 0
0 0 0
0 0 0
0 0 0
0 0 0
0 0 0
0 0 0
0 0 0
0 0 0
0 0 0
0 0 0
0 0 0
0 0 0
0 0 0
0 0 0
0 0 0
0 0 0
0 0 0
0 0 0
0 0 0
0 0 0
0 0 0
0 0 0
0 0 0
0 0 0
0 0 0
0 0 0
0 0 0
0 0 0
0 0 0
0 0 0
0 0 0
0 0 0
0 0 0
0 0 0
0 0 0
0 0 0
0 0 0
0 0 0
0 0 0
0 0 0
0 0 0
0 0 0
0 0 0
0 0 0
0 0 0
0 0 0
0 0 0
0 0 0
0 0 0
0 0 0
0 0 0
0 0 0
0 0 0
0 0 0
0 0 0
0 0 0
0 0 0
0 0 0
0 0 0
0 0 0
0 0 0
0 0 0
0 0 0
0 0 0
0 0 0
0 0 0
0 0 0
0 0 0
0 0 0
0 0 0
0 0 0
0 0 0
0 0 0
0 0 0
0 0 0
0 0 0
0 0 0
0 0 0
246 176 106
247 176 106
248 177 106
249 177 106
250 178 106
251 178 106
252 179 106
253 179 106
254 180 106
0 53 107
1 54 107
2 54 107
3 55 107
4 55 107
5 56 107
6 56 107
7 57 107
8 57 107
0 0 0
0 0 0
0 0 0
0 0 0
0 0 0
0 0 0
0 0 0
0 0 0
0 0 0
0 0 0
0 0 0
0 0 0
0 0 0
0 0 0
0 0 0
0 0 0
0 0 0
0 0 0
0 0 0
0 0 0
0 0 0
0 0 0
0 0 0
0 0 0
0 0 0
0 0 0
0 0 0
0 0 0
0 0 0
0 0 0
0 0 0
0 0 0
0 0 0
0 0 0
0 0 0
0 0 0
0 0 0
0 0 0
0 0 0
0 0 0
0 0 0
0 0 0
0 0 0
0 0 0
0 0 0
0 0 0
0 0 0
0 0 0
0 0 0
0 0 0
0 0 0
0 0 0
0 0 0
0 0 0
0 0 0
0 0 0
0 0 0
0 0 0
0 0 0
0 0 0
0 0 0
0 0 0
0 0 0
0 0 0
0 0 0
0 0 0
0 0 0
0 0 0
0 0 0
0 0 0
0 0 0
0 0 0
0 0 0
0 0 0
0 0 0
0 0 0
0 0 0
0 0 0
0 0 0
0 0 0
0 0 0
0 0 0
0 0 0
0 0 0
0 0 0
0 0 0
0 0 0
0 0 0
0 0 0
0 0 0
0 0 0
0 0 0
0 0 0
0 0 0
0 0 0
0 0 0
0 0 0
0 0 0
0 0 0
0 0 0
0 0 0
0 0 0
0 0 0
0 0 0
0 0 0
0 0 0
0 0 0
0 0 0
0 0 0
0 0 0
0 0 0
0 0 0
0 0 0
0 0 0
0 0 0
0 0 0
0 0 0
0 0 0
0 0 0
0 0 0
0 0 0
0 0 0
0 0 0
0 0 0
0 0 0
0 0 0
0 0 0
0 0 0
0 0 0
0 0 0
0 0 0
0 0 0
0 0 0
0 0 0
0 0 0
0 0 0
0 0 0
0 0 0
0 0 0
0 0 0
0 0 0
0 0 0
0 0 0
0 0 0
0 0 0
0 0 0
0 0 0
0 0 0
0 0 0
0 0 0
0 0 0
0 0 0
0 0 0
0 0 0
0 0 0
0 0 0
0 0 0
0 0 0
0 0 0
0 0 0
0 0 0
0 0 0
0 0 0
0 0 0
0 0 0
0 0 0
0 0 0
0 0 0
0 0 0
0 0 0
0 0 0
0 0 0
0 0 0
0 0 0
0 0 0
0 0 0
0 0 0
0 0 0
0 0 0
0 0 0
0 0 0
0 0 0
0 0 0
0 0 0
0 0 0
0 0 0
0 0 0
0 0 0
0 0 0
0 0 0
0 0 0
0 0 0
0 0 0
0 0 0
0 0 0
0 0 0
0 0 0
0 0 0
0 0 0
0 0 0
0 0 0
0 0 0
0 0 0
0 0 0
0 0 0
0 0 0
0 0 0
0 0 0
0 0 0
0 0 0
0 0 0
0 0 0
0 0 0
0 0 0
0 0 0
0 0 0
0 0 0
0 0 0
0 0 0
0 0 0
0 0 0
0 0 0
0 0 0
0 0 0
0 0 0
0 0 0
0 0 0
0 0 0
0 0 0
0 0 0
0 0 0
0 0 0
0 0 0
0 0 0
0 0 0
0 0 0
0 0 0
246 176 107
247 177 107
248 177 107
249 178 107
250 178 107
251 179 107
252 179 107
253 180 107
254 180 107
0 54 108
1 54 108
2 55 108
3 55 108
4 56 108
5 56 108
6 57 108
7 57 108
8 58 108
0 0 0
0 0 0
0 0 0
0 0 0
0 0 0
0 0 0
0 0 0
0 0 0
0 0 0
0 0 0
0 0 0
0 0 0
0 0 0
0 0 0
0 0 0
0 0 0
0 0 0
0 0 0
0 0 0
0 0 0
0 0 0
0 0 0
0 0 0
0 0 0
0 0 0
0 0 0
0 0 0
0 0 0
0 0 0
0 0 0
0 0 0
0 0 0
0 0 0
0 0 0
0 0 0
0 0 0
0 0 0
0 0 0
0 0 0
0 0 0
0 0 0
0 0 0
0 0 0
0 0 0
0 0 0
0 0 0
0 0 0
0 0 0
0 0 0
0 0 0
0 0 0
0 0 0
0 0 0
0 0 0
0 0 0
0 0 0
0 0 0
0 0 0
0 0 0
0 0 0
0 0 0
0 0 0
0 0 0
0 0 0
0 0 0
0 0 0
0 0 0
0 0 0
0 0 0
0 0 0
0 0 0
0 0 0
0 0 0
0 0 0
0 0 0
0 0 0
0 0 0
0 0 0
0 0 0
0 0 0
0 0 0
0 0 0
0 0 0
0 0 0
0 0 0
0 0 0
0 0 0
0 0 0
0 0 0
0 0 0
0 0 0
0 0 0
0 0 0
0 0 0
0 0 0
0 0 0
0 0 0
0 0 0
0 0 0
0 0 0
0 0 0
0 0 0
0 0 0
0 0 0
0 0 0
0 0 0
0 0 0
0 0 0
0 0 0
0 0 0
0 0 0
0 0 0
0 0 0
0 0 0
0 0 0
0 0 0
0 0 0
0 0 0
0 0 0
0 0 0
0 0 0
0 0 0
0 0 0
0 0 0
0 0 0
0 0 0
0 0 0
0 0 0
0 0 0
0 0 0
0 0 0
0 0 0
0 0 0
0 0 0
0 0 0
0 0 0
0 0 0
0 0 0
0 0 0
0 0 0
0 0 0
0 0 0
0 0 0
0 0 0
0 0 0
0 0 0
0 0 0
0 0 0
0 0 0
0 0 0
0 0 0
0 0 0
0 0 0
0 0 0
0 0 0
0 0 0
0 0 0
0 0 0
0 0 0
0 0 0
0 0 0
0 0 0
0 0 0
0 0 0
0 0 0
0 0 0
0 0 0
0 0 0
0 0 0
0 0 0
0 0 0
0 0 0
0 0 0
0 0 0
0 0 0
0 0 0
0 0 0
0 0 0
0 0 0
0 0 0
0 0 0
0 0 0
0 0 0
0 0 0
0 0 0
0 0 0
0 0 0
0 0 0
0 0 0
0 0 0
0 0 0
0 0 0
0 0 0
0 0 0
0 0 0
0 0 0
0 0 0
0 0 0
0 0 0
0 0 0
0 0 0
0 0 0
0 0 0
0 0 0
0 0 0
0 0 0
0 0 0
0 0 0
0 0 0
0 0 0
0 0 0
0 0 0
0 0 0
0 0 0
0 0 0
0 0 0
0 0 0
0 0 0
0 0 0
0 0 0
0 0 0
0 0 0
0 0 0
0 0 0
0 0 0
0 0 0
0 0 0
0 0 0
0 0 0
0 0 0
0 0 0
0 0 0
0 0 0
0 0 0
0 0 0
0 0 0
0 0 0
246 177 108
247 177 108
248 178 108
249 178 108
250 179 108
251 179 108
252 180 108
253 180 108
254 181 108
0 54 109
1 55 109
2 55 109
3 56 109
4 56 109
5 57 109
6 57 109
7 58 109
8 58 109
0 0 0
0 0 0
0 0 0
0 0 0
0 0 0
0 0 0
0 0 0
0 0 0
0 0 0
0 0 0
0 0 0
0 0 0
0 0 0
0 0 0
0 0 0
0 0 0
0 0 0
0 0 0
0 0 0
0 0 0
0 0 0
0 0 0
0 0 0
0 0 0
0 0 0
0 0 0
0 0 0
0 0 0
0 0 0
0 0 0
0 0 0
0 0 0
0 0 0
0 0 0
0 0 0
0 0 0
0 0 0
0 0 0
0 0 0
0 0 0
0 0 0
0 0 0
0 0 0
0 0 0
0 0 0
0 0 0
0 0 0
0 0 0
0 0 0
0 0 0
0 0 0
0 0 0
0 0 0
0 0 0
0 0 0
0 0 0
0 0 0
0 0 0
0 0 0
0 0 0
0 0 0
0 0 0
0 0 0
0 0 0
0 0 0
0 0 0
0 0 0
0 0 0
0 0 0
0 0 0
0 0 0
0 0 0
0 0 0
0 0 0
0 0 0
0 0 0
0 0 0
0 0 0
0 0 0
0 0 0
0 0 0
0 0 0
0 0 0
0 0 0
0 0 0
0 0 0
0 0 0
0 0 0
0 0 0
0 0 0
0 0 0
0 0 0
0 0 0
0 0 0
0 0 0
0 0 0
0 0 0
0 0 0
0 0 0
0 0 0
0 0 0
0 0 0
0 0 0
0 0 0
0 0 0
0 0 0
0 0 0
0 0 0
0 0 0
0 0 0
0 0 0
0 0 0
0 0 0
0 0 0
0 0 0
0 0 0
0 0 0
0 0 0
0 0 0
0 0 0
0 0 0
0 0 0
0 0 0
0 0 0
0 0 0
0 0 0
0 0 0
0 0 0
0 0 0
0 0 0
0 0 0
0 0 0
0 0 0
0 0 0
0 0 0
0 0 0
0 0 0
0 0 0
0 0 0
0 0 0
0 0 0
0 0 0
0 0 0
0 0 0
0 0 0
0 0 0
0 0 0
0 0 0
0 0 0
0 0 0
0 0 0
0 0 0
0 0 0
0 0 0
0 0 0
0 0 0
0 0 0
0 0 0
0 0 0
0 0 0
0 0 0
0 0 0
0 0 0
0 0 0
0 0 0
0 0 0
0 0 0
0 0 0
0 0 0
0 0 0
0 0 0
0 0 0
0 0 0
0 0 0
0 0 0
0 0 0
0 0 0
0 0 0
0 0 0
0 0 0
0 0 0
0 0 0
0 0 0
0 0 0
0 0 0
0 0 0
0 0 0
0 0 0
0 0 0
0 0 0
0 0 0
0 0 0
0 0 0
0 0 0
0 0 0
0 0 0
0 0 0
0 0 0
0 0 0
0 0 0
0 0 0
0 0 0
0 0 0
0 0 0
0 0 0
0 0 0
0 0 0
0 0 0
0 0 0
0 0 0
0 0 0
0 0 0
0 0 0
0 0 0
0 0 0
0 0 0
0 0 0
0 0 0
0 0 0
0 0 0
0 0 0
0 0 0
0 0 0
0 0 0
0 0 0
0 0 0
0 0 0
0 0 0
0 0 0
0 0 0
0 0 0
0 0 0
0 0 0
0 0 0
0 0 0
0 0 0
0 0 0
246 177 109
247 178 109
248 178 109
249 179 109
250 179 109
251 180 109
252 180 109
253 181 109
254 181 109
0 55 110
1 55 110
2 56 110
3 56 110
4 57 110
5 57 110
6 58 110
7 58 110
8 59 110
0 0 0
0 0 0
0 0 0
0 0 0
0 0 0
0 0 0
0 0 0
0 0 0
0 0 0
0 0 0
0 0 0
0 0 0
0 0 0
0 0 0
0 0 0
0 0 0
0 0 0
0 0 0
0 0 0
0 0 0
0 0 0
0 0 0
0 0 0
0 0 0
0 0 0
0 0 0
0 0 0
0 0 0
0 0 0
0 0 0
0 0 0
0 0 0
0 0 0
0 0 0
0 0 0
0 0 0
0 0 0
0 0 0
0 0 0
0 0 0
0 0 0
0 0 0
0 0 0
0 0 0
0 0 0
0 0 0
0 0 0
0 0 0
0 0 0
0 0 0
0 0 0
0 0 0
0 0 0
0 0 0
0 0 0
0 0 0
0 0 0
0 0 0
0 0 0
0 0 0
0 0 0
0 0 0
0 0 0
0 0 0
0 0 0
0 0 0
0 0 0
0 0 0
0 0 0
0 0 0
0 0 0
0 0 0
0 0 0
0 0 0
0 0 0
0 0 0
0 0 0
0 0 0
0 0 0
0 0 0
0 0 0
0 0 0
0 0 0
0 0 0
0 0 0
0 0 0
0 0 0
0 0 0
0 0 0
0 0 0
0 0 0
0 0 0
0 0 0
0 0 0
0 0 0
0 0 0
0 0 0
0 0 0
0 0 0
0 0 0
0 0 0
0 0 0
0 0 0
0 0 0
0 0 0
0 0 0
0 0 0
0 0 0
0 0 0
0 0 0
0 0 0
0 0 0
0 0 0
0 0 0
0 0 0
0 0 0
0 0 0
0 0 0
0 0 0
0 0 0
0 0 0
0 0 0
0 0 0
0 0 0
0 0 0
0 0 0
0 0 0
0 0 0
0 0 0
0 0 0
0 0 0
0 0 0
0 0 0
0 0 0
0 0 0
0 0 0
0 0 0
0 0 0
0 0 0
0 0 0
0 0 0
0 0 0
0 0 0
0 0 0
0 0 0
0 0 0
0 0 0
0 0 0
0 0 0
0 0 0
0 0 0
0 0 0
0 0 0
0 0 0
0 0 0
0 0 0
0 0 0
0 0 0
0 0 0
0 0 0
0 0 0
0 0 0
0 0 0
0 0 0
0 0 0
0 0 0
0 0 0
0 0 0
0 0 0
0 0 0
0 0 0
0 0 0
0 0 0
0 0 0
0 0 0
0 0 0
0 0 0
0 0 0
0 0 0
0 0 0
0 0 0
0 0 0
0 0 0
0 0 0
0 0 0
0 0 0
0 0 0
0 0 0
0 0 0
0 0 0
0 0 0
0 0 0
0 0 0
0 0 0
0 0 0
0 0 0
0 0 0
0 0 0
0 0 0
0 0 0
0 0 0
0 0 0
0 0 0
0 0 0
0 0 0
0 0 0
0 0 0
0 0 0
0 0 0
0 0 0
0 0 0
0 0 0
0 0 0
0 0 0
0 0 0
0 0 0
0 0 0
0 0 0
0 0 0
0 0 0
0 0 0
0 0 0
0 0 0
0 0 0
0 0 0
0 0 0
0 0 0
0 0 0
0 0 0
0 0 0
0 0 0
0 0 0
0 0 0
0 0 0
0 0 0
0 0 0
0 0 0
246 178 110
247 178 110
248 179 110
249 179 110
250 180 110
251 180 110
252 181 110
253 181 110
254 182 110
0 55 111
1 56 111
2 56 111
3 57 111
4 57 111
5 58 111
6 58 111
7 59 111
8 59 111
0 0 0
0 0 0
0 0 0
0 0 0
0 0 0
0 0 0
0 0 0
0 0 0
0 0 0
0 0 0
0 0 0
0 0 0
0 0 0
0 0 0
0 0 0
0 0 0
0 0 0
0 0 0
0 0 0
0 0 0
0 0 0
0 0 0
0 0 0
0 0 0
0 0 0
0 0 0
0 0 0
0 0 0
0 0 0
0 0 0
0 0 0
0 0 0
0 0 0
0 0 0
0 0 0
0 0 0
0 0 0
0 0 0
0 0 0
0 0 0
0 0 0
0 0 0
0 0 0
0 0 0
0 0 0
0 0 0
0 0 0
0 0 0
0 0 0
0 0 0
0 0 0
0 0 0
0 0 0
0 0 0
0 0 0
0 0 0
0 0 0
0 0 0
0 0 0
0 0 0
0 0 0
0 0 0
0 0 0
0 0 0
0 0 0
0 0 0
0 0 0
0 0 0
0 0 0
0 0 0
0 0 0
0 0 0
0 0 0
0 0 0
0 0 0
0 0 0
0 0 0
0 0 0
0 0 0
0 0 0
0 0 0
0 0 0
0 0 0
0 0 0
0 0 0
0 0 0
0 0 0
0 0 0
0 0 0
0 0 0
0 0 0
0 0 0
0 0 0
0 0 0
0 0 0
0 0 0
0 0 0
0 0 0
0 0 0
0 0 0
0 0 0
0 0 0
0 0 0
0 0 0
0 0 0
0 0 0
0 0 0
0 0 0
0 0 0
0 0 0
0 0 0
0 0 0
0 0 0
0 0 0
0 0 0
0 0 0
0 0 0
0 0 0
0 0 0
0 0 0
0 0 0
0 0 0
0 0 0
0 0 0
0 0 0
0 0 0
0 0 0
0 0 0
0 0 0
0 0 0
0 0 0
0 0 0
0 0 0
0 0 0
0 0 0
0 0 0
0 0 0
0 0 0
0 0 0
0 0 0
0 0 0
0 0 0
0 0 0
0 0 0
0 0 0
0 0 0
0 0 0
0 0 0
0 0 0
0 0 0
0 0 0
0 0 0
0 0 0
0 0 0
0 0 0
0 0 0
0 0 0
0 0 0
0 0 0
0 0 0
0 0 0
0 0 0
0 0 0
0 0 0
0 0 0
0 0 0
0 0 0
0 0 0
0 0 0
0 0 0
0 0 0
0 0 0
0 0 0
0 0 0
0 0 0
0 0 0
0 0 0
0 0 0
0 0 0
0 0 0
0 0 0
0 0 0
0 0 0
0 0 0
0 0 0
0 0 0
0 0 0
0 0 0
0 0 0
0 0 0
0 0 0
0 0 0
0 0 0
0 0 0
0 0 0
0 0 0
0 0 0
0 0 0
0 0 0
0 0 0
0 0 0
0 0 0
0 0 0
0 0 0
0 0 0
0 0 0
0 0 0
0 0 0
0 0 0
0 0 0
0 0 0
0 0 0
0 0 0
0 0 0
0 0 0
0 0 0
0 0 0
0 0 0
0 0 0
0 0 0
0 0 0
0 0 0
0 0 0
0 0 0
0 0 0
0 0 0
0 0 0
0 0 0
0 0 0
0 0 0
0 0 0
0 0 0
0 0 0
0 0 0
0 0 0
0 0 0
0 0 0
246 178 111
247 179 111
248 179 111
249 180 111
250 180 111
251 181 111
252 181 111
253 182 111
254 182 111
0 56 112
1 56 112
2 57 112
3 57 112
4 58 112
5 58 112
6 59 112
7 59 112
0 0 0
0 0 0
0 0 0
0 0 0
0 0 0
0 0 0
0 0 0
0 0 0
0 0 0
0 0 0
0 0 0
0 0 0
0 0 0
0 0 0
0 0 0
0 0 0
0 0 0
0 0 0
0 0 0
0 0 0
0 0 0
0 0 0
0 0 0
0 0 0
0 0 0
0 0 0
0 0 0
0 0 0
0 0 0
0 0 0
0 0 0
0 0 0
0 0 0
0 0 0
0 0 0
0 0 0
0 0 0
0 0 0
0 0 0
0 0 0
0 0 0
0 0 0
0 0 0
0 0 0
0 0 0
0 0 0
0 0 0
0 0 0
0 0 0
0 0 0
0 0 0
0 0 0
0 0 0
0 0 0
0 0 0
0 0 0
0 0 0
0 0 0
0 0 0
0 0 0
0 0 0
0 0 0
0 0 0
0 0 0
0 0 0
0 0 0
0 0 0
0 0 0
0 0 0
0 0 0
0 0 0
0 0 0
0 0 0
0 0 0
0 0 0
0 0 0
0 0 0
0 0 0
0 0 0
0 0 0
0 0 0
0 0 0
0 0 0
0 0 0
0 0 0
0 0 0
0 0 0
0 0 0
0 0 0
0 0 0
0 0 0
0 0 0
0 0 0
0 0 0
0 0 0
0 0 0
0 0 0
0 0 0
0 0 0
0 0 0
0 0 0
0 0 0
0 0 0
0 0 0
0 0 0
0 0 0
0 0 0
0 0 0
0 0 0
0 0 0
0 0 0
0 0 0
0 0 0
0 0 0
0 0 0
0 0 0
0 0 0
0 0 0
0 0 0
0 0 0
0 0 0
0 0 0
0 0 0
0 0 0
0 0 0
0 0 0
0 0 0
0 0 0
0 0 0
0 0 0
0 0 0
0 0 0
0 0 0
0 0 0
0 0 0
0 0 0
0 0 0
0 0 0
0 0 0
0 0 0
0 0 0
0 0 0
0 0 0
0 0 0
0 0 0
0 0 0
0 0 0
0 0 0
0 0 0
0 0 0
0 0 0
0 0 0
0 0 0
0 0 0
0 0 0
0 0 0
0 0 0
0 0 0
0 0 0
0 0 0
0 0 0
0 0 0
0 0 0
0 0 0
0 0 0
0 0 0
0 0 0
0 0 0
0 0 0
0 0 0
0 0 0
0 0 0
0 0 0
0 0 0
0 0 0
0 0 0
0 0 0
0 0 0
0 0 0
0 0 0
0 0 0
0 0 0
0 0 0
0 0 0
0 0 0
0 0 0
0 0 0
0 0 0
0 0 0
0 0 0
0 0 0
0 0 0
0 0 0
0 0 0
0 0 0
0 0 0
0 0 0
0 0 0
0 0 0
0 0 0
0 0 0
0 0 0
0 0 0
0 0 0
0 0 0
0 0 0
0 0 0
0 0 0
0 0 0
0 0 0
0 0 0
0 0 0
0 0 0
0 0 0
0 0 0
0 0 0
0 0 0
0 0 0
0 0 0
0 0 0
0 0 0
0 0 0
0 0 0
0 0 0
0 0 0
0 0 0
0 0 0
0 0 0
0 0 0
0 0 0
0 0 0
0 0 0
0 0 0
0 0 0
0 0 0
0 0 0
0 0 0
0 0 0
0 0 0
247 179 112
248 180 112
249 180 112
250 181 112
251 181 112
252 182 112
253 182 112
254 183 112
0 56 113
1 57 113
2 57 113
3 58 113
4 58 113
5 59 113
6 59 113
7 60 113
0 0 0
0 0 0
0 0 0
0 0 0
0 0 0
0 0 0
0 0 0
0 0 0
0 0 0
0 0 0
0 0 0
0 0 0
0 0 0
0 0 0
0 0 0
0 0 0
0 0 0
0 0 0
0 0 0
0 0 0
0 0 0
0 0 0
0 0 0
0 0 0
0 0 0
0 0 0
0 0 0
0 0 0
0 0 0
0 0 0
0 0 0
0 0 0
0 0 0
0 0 0
0 0 0
0 0 0
0 0 0
0 0 0
0 0 0
0 0 0
0 0 0
0 0 0
0 0 0
0 0 0
0 0 0
0 0 0
0 0 0
0 0 0
0 0 0
0 0 0
0 0 0
0 0 0
0 0 0
0 0 0
0 0 0
0 0 0
0 0 0
0 0 0
0 0 0
0 0 0
0 0 0
0 0 0
0 0 0
0 0 0
0 0 0
0 0 0
0 0 0
0 0 0
0 0 0
0 0 0
0 0 0
0 0 0
0 0 0
0 0 0
0 0 0
0 0 0
0 0 0
0 0 0
0 0 0
0 0 0
0 0 0
0 0 0
0 0 0
0 0 0
0 0 0
0 0 0
0 0 0
0 0 0
0 0 0
0 0 0
0 0 0
0 0 0
0 0 0
0 0 0
0 0 0
0 0 0
0 0 0
0 0 0
0 0 0
0 0 0
0 0 0
0 0 0
0 0 0
0 0 0
0 0 0
0 0 0
0 0 0
0 0 0
0 0 0
0 0 0
0 0 0
0 0 0
0 0 0
0 0 0
0 0 0
0 0 0
0 0 0
0 0 0
0 0 0
0 0 0
0 0 0
0 0 0
0 0 0
0 0 0
0 0 0
0 0 0
0 0 0
0 0 0
0 0 0
0 0 0
0 0 0
0 0 0
0 0 0
0 0 0
0 0 0
0 0 0
0 0 0
0 0 0
0 0 0
0 0 0
0 0 0
0 0 0
0 0 0
0 0 0
0 0 0
0 0 0
0 0 0
0 0 0
0 0 0
0 0 0
0 0 0
0 0 0
0 0 0
0 0 0
0 0 0
0 0 0
0 0 0
0 0 0
0 0 0
0 0 0
0 0 0
0 0 0
0 0 0
0 0 0
0 0 0
0 0 0
0 0 0
0 0 0
0 0 0
0 0 0
0 0 0
0 0 0
0 0 0
0 0 0
0 0 0
0 0 0
0 0 0
0 0 0
0 0 0
0 0 0
0 0 0
0 0 0
0 0 0
0 0 0
0 0 0
0 0 0
0 0 0
0 0 0
0 0 0
0 0 0
0 0 0
0 0 0
0 0 0
0 0 0
0 0 0
0 0 0
0 0 0
0 0 0
0 0 0
0 0 0
0 0 0
0 0 0
0 0 0
0 0 0
0 0 0
0 0 0
0 0 0
0 0 0
0 0 0
0 0 0
0 0 0
0 0 0
0 0 0
0 0 0
0 0 0
0 0 0
0 0 0
0 0 0
0 0 0
0 0 0
0 0 0
0 0 0
0 0 0
0 0 0
0 0 0
0 0 0
0 0 0
0 0 0
0 0 0
0 0 0
0 0 0
0 0 0
0 0 0
0 0 0
0 0 0
0 0 0
0 0 0
0 0 0
0 0 0
247 180 113
248 180 113
249 181 113
250 181 113
251 182 113
252 182 113
253 183 113
254 183 113
0 57 114
1 57 114
2 58 114
3 58 114
4 59 114
5 59 114
6 60 114
7 60 114
0 0 0
0 0 0
0 0 0
0 0 0
0 0 0
0 0 0
0 0 0
0 0 0
0 0 0
0 0 0
0 0 0
0 0 0
0 0 0
0 0 0
0 0 0
0 0 0
0 0 0
0 0 0
0 0 0
0 0 0
0 0 0
0 0 0
0 0 0
0 0 0
0 0 0
0 0 0
0 0 0
0 0 0
0 0 0
0 0 0
0 0 0
0 0 0
0 0 0
0 0 0
0 0 0
0 0 0
0 0 0
0 0 0
0 0 0
0 0 0
0 0 0
0 0 0
0 0 0
0 0 0
0 0 0
0 0 0
0 0 0
0 0 0
0 0 0
0 0 0
0 0 0
0 0 0
0 0 0
0 0 0
0 0 0
0 0 0
0 0 0
0 0 0
0 0 0
0 0 0
0 0 0
0 0 0
0 0 0
0 0 0
0 0 0
0 0 0
0 0 0
0 0 0
0 0 0
0 0 0
0 0 0
0 0 0
0 0 0
0 0 0
0 0 0
0 0 0
0 0 0
0 0 0
0 0 0
0 0 0
0 0 0
0 0 0
0 0 0
0 0 0
0 0 0
0 0 0
0 0 0
0 0 0
0 0 0
0 0 0
0 0 0
0 0 0
0 0 0
0 0 0
0 0 0
0 0 0
0 0 0
0 0 0
0 0 0
0 0 0
0 0 0
0 0 0
0 0 0
0 0 0
0 0 0
0 0 0
0 0 0
0 0 0
0 0 0
0 0 0
0 0 0
0 0 0
0 0 0
0 0 0
0 0 0
0 0 0
0 0 0
0 0 0
0 0 0
0 0 0
0 0 0
0 0 0
0 0 0
0 0 0
0 0 0
0 0 0
0 0 0
0 0 0
0 0 0
0 0 0
0 0 0
0 0 0
0 0 0
0 0 0
0 0 0
0 0 0
0 0 0
0 0 0
0 0 0
0 0 0
0 0 0
0 0 0
0 0 0
0 0 0
0 0 0
0 0 0
0 0 0
0 0 0
0 0 0
0 0 0
0 0 0
0 0 0
0 0 0
0 0 0
0 0 0
0 0 0
0 0 0
0 0 0
0 0 0
0 0 0
0 0 0
0 0 0
0 0 0
0 0 0
0 0 0
0 0 0
0 0 0
0 0 0
0 0 0
0 0 0
0 0 0
0 0 0
0 0 0
0 0 0
0 0 0
0 0 0
0 0 0
0 0 0
0 0 0
0 0 0
0 0 0
0 0 0
0 0 0
0 0 0
0 0 0
0 0 0
0 0 0
0 0 0
0 0 0
0 0 0
0 0 0
0 0 0
0 0 0
0 0 0
0 0 0
0 0 0
0 0 0
0 0 0
0 0 0
0 0 0
0 0 0
0 0 0
0 0 0
0 0 0
0 0 0
0 0 0
0 0 0
0 0 0
0 0 0
0 0 0
0 0 0
0 0 0
0 0 0
0 0 0
0 0 0
0 0 0
0 0 0
0 0 0
0 0 0
0 0 0
0 0 0
0 0 0
0 0 0
0 0 0
0 0 0
0 0 0
0 0 0
0 0 0
0 0 0
0 0 0
0 0 0
0 0 0
0 0 0
0 0 0
0 0 0
0 0 0
0 0 0
0 0 0
0 0 0
247 180 114
248 181 114
249 181 114
250 182 114
251 182 114
252 183 114
253 183 114
254 184 114
0 57 115
1 58 115
2 58 115
3 59 115
4 59 115
5 60 115
6 60 115
7 61 115
0 0 0
0 0 0
0 0 0
0 0 0
0 0 0
0 0 0
0 0 0
0 0 0
0 0 0
0 0 0
0 0 0
0 0 0
0 0 0
0 0 0
0 0 0
0 0 0
0 0 0
0 0 0
0 0 0
0 0 0
0 0 0
0 0 0
0 0 0
0 0 0
0 0 0
0 0 0
0 0 0
0 0 0
0 0 0
0 0 0
0 0 0
0 0 0
0 0 0
0 0 0
0 0 0
0 0 0
0 0 0
0 0 0
0 0 0
0 0 0
0 0 0
0 0 0
0 0 0
0 0 0
0 0 0
0 0 0
0 0 0
0 0 0
0 0 0
0 0 0
0 0 0
0 0 0
0 0 0
0 0 0
0 0 0
0 0 0
0 0 0
0 0 0
0 0 0
0 0 0
0 0 0
0 0 0
0 0 0
0 0 0
0 0 0
0 0 0
0 0 0
0 0 0
0 0 0
0 0 0
0 0 0
0 0 0
0 0 0
0 0 0
0 0 0
0 0 0
0 0 0
0 0 0
0 0 0
0 0 0
0 0 0
0 0 0
0 0 0
0 0 0
0 0 0
0 0 0
0 0 0
0 0 0
0 0 0
0 0 0
0 0 0
0 0 0
0 0 0
0 0 0
0 0 0
0 0 0
0 0 0
0 0 0
0 0 0
0 0 0
0 0 0
0 0 0
0 0 0
0 0 0
0 0 0
0 0 0
0 0 0
0 0 0
0 0 0
0 0 0
0 0 0
0 0 0
0 0 0
0 0 0
0 0 0
0 0 0
0 0 0
0 0 0
0 0 0
0 0 0
0 0 0
0 0 0
0 0 0
0 0 0
0 0 0
0 0 0
0 0 0
0 0 0
0 0 0
0 0 0
0 0 0
0 0 0
0 0 0
0 0 0
0 0 0
0 0 0
0 0 0
0 0 0
0 0 0
0 0 0
0 0 0
0 0 0
0 0 0
0 0 0
0 0 0
0 0 0
0 0 0
0 0 0
0 0 0
0 0 0
0 0 0
0 0 0
0 0 0
0 0 0
0 0 0
0 0 0
0 0 0
0 0 0
0 0 0
0 0 0
0 0 0
0 0 0
0 0 0
0 0 0
0 0 0
0 0 0
0 0 0
0 0 0
0 0 0
0 0 0
0 0 0
0 0 0
0 0 0
0 0 0
0 0 0
0 0 0
0 0 0
0 0 0
0 0 0
0 0 0
0 0 0
0 0 0
0 0 0
0 0 0
0 0 0
0 0 0
0 0 0
0 0 0
0 0 0
0 0 0
0 0 0
0 0 0
0 0 0
0 0 0
0 0 0
0 0 0
0 0 0
0 0 0
0 0 0
0 0 0
0 0 0
0 0 0
0 0 0
0 0 0
0 0 0
0 0 0
0 0 0
0 0 0
0 0 0
0 0 0
0 0 0
0 0 0
0 0 0
0 0 0
0 0 0
0 0 0
0 0 0
0 0 0
0 0 0
0 0 0
0 0 0
0 0 0
0 0 0
0 0 0
0 0 0
0 0 0
0 0 0
0 0 0
0 0 0
0 0 0
0 0 0
0 0 0
0 0 0
0 0 0
0 0 0
0 0 0
0 0 0
0 0 0
0 0 0
247 181 115
248 181 115
249 182 115
250 182 115
251 183 115
252 183 115
253 184 115
254 184 115
0 58 116
1 58 116
2 59 116
3 59 116
4 60 116
5 60 116
6 61 116
7 61 116
0 0 0
0 0 0
0 0 0
0 0 0
0 0 0
0 0 0
0 0 0
0 0 0
0 0 0
0 0 0
0 0 0
0 0 0
0 0 0
0 0 0
0 0 0
0 0 0
0 0 0
0 0 0
0 0 0
0 0 0
0 0 0
0 0 0
0 0 0
0 0 0
0 0 0
0 0 0
0 0 0
0 0 0
0 0 0
0 0 0
0 0 0
0 0 0
0 0 0
0 0 0
0 0 0
0 0 0
0 0 0
0 0 0
0 0 0
0 0 0
0 0 0
0 0 0
0 0 0
0 0 0
0 0 0
0 0 0
0 0 0
0 0 0
0 0 0
0 0 0
0 0 0
0 0 0
0 0 0
0 0 0
0 0 0
0 0 0
0 0 0
0 0 0
0 0 0
0 0 0
0 0 0
0 0 0
0 0 0
0 0 0
0 0 0
0 0 0
0 0 0
0 0 0
0 0 0
0 0 0
0 0 0
0 0 0
0 0 0
0 0 0
0 0 0
0 0 0
0 0 0
0 0 0
0 0 0
0 0 0
0 0 0
0 0 0
0 0 0
0 0 0
0 0 0
0 0 0
0 0 0
0 0 0
0 0 0
0 0 0
0 0 0
0 0 0
0 0 0
0 0 0
0 0 0
0 0 0
0 0 0
0 0 0
0 0 0
0 0 0
0 0 0
0 0 0
0 0 0
0 0 0
0 0 0
0 0 0
0 0 0
0 0 0
0 0 0
0 0 0
0 0 0
0 0 0
0 0 0
0 0 0
0 0 0
0 0 0
0 0 0
0 0 0
0 0 0
0 0 0
0 0 0
0 0 0
0 0 0
0 0 0
0 0 0
0 0 0
0 0 0
0 0 0
0 0 0
0 0 0
0 0 0
0 0 0
0 0 0
0 0 0
0 0 0
0 0 0
0 0 0
0 0 0
0 0 0
0 0 0
0 0 0
0 0 0
0 0 0
0 0 0
0 0 0
0 0 0
0 0 0
0 0 0
0 0 0
0 0 0
0 0 0
0 0 0
0 0 0
0 0 0
0 0 0
0 0 0
0 0 0
0 0 0
0 0 0
0 0 0
0 0 0
0 0 0
0 0 0
0 0 0
0 0 0
0 0 0
0 0 0
0 0 0
0 0 0
0 0 0
0 0 0
0 0 0
0 0 0
0 0 0
0 0 0
0 0 0
0 0 0
0 0 0
0 0 0
0 0 0
0 0 0
0 0 0
0 0 0
0 0 0
0 0 0
0 0 0
0 0 0
0 0 0
0 0 0
0 0 0
0 0 0
0 0 0
0 0 0
0 0 0
0 0 0
0 0 0
0 0 0
0 0 0
0 0 0
0 0 0
0 0 0
0 0 0
0 0 0
0 0 0
0 0 0
0 0 0
0 0 0
0 0 0
0 0 0
0 0 0
0 0 0
0 0 0
0 0 0
0 0 0
0 0 0
0 0 0
0 0 0
0 0 0
0 0 0
0 0 0
0 0 0
0 0 0
0 0 0
0 0 0
0 0 0
0 0 0
0 0 0
0 0 0
0 0 0
0 0 0
0 0 0
0 0 0
0 0 0
0 0 0
0 0 0
0 0 0
0 0 0
0 0 0
0 0 0
247 181 116
248 182 116
249 182 116
250 183 116
251 183 116
252 184 116
253 184 116
254 185 116
0 58 117
1 59 117
2 59 117
3 60 117
4 60 117
5 61 117
6 61 117
7 62 117
0 0 0
0 0 0
0 0 0
0 0 0
0 0 0
0 0 0
0 0 0
0 0 0
0 0 0
0 0 0
0 0 0
0 0 0
0 0 0
0 0 0
0 0 0
0 0 0
0 0 0
0 0 0
0 0 0
0 0 0
0 0 0
0 0 0
0 0 0
0 0 0
0 0 0
0 0 0
0 0 0
0 0 0
0 0 0
0 0 0
0 0 0
0 0 0
0 0 0
0 0 0
0 0 0
0 0 0
0 0 0
0 0 0
0 0 0
0 0 0
0 0 0
0 0 0
0 0 0
0 0 0
0 0 0
0 0 0
0 0 0
0 0 0
0 0 0
0 0 0
0 0 0
0 0 0
0 0 0
0 0 0
0 0 0
0 0 0
0 0 0
0 0 0
0 0 0
0 0 0
0 0 0
0 0 0
0 0 0
0 0 0
0 0 0
0 0 0
0 0 0
0 0 0
0 0 0
0 0 0
0 0 0
0 0 0
0 0 0
0 0 0
0 0 0
0 0 0
0 0 0
0 0 0
0 0 0
0 0 0
0 0 0
0 0 0
0 0 0
0 0 0
0 0 0
0 0 0
0 0 0
0 0 0
0 0 0
0 0 0
0 0 0
0 0 0
0 0 0
0 0 0
0 0 0
0 0 0
0 0 0
0 0 0
0 0 0
0 0 0
0 0 0
0 0 0
0 0 0
0 0 0
0 0 0
0 0 0
0 0 0
0 0 0
0 0 0
0 0 0
0 0 0
0 0 0
0 0 0
0 0 0
0 0 0
0 0 0
0 0 0
0 0 0
0 0 0
0 0 0
0 0 0
0 0 0
0 0 0
0 0 0
0 0 0
0 0 0
0 0 0
0 0 0
0 0 0
0 0 0
0 0 0
0 0 0
0 0 0
0 0 0
0 0 0
0 0 0
0 0 0
0 0 0
0 0 0
0 0 0
0 0 0
0 0 0
0 0 0
0 0 0
0 0 0
0 0 0
0 0 0
0 0 0
0 0 0
0 0 0
0 0 0
0 0 0
0 0 0
0 0 0
0 0 0
0 0 0
0 0 0
0 0 0
0 0 0
0 0 0
0 0 0
0 0 0
0 0 0
0 0 0
0 0 0
0 0 0
0 0 0
0 0 0
0 0 0
0 0 0
0 0 0
0 0 0
0 0 0
0 0 0
0 0 0
0 0 0
0 0 0
0 0 0
0 0 0
0 0 0
0 0 0
0 0 0
0 0 0
0 0 0
0 0 0
0 0 0
0 0 0
0 0 0
0 0 0
0 0 0
0 0 0
0 0 0
0 0 0
0 0 0
0 0 0
0 0 0
0 0 0
0 0 0
0 0 0
0 0 0
0 0 0
0 0 0
0 0 0
0 0 0
0 0 0
0 0 0
0 0 0
0 0 0
0 0 0
0 0 0
0 0 0
0 0 0
0 0 0
0 0 0
0 0 0
0 0 0
0 0 0
0 0 0
0 0 0
0 0 0
0 0 0
0 0 0
0 0 0
0 0 0
0 0 0
0 0 0
0 0 0
0 0 0
0 0 0
0 0 0
0 0 0
0 0 0
0 0 0
0 0 0
0 0 0
0 0 0
0 0 0
0 0 0
0 0 0
247 182 117
248 182 117
249 183 117
250 183 117
251 184 117
252 184 117
253 185 117
254 185 117
0 59 118
1 59 118
2 60 118
3 60 118
4 61 118
5 61 118
6 62 118
7 62 118
0 0 0
0 0 0
0 0 0
0 0 0
0 0 0
0 0 0
0 0 0
0 0 0
0 0 0
0 0 0
0 0 0
0 0 0
0 0 0
0 0 0
0 0 0
0 0 0
0 0 0
0 0 0
0 0 0
0 0 0
0 0 0
0 0 0
0 0 0
0 0 0
0 0 0
0 0 0
0 0 0
0 0 0
0 0 0
0 0 0
0 0 0
0 0 0
0 0 0
0 0 0
0 0 0
0 0 0
0 0 0
0 0 0
0 0 0
0 0 0
0 0 0
0 0 0
0 0 0
0 0 0
0 0 0
0 0 0
0 0 0
0 0 0
0 0 0
0 0 0
0 0 0
0 0 0
0 0 0
0 0 0
0 0 0
0 0 0
0 0 0
0 0 0
0 0 0
0 0 0
0 0 0
0 0 0
0 0 0
0 0 0
0 0 0
0 0 0
0 0 0
0 0 0
0 0 0
0 0 0
0 0 0
0 0 0
0 0 0
0 0 0
0 0 0
0 0 0
0 0 0
0 0 0
0 0 0
0 0 0
0 0 0
0 0 0
0 0 0
0 0 0
0 0 0
0 0 0
0 0 0
0 0 0
0 0 0
0 0 0
0 0 0
0 0 0
0 0 0
0 0 0
0 0 0
0 0 0
0 0 0
0 0 0
0 0 0
0 0 0
0 0 0
0 0 0
0 0 0
0 0 0
0 0 0
0 0 0
0 0 0
0 0 0
0 0 0
0 0 0
0 0 0
0 0 0
0 0 0
0 0 0
0 0 0
0 0 0
0 0 0
0 0 0
0 0 0
0 0 0
0 0 0
0 0 0
0 0 0
0 0 0
0 0 0
0 0 0
0 0 0
0 0 0
0 0 0
0 0 0
0 0 0
0 0 0
0 0 0
0 0 0
0 0 0
0 0 0
0 0 0
0 0 0
0 0 0
0 0 0
0 0 0
0 0 0
0 0 0
0 0 0
0 0 0
0 0 0
0 0 0
0 0 0
0 0 0
0 0 0
0 0 0
0 0 0
0 0 0
0 0 0
0 0 0
0 0 0
0 0 0
0 0 0
0 0 0
0 0 0
0 0 0
0 0 0
0 0 0
0 0 0
0 0 0
0 0 0
0 0 0
0 0 0
0 0 0
0 0 0
0 0 0
0 0 0
0 0 0
0 0 0
0 0 0
0 0 0
0 0 0
0 0 0
0 0 0
0 0 0
0 0 0
0 0 0
0 0 0
0 0 0
0 0 0
0 0 0
0 0 0
0 0 0
0 0 0
0 0 0
0 0 0
0 0 0
0 0 0
0 0 0
0 0 0
0 0 0
0 0 0
0 0 0
0 0 0
0 0 0
0 0 0
0 0 0
0 0 0
0 0 0
0 0 0
0 0 0
0 0 0
0 0 0
0 0 0
0 0 0
0 0 0
0 0 0
0 0 0
0 0 0
0 0 0
0 0 0
0 0 0
0 0 0
0 0 0
0 0 0
0 0 0
0 0 0
0 0 0
0 0 0
0 0 0
0 0 0
0 0 0
0 0 0
0 0 0
0 0 0
0 0 0
0 0 0
0 0 0
0 0 0
0 0 0
0 0 0
0 0 0
0 0 0
0 0 0
247 182 118
248 183 118
249 183 118
250 184 118
251 184 118
252 185 118
253 185 118
254 186 118
0 59 119
1 60 119
2 60 119
3 61 119
4 61 119
5 62 119
6 62 119
7 63 119
0 0 0
0 0 0
0 0 0
0 0 0
0 0 0
0 0 0
0 0 0
0 0 0
0 0 0
0 0 0
0 0 0
0 0 0
0 0 0
0 0 0
0 0 0
0 0 0
0 0 0
0 0 0
0 0 0
0 0 0
0 0 0
0 0 0
0 0 0
0 0 0
0 0 0
0 0 0
0 0 0
0 0 0
0 0 0
0 0 0
0 0 0
0 0 0
0 0 0
0 0 0
0 0 0
0 0 0
0 0 0
0 0 0
0 0 0
0 0 0
0 0 0
0 0 0
0 0 0
0 0 0
0 0 0
0 0 0
0 0 0
0 0 0
0 0 0
0 0 0
0 0 0
0 0 0
0 0 0
0 0 0
0 0 0
0 0 0
0 0 0
0 0 0
0 0 0
0 0 0
0 0 0
0 0 0
0 0 0
0 0 0
0 0 0
0 0 0
0 0 0
0 0 0
0 0 0
0 0 0
0 0 0
0 0 0
0 0 0
0 0 0
0 0 0
0 0 0
0 0 0
0 0 0
0 0 0
0 0 0
0 0 0
0 0 0
0 0 0
0 0 0
0 0 0
0 0 0
0 0 0
0 0 0
0 0 0
0 0 0
0 0 0
0 0 0
0 0 0
0 0 0
0 0 0
0 0 0
0 0 0
0 0 0
0 0 0
0 0 0
0 0 0
0 0 0
0 0 0
0 0 0
0 0 0
0 0 0
0 0 0
0 0 0
0 0 0
0 0 0
0 0 0
0 0 0
0 0 0
0 0 0
0 0 0
0 0 0
0 0 0
0 0 0
0 0 0
0 0 0
0 0 0
0 0 0
0 0 0
0 0 0
0 0 0
0 0 0
0 0 0
0 0 0
0 0 0
0 0 0
0 0 0
0 0 0
0 0 0
0 0 0
0 0 0
0 0 0
0 0 0
0 0 0
0 0 0
0 0 0
0 0 0
0 0 0
0 0 0
0 0 0
0 0 0
0 0 0
0 0 0
0 0 0
0 0 0
0 0 0
0 0 0
0 0 0
0 0 0
0 0 0
0 0 0
0 0 0
0 0 0
0 0 0
0 0 0
0 0 0
0 0 0
0 0 0
0 0 0
0 0 0
0 0 0
0 0 0
0 0 0
0 0 0
0 0 0
0 0 0
0 0 0
0 0 0
0 0 0
0 0 0
0 0 0
0 0 0
0 0 0
0 0 0
0 0 0
0 0 0
0 0 0
0 0 0
0 0 0
0 0 0
0 0 0
0 0 0
0 0 0
0 0 0
0 0 0
0 0 0
0 0 0
0 0 0
0 0 0
0 0 0
0 0 0
0 0 0
0 0 0
0 0 0
0 0 0
0 0 0
0 0 0
0 0 0
0 0 0
0 0 0
0 0 0
0 0 0
0 0 0
0 0 0
0 0 0
0 0 0
0 0 0
0 0 0
0 0 0
0 0 0
0 0 0
0 0 0
0 0 0
0 0 0
0 0 0
0 0 0
0 0 0
0 0 0
0 0 0
0 0 0
0 0 0
0 0 0
0 0 0
0 0 0
0 0 0
0 0 0
0 0 0
0 0 0
0 0 0
0 0 0
0 0 0
0 0 0
0 0 0
0 0 0
0 0 0
247 183 119
248 183 119
249 184 119
250 184 119
251 185 119
252 185 119
253 186 119
254 186 119
0 60 120
1 60 120
2 61 120
3 61 120
4 62 120
5 62 120
6 63 120
7 63 120
0 0 0
0 0 0
0 0 0
0 0 0
0 0 0
0 0 0
0 0 0
0 0 0
0 0 0
0 0 0
0 0 0
0 0 0
0 0 0
0 0 0
0 0 0
0 0 0
0 0 0
0 0 0
0 0 0
0 0 0
0 0 0
0 0 0
0 0 0
0 0 0
0 0 0
0 0 0
0 0 0
0 0 0
0 0 0
0 0 0
0 0 0
0 0 0
0 0 0
0 0 0
0 0 0
0 0 0
0 0 0
0 0 0
0 0 0
0 0 0
0 0 0
0 0 0
0 0 0
0 0 0
0 0 0
0 0 0
0 0 0
0 0 0
0 0 0
0 0 0
0 0 0
0 0 0
0 0 0
0 0 0
0 0 0
0 0 0
0 0 0
0 0 0
0 0 0
0 0 0
0 0 0
0 0 0
0 0 0
0 0 0
0 0 0
0 0 0
0 0 0
0 0 0
0 0 0
0 0 0
0 0 0
0 0 0
0 0 0
0 0 0
0 0 0
0 0 0
0 0 0
0 0 0
0 0 0
0 0 0
0 0 0
0 0 0
0 0 0
0 0 0
0 0 0
0 0 0
0 0 0
0 0 0
0 0 0
0 0 0
0 0 0
0 0 0
0 0 0
0 0 0
0 0 0
0 0 0
0 0 0
0 0 0
0 0 0
0 0 0
0 0 0
0 0 0
0 0 0
0 0 0
0 0 0
0 0 0
0 0 0
0 0 0
0 0 0
0 0 0
0 0 0
0 0 0
0 0 0
0 0 0
0 0 0
0 0 0
0 0 0
0 0 0
0 0 0
0 0 0
0 0 0
0 0 0
0 0 0
0 0 0
0 0 0
0 0 0
0 0 0
0 0 0
0 0 0
0 0 0
0 0 0
0 0 0
0 0 0
0 0 0
0 0 0
0 0 0
0 0 0
0 0 0
0 0 0
0 0 0
0 0 0
0 0 0
0 0 0
0 0 0
0 0 0
0 0 0
0 0 0
0 0 0
0 0 0
0 0 0
0 0 0
0 0 0
0 0 0
0 0 0
0 0 0
0 0 0
0 0 0
0 0 0
0 0 0
0 0 0
0 0 0
0 0 0
0 0 0
0 0 0
0 0 0
0 0 0
0 0 0
0 0 0
0 0 0
0 0 0
0 0 0
0 0 0
0 0 0
0 0 0
0 0 0
0 0 0
0 0 0
0 0 0
0 0 0
0 0 0
0 0 0
0 0 0
0 0 0
0 0 0
0 0 0
0 0 0
0 0 0
0 0 0
0 0 0
0 0 0
0 0 0
0 0 0
0 0 0
0 0 0
0 0 0
0 0 0
0 0 0
0 0 0
0 0 0
0 0 0
0 0 0
0 0 0
0 0 0
0 0 0
0 0 0
0 0 0
0 0 0
0 0 0
0 0 0
0 0 0
0 0 0
0 0 0
0 0 0
0 0 0
0 0 0
0 0 0
0 0 0
0 0 0
0 0 0
0 0 0
0 0 0
0 0 0
0 0 0
0 0 0
0 0 0
0 0 0
0 0 0
0 0 0
0 0 0
0 0 0
0 0 0
0 0 0
0 0 0
0 0 0
0 0 0
0 0 0
0 0 0
0 0 0
0 0 0
247 183 120
248 184 120
249 184 120
250 185 120
251 185 120
252 186 120
253 186 120
254 187 120
0 60 121
1 61 121
2 61 121
3 62 121
4 62 121
5 63 121
6 63 121
7 64 121
0 0 0
0 0 0
0 0 0
0 0 0
0 0 0
0 0 0
0 0 0
0 0 0
0 0 0
0 0 0
0 0 0
0 0 0
0 0 0
0 0 0
0 0 0
0 0 0
0 0 0
0 0 0
0 0 0
0 0 0
0 0 0
0 0 0
0 0 0
0 0 0
0 0 0
0 0 0
0 0 0
0 0 0
0 0 0
0 0 0
0 0 0
0 0 0
0 0 0
0 0 0
0 0 0
0 0 0
0 0 0
0 0 0
0 0 0
0 0 0
0 0 0
0 0 0
0 0 0
0 0 0
0 0 0
0 0 0
0 0 0
0 0 0
0 0 0
0 0 0
0 0 0
0 0 0
0 0 0
0 0 0
0 0 0
0 0 0
0 0 0
0 0 0
0 0 0
0 0 0
0 0 0
0 0 0
0 0 0
0 0 0
0 0 0
0 0 0
0 0 0
0 0 0
0 0 0
0 0 0
0 0 0
0 0 0
0 0 0
0 0 0
0 0 0
0 0 0
0 0 0
0 0 0
0 0 0
0 0 0
0 0 0
0 0 0
0 0 0
0 0 0
0 0 0
0 0 0
0 0 0
0 0 0
0 0 0
0 0 0
0 0 0
0 0 0
0 0 0
0 0 0
0 0 0
0 0 0
0 0 0
0 0 0
0 0 0
0 0 0
0 0 0
0 0 0
0 0 0
0 0 0
0 0 0
0 0 0
0 0 0
0 0 0
0 0 0
0 0 0
0 0 0
0 0 0
0 0 0
0 0 0
0 0 0
0 0 0
0 0 0
0 0 0
0 0 0
0 0 0
0 0 0
0 0 0
0 0 0
0 0 0
0 0 0
0 0 0
0 0 0
0 0 0
0 0 0
0 0 0
0 0 0
0 0 0
0 0 0
0 0 0
0 0 0
0 0 0
0 0 0
0 0 0
0 0 0
0 0 0
0 0 0
0 0 0
0 0 0
0 0 0
0 0 0
0 0 0
0 0 0
0 0 0
0 0 0
0 0 0
0 0 0
0 0 0
0 0 0
0 0 0
0 0 0
0 0 0
0 0 0
0 0 0
0 0 0
0 0 0
0 0 0
0 0 0
0 0 0
0 0 0
0 0 0
0 0 0
0 0 0
0 0 0
0 0 0
0 0 0
0 0 0
0 0 0
0 0 0
0 0 0
0 0 0
0 0 0
0 0 0
0 0 0
0 0 0
0 0 0
0 0 0
0 0 0
0 0 0
0 0 0
0 0 0
0 0 0
0 0 0
0 0 0
0 0 0
0 0 0
0 0 0
0 0 0
0 0 0
0 0 0
0 0 0
0 0 0
0 0 0
0 0 0
0 0 0
0 0 0
0 0 0
0 0 0
0 0 0
0 0 0
0 0 0
0 0 0
0 0 0
0 0 0
0 0 0
0 0 0
0 0 0
0 0 0
0 0 0
0 0 0
0 0 0
0 0 0
0 0 0
0 0 0
0 0 0
0 0 0
0 0 0
0 0 0
0 0 0
0 0 0
0 0 0
0 0 0
0 0 0
0 0 0
0 0 0
0 0 0
0 0 0
0 0 0
0 0 0
0 0 0
0 0 0
0 0 0
0 0 0
0 0 0
0 0 0
247 184 121
248 184 121
249 185 121
250 185 121
251 186 121
252 186 121
253 187 121
254 187 121
0 61 122
1 61 122
2 62 122
3 62 122
4 63 122
5 63 122
6 64 122
7 64 122
0 0 0
0 0 0
0 0 0
0 0 0
0 0 0
0 0 0
0 0 0
0 0 0
0 0 0
0 0 0
0 0 0
0 0 0
0 0 0
0 0 0
0 0 0
0 0 0
0 0 0
0 0 0
0 0 0
0 0 0
0 0 0
0 0 0
0 0 0
0 0 0
0 0 0
0 0 0
0 0 0
0 0 0
0 0 0
0 0 0
0 0 0
0 0 0
0 0 0
0 0 0
0 0 0
0 0 0
0 0 0
0 0 0
0 0 0
0 0 0
0 0 0
0 0 0
0 0 0
0 0 0
0 0 0
0 0 0
0 0 0
0 0 0
0 0 0
0 0 0
0 0 0
0 0 0
0 0 0
0 0 0
0 0 0
0 0 0
0 0 0
0 0 0
0 0 0
0 0 0
0 0 0
0 0 0
0 0 0
0 0 0
0 0 0
0 0 0
0 0 0
0 0 0
0 0 0
0 0 0
0 0 0
0 0 0
0 0 0
0 0 0
0 0 0
0 0 0
0 0 0
0 0 0
0 0 0
0 0 0
0 0 0
0 0 0
0 0 0
0 0 0
0 0 0
0 0 0
0 0 0
0 0 0
0 0 0
0 0 0
0 0 0
0 0 0
0 0 0
0 0 0
0 0 0
0 0 0
0 0 0
0 0 0
0 0 0
0 0 0
0 0 0
0 0 0
0 0 0
0 0 0
0 0 0
0 0 0
0 0 0
0 0 0
0 0 0
0 0 0
0 0 0
0 0 0
0 0 0
0 0 0
0 0 0
0 0 0
0 0 0
0 0 0
0 0 0
0 0 0
0 0 0
0 0 0
0 0 0
0 0 0
0 0 0
0 0 0
0 0 0
0 0 0
0 0 0
0 0 0
0 0 0
0 0 0
0 0 0
0 0 0
0 0 0
0 0 0
0 0 0
0 0 0
0 0 0
0 0 0
0 0 0
0 0 0
0 0 0
0 0 0
0 0 0
0 0 0
0 0 0
0 0 0
0 0 0
0 0 0
0 0 0
0 0 0
0 0 0
0 0 0
0 0 0
0 0 0
0 0 0
0 0 0
0 0 0
0 0 0
0 0 0
0 0 0
0 0 0
0 0 0
0 0 0
0 0 0
0 0 0
0 0 0
0 0 0
0 0 0
0 0 0
0 0 0
0 0 0
0 0 0
0 0 0
0 0 0
0 0 0
0 0 0
0 0 0
0 0 0
0 0 0
0 0 0
0 0 0
0 0 0
0 0 0
0 0 0
0 0 0
0 0 0
0 0 0
0 0 0
0 0 0
0 0 0
0 0 0
0 0 0
0 0 0
0 0 0
0 0 0
0 0 0
0 0 0
0 0 0
0 0 0
0 0 0
0 0 0
0 0 0
0 0 0
0 0 0
0 0 0
0 0 0
0 0 0
0 0 0
0 0 0
0 0 0
0 0 0
0 0 0
0 0 0
0 0 0
0 0 0
0 0 0
0 0 0
0 0 0
0 0 0
0 0 0
0 0 0
0 0 0
0 0 0
0 0 0
0 0 0
0 0 0
0 0 0
0 0 0
0 0 0
0 0 0
0 0 0
0 0 0
0 0 0
0 0 0
0 0 0
0 0 0
0 0 0
247 184 122
248 185 122
249 185 122
250 186 122
251 186 122
252 187 122
253 187 122
254 188 122
0 61 123
1 62 123
2 62 123
3 63 123
4 63 123
5 64 123
6 64 123
7 65 123
0 0 0
0 0 0
0 0 0
0 0 0
0 0 0
0 0 0
0 0 0
0 0 0
0 0 0
0 0 0
0 0 0
0 0 0
0 0 0
0 0 0
0 0 0
0 0 0
0 0 0
0 0 0
0 0 0
0 0 0
0 0 0
0 0 0
0 0 0
0 0 0
0 0 0
0 0 0
0 0 0
0 0 0
0 0 0
0 0 0
0 0 0
0 0 0
0 0 0
0 0 0
0 0 0
0 0 0
0 0 0
0 0 0
0 0 0
0 0 0
0 0 0
0 0 0
0 0 0
0 0 0
0 0 0
0 0 0
0 0 0
0 0 0
0 0 0
0 0 0
0 0 0
0 0 0
0 0 0
0 0 0
0 0 0
0 0 0
0 0 0
0 0 0
0 0 0
0 0 0
0 0 0
0 0 0
0 0 0
0 0 0
0 0 0
0 0 0
0 0 0
0 0 0
0 0 0
0 0 0
0 0 0
0 0 0
0 0 0
0 0 0
0 0 0
0 0 0
0 0 0
0 0 0
0 0 0
0 0 0
0 0 0
0 0 0
0 0 0
0 0 0
0 0 0
0 0 0
0 0 0
0 0 0
0 0 0
0 0 0
0 0 0
0 0 0
0 0 0
0 0 0
0 0 0
0 0 0
0 0 0
0 0 0
0 0 0
0 0 0
0 0 0
0 0 0
0 0 0
0 0 0
0 0 0
0 0 0
0 0 0
0 0 0
0 0 0
0 0 0
0 0 0
0 0 0
0 0 0
0 0 0
0 0 0
0 0 0
0 0 0
0 0 0
0 0 0
0 0 0
0 0 0
0 0 0
0 0 0
0 0 0
0 0 0
0 0 0
0 0 0
0 0 0
0 0 0
0 0 0
0 0 0
0 0 0
0 0 0
0 0 0
0 0 0
0 0 0
0 0 0
0 0 0
0 0 0
0 0 0
0 0 0
0 0 0
0 0 0
0 0 0
0 0 0
0 0 0
0 0 0
0 0 0
0 0 0
0 0 0
0 0 0
0 0 0
0 0 0
0 0 0
0 0 0
0 0 0
0 0 0
0 0 0
0 0 0
0 0 0
0 0 0
0 0 0
0 0 0
0 0 0
0 0 0
0 0 0
0 0 0
0 0 0
0 0 0
0 0 0
0 0 0
0 0 0
0 0 0
0 0 0
0 0 0
0 0 0
0 0 0
0 0 0
0 0 0
0 0 0
0 0 0
0 0 0
0 0 0
0 0 0
0 0 0
0 0 0
0 0 0
0 0 0
0 0 0
0 0 0
0 0 0
0 0 0
0 0 0
0 0 0
0 0 0
0 0 0
0 0 0
0 0 0
0 0 0
0 0 0
0 0 0
0 0 0
0 0 0
0 0 0
0 0 0
0 0 0
0 0 0
0 0 0
0 0 0
0 0 0
0 0 0
0 0 0
0 0 0
0 0 0
0 0 0
0 0 0
0 0 0
0 0 0
0 0 0
0 0 0
0 0 0
0 0 0
0 0 0
0 0 0
0 0 0
0 0 0
0 0 0
0 0 0
0 0 0
0 0 0
0 0 0
0 0 0
0 0 0
0 0 0
0 0 0
0 0 0
0 0 0
0 0 0
0 0 0
247 185 123
248 185 123
249 186 123
250 186 123
251 187 123
252 187 123
253 188 123
254 188 123
0 62 124
1 62 124
2 63 124
3 63 124
4 64 124
5 64 124
6 65 124
7 65 124
0 0 0
0 0 0
0 0 0
0 0 0
0 0 0
0 0 0
0 0 0
0 0 0
0 0 0
0 0 0
0 0 0
0 0 0
0 0 0
0 0 0
0 0 0
0 0 0
0 0 0
0 0 0
0 0 0
0 0 0
0 0 0
0 0 0
0 0 0
0 0 0
0 0 0
0 0 0
0 0 0
0 0 0
0 0 0
0 0 0
0 0 0
0 0 0
0 0 0
0 0 0
0 0 0
0 0 0
0 0 0
0 0 0
0 0 0
0 0 0
0 0 0
0 0 0
0 0 0
0 0 0
0 0 0
0 0 0
0 0 0
0 0 0
0 0 0
0 0 0
0 0 0
0 0 0
0 0 0
0 0 0
0 0 0
0 0 0
0 0 0
0 0 0
0 0 0
0 0 0
0 0 0
0 0 0
0 0 0
0 0 0
0 0 0
0 0 0
0 0 0
0 0 0
0 0 0
0 0 0
0 0 0
0 0 0
0 0 0
0 0 0
0 0 0
0 0 0
0 0 0
0 0 0
0 0 0
0 0 0
0 0 0
0 0 0
0 0 0
0 0 0
0 0 0
0 0 0
0 0 0
0 0 0
0 0 0
0 0 0
0 0 0
0 0 0
0 0 0
0 0 0
0 0 0
0 0 0
0 0 0
0 0 0
0 0 0
0 0 0
0 0 0
0 0 0
0 0 0
0 0 0
0 0 0
0 0 0
0 0 0
0 0 0
0 0 0
0 0 0
0 0 0
0 0 0
0 0 0
0 0 0
0 0 0
0 0 0
0 0 0
0 0 0
0 0 0
0 0 0
0 0 0
0 0 0
0 0 0
0 0 0
0 0 0
0 0 0
0 0 0
0 0 0
0 0 0
0 0 0
0 0 0
0 0 0
0 0 0
0 0 0
0 0 0
0 0 0
0 0 0
0 0 0
0 0 0
0 0 0
0 0 0
0 0 0
0 0 0
0 0 0
0 0 0
0 0 0
0 0 0
0 0 0
0 0 0
0 0 0
0 0 0
0 0 0
0 0 0
0 0 0
0 0 0
0 0 0
0 0 0
0 0 0
0 0 0
0 0 0
0 0 0
0 0 0
0 0 0
0 0 0
0 0 0
0 0 0
0 0 0
0 0 0
0 0 0
0 0 0
0 0 0
0 0 0
0 0 0
0 0 0
0 0 0
0 0 0
0 0 0
0 0 0
0 0 0
0 0 0
0 0 0
0 0 0
0 0 0
0 0 0
0 0 0
0 0 0
0 0 0
0 0 0
0 0 0
0 0 0
0 0 0
0 0 0
0 0 0
0 0 0
0 0 0
0 0 0
0 0 0
0 0 0
0 0 0
0 0 0
0 0 0
0 0 0
0 0 0
0 0 0
0 0 0
0 0 0
0 0 0
0 0 0
0 0 0
0 0 0
0 0 0
0 0 0
0 0 0
0 0 0
0 0 0
0 0 0
0 0 0
0 0 0
0 0 0
0 0 0
0 0 0
0 0 0
0 0 0
0 0 0
0 0 0
0 0 0
0 0 0
0 0 0
0 0 0
0 0 0
0 0 0
0 0 0
0 0 0
0 0 0
0 0 0
0 0 0
0 0 0
0 0 0
0 0 0
247 185 124
248 186 124
249 186 124
250 187 124
251 187 124
252 188 124
253 188 124
254 189 124
0 62 125
1 63 125
2 63 125
3 64 125
4 64 125
5 65 125
6 65 125
7 66 125
0 0 0
0 0 0
0 0 0
0 0 0
0 0 0
0 0 0
0 0 0
0 0 0
0 0 0
0 0 0
0 0 0
0 0 0
0 0 0
0 0 0
0 0 0
0 0 0
0 0 0
0 0 0
0 0 0
0 0 0
0 0 0
0 0 0
0 0 0
0 0 0
0 0 0
0 0 0
0 0 0
0 0 0
0 0 0
0 0 0
0 0 0
0 0 0
0 0 0
0 0 0
0 0 0
0 0 0
0 0 0
0 0 0
0 0 0
0 0 0
0 0 0
0 0 0
0 0 0
0 0 0
0 0 0
0 0 0
0 0 0
0 0 0
0 0 0
0 0 0
0 0 0
0 0 0
0 0 0
0 0 0
0 0 0
0 0 0
0 0 0
0 0 0
0 0 0
0 0 0
0 0 0
0 0 0
0 0 0
0 0 0
0 0 0
0 0 0
0 0 0
0 0 0
0 0 0
0 0 0
0 0 0
0 0 0
0 0 0
0 0 0
0 0 0
0 0 0
0 0 0
0 0 0
0 0 0
0 0 0
0 0 0
0 0 0
0 0 0
0 0 0
0 0 0
0 0 0
0 0 0
0 0 0
0 0 0
0 0 0
0 0 0
0 0 0
0 0 0
0 0 0
0 0 0
0 0 0
0 0 0
0 0 0
0 0 0
0 0 0
0 0 0
0 0 0
0 0 0
0 0 0
0 0 0
0 0 0
0 0 0
0 0 0
0 0 0
0 0 0
0 0 0
0 0 0
0 0 0
0 0 0
0 0 0
0 0 0
0 0 0
0 0 0
0 0 0
0 0 0
0 0 0
0 0 0
0 0 0
0 0 0
0 0 0
0 0 0
0 0 0
0 0 0
0 0 0
0 0 0
0 0 0
0 0 0
0 0 0
0 0 0
0 0 0
0 0 0
0 0 0
0 0 0
0 0 0
0 0 0
0 0 0
0 0 0
0 0 0
0 0 0
0 0 0
0 0 0
0 0 0
0 0 0
0 0 0
0 0 0
0 0 0
0 0 0
0 0 0
0 0 0
0 0 0
0 0 0
0 0 0
0 0 0
0 0 0
0 0 0
0 0 0
0 0 0
0 0 0
0 0 0
0 0 0
0 0 0
0 0 0
0 0 0
0 0 0
0 0 0
0 0 0
0 0 0
0 0 0
0 0 0
0 0 0
0 0 0
0 0 0
0 0 0
0 0 0
0 0 0
0 0 0
0 0 0
0 0 0
0 0 0
0 0 0
0 0 0
0 0 0
0 0 0
0 0 0
0 0 0
0 0 0
0 0 0
0 0 0
0 0 0
0 0 0
0 0 0
0 0 0
0 0 0
0 0 0
0 0 0
0 0 0
0 0 0
0 0 0
0 0 0
0 0 0
0 0 0
0 0 0
0 0 0
0 0 0
0 0 0
0 0 0
0 0 0
0 0 0
0 0 0
0 0 0
0 0 0
0 0 0
0 0 0
0 0 0
0 0 0
0 0 0
0 0 0
0 0 0
0 0 0
0 0 0
0 0 0
0 0 0
0 0 0
0 0 0
0 0 0
0 0 0
0 0 0
0 0 0
0 0 0
0 0 0
0 0 0
0 0 0
0 0 0
0 0 0
247 186 125
248 186 125
249 187 125
250 187 125
251 188 125
252 188 125
253 189 125
254 189 125
0 63 126
1 63 126
2 64 126
3 64 126
4 65 126
5 65 126
6 66 126
7 66 126
0 0 0
0 0 0
0 0 0
0 0 0
0 0 0
0 0 0
0 0 0
0 0 0
0 0 0
0 0 0
0 0 0
0 0 0
0 0 0
0 0 0
0 0 0
0 0 0
0 0 0
0 0 0
0 0 0
0 0 0
0 0 0
0 0 0
0 0 0
0 0 0
0 0 0
0 0 0
0 0 0
0 0 0
0 0 0
0 0 0
0 0 0
0 0 0
0 0 0
0 0 0
0 0 0
0 0 0
0 0 0
0 0 0
0 0 0
0 0 0
0 0 0
0 0 0
0 0 0
0 0 0
0 0 0
0 0 0
0 0 0
0 0 0
0 0 0
0 0 0
0 0 0
0 0 0
0 0 0
0 0 0
0 0 0
0 0 0
0 0 0
0 0 0
0 0 0
0 0 0
0 0 0
0 0 0
0 0 0
0 0 0
0 0 0
0 0 0
0 0 0
0 0 0
0 0 0
0 0 0
0 0 0
0 0 0
0 0 0
0 0 0
0 0 0
0 0 0
0 0 0
0 0 0
0 0 0
0 0 0
0 0 0
0 0 0
0 0 0
0 0 0
0 0 0
0 0 0
0 0 0
0 0 0
0 0 0
0 0 0
0 0 0
0 0 0
0 0 0
0 0 0
0 0 0
0 0 0
0 0 0
0 0 0
0 0 0
0 0 0
0 0 0
0 0 0
0 0 0
0 0 0
0 0 0
0 0 0
0 0 0
0 0 0
0 0 0
0 0 0
0 0 0
0 0 0
0 0 0
0 0 0
0 0 0
0 0 0
0 0 0
0 0 0
0 0 0
0 0 0
0 0 0
0 0 0
0 0 0
0 0 0
0 0 0
0 0 0
0 0 0
0 0 0
0 0 0
0 0 0
0 0 0
0 0 0
0 0 0
0 0 0
0 0 0
0 0 0
0 0 0
0 0 0
0 0 0
0 0 0
0 0 0
0 0 0
0 0 0
0 0 0
0 0 0
0 0 0
0 0 0
0 0 0
0 0 0
0 0 0
0 0 0
0 0 0
0 0 0
0 0 0
0 0 0
0 0 0
0 0 0
0 0 0
0 0 0
0 0 0
0 0 0
0 0 0
0 0 0
0 0 0
0 0 0
0 0 0
0 0 0
0 0 0
0 0 0
0 0 0
0 0 0
0 0 0
0 0 0
0 0 0
0 0 0
0 0 0
0 0 0
0 0 0
0 0 0
0 0 0
0 0 0
0 0 0
0 0 0
0 0 0
0 0 0
0 0 0
0 0 0
0 0 0
0 0 0
0 0 0
0 0 0
0 0 0
0 0 0
0 0 0
0 0 0
0 0 0
0 0 0
0 0 0
0 0 0
0 0 0
0 0 0
0 0 0
0 0 0
0 0 0
0 0 0
0 0 0
0 0 0
0 0 0
0 0 0
0 0 0
0 0 0
0 0 0
0 0 0
0 0 0
0 0 0
0 0 0
0 0 0
0 0 0
0 0 0
0 0 0
0 0 0
0 0 0
0 0 0
0 0 0
0 0 0
0 0 0
0 0 0
0 0 0
0 0 0
0 0 0
0 0 0
0 0 0
0 0 0
0 0 0
0 0 0
0 0 0
0 0 0
0 0 0
0 0 0
247 186 126
248 187 126
249 187 126
250 188 126
251 188 126
252 189 126
253 189 126
254 190 126
0 63 127
1 64 127
2 64 127
3 65 127
4 65 127
5 66 127
6 66 127
7 67 127
0 0 0
0 0 0
0 0 0
0 0 0
0 0 0
0 0 0
0 0 0
0 0 0
0 0 0
0 0 0
0 0 0
0 0 0
0 0 0
0 0 0
0 0 0
0 0 0
0 0 0
0 0 0
0 0 0
0 0 0
0 0 0
0 0 0
0 0 0
0 0 0
0 0 0
0 0 0
0 0 0
0 0 0
0 0 0
0 0 0
0 0 0
0 0 0
0 0 0
0 0 0
0 0 0
0 0 0
0 0 0
0 0 0
0 0 0
0 0 0
0 0 0
0 0 0
0 0 0
0 0 0
0 0 0
0 0 0
0 0 0
0 0 0
0 0 0
0 0 0
0 0 0
0 0 0
0 0 0
0 0 0
0 0 0
0 0 0
0 0 0
0 0 0
0 0 0
0 0 0
0 0 0
0 0 0
0 0 0
0 0 0
0 0 0
0 0 0
0 0 0
0 0 0
0 0 0
0 0 0
0 0 0
0 0 0
0 0 0
0 0 0
0 0 0
0 0 0
0 0 0
0 0 0
0 0 0
0 0 0
0 0 0
0 0 0
0 0 0
0 0 0
0 0 0
0 0 0
0 0 0
0 0 0
0 0 0
0 0 0
0 0 0
0 0 0
0 0 0
0 0 0
0 0 0
0 0 0
0 0 0
0 0 0
0 0 0
0 0 0
0 0 0
0 0 0
0 0 0
0 0 0
0 0 0
0 0 0
0 0 0
0 0 0
0 0 0
0 0 0
0 0 0
0 0 0
0 0 0
0 0 0
0 0 0
0 0 0
0 0 0
0 0 0
0 0 0
0 0 0
0 0 0
0 0 0
0 0 0
0 0 0
0 0 0
0 0 0
0 0 0
0 0 0
0 0 0
0 0 0
0 0 0
0 0 0
0 0 0
0 0 0
0 0 0
0 0 0
0 0 0
0 0 0
0 0 0
0 0 0
0 0 0
0 0 0
0 0 0
0 0 0
0 0 0
0 0 0
0 0 0
0 0 0
0 0 0
0 0 0
0 0 0
0 0 0
0 0 0
0 0 0
0 0 0
0 0 0
0 0 0
0 0 0
0 0 0
0 0 0
0 0 0
0 0 0
0 0 0
0 0 0
0 0 0
0 0 0
0 0 0
0 0 0
0 0 0
0 0 0
0 0 0
0 0 0
0 0 0
0 0 0
0 0 0
0 0 0
0 0 0
0 0 0
0 0 0
0 0 0
0 0 0
0 0 0
0 0 0
0 0 0
0 0 0
0 0 0
0 0 0
0 0 0
0 0 0
0 0 0
0 0 0
0 0 0
0 0 0
0 0 0
0 0 0
0 0 0
0 0 0
0 0 0
0 0 0
0 0 0
0 0 0
0 0 0
0 0 0
0 0 0
0 0 0
0 0 0
0 0 0
0 0 0
0 0 0
0 0 0
0 0 0
0 0 0
0 0 0
0 0 0
0 0 0
0 0 0
0 0 0
0 0 0
0 0 0
0 0 0
0 0 0
0 0 0
0 0 0
0 0 0
0 0 0
0 0 0
0 0 0
0 0 0
0 0 0
0 0 0
0 0 0
0 0 0
0 0 0
0 0 0
0 0 0
0 0 0
0 0 0
0 0 0
0 0 0
247 187 127
248 187 127
249 188 127
250 188 127
251 189 127
252 189 127
253 190 127
254 190 127
0 64 128
1 64 128
2 65 128
3 65 128
4 66 128
5 66 128
6 67 128
7 67 128
0 0 0
0 0 0
0 0 0
0 0 0
0 0 0
0 0 0
0 0 0
0 0 0
0 0 0
0 0 0
0 0 0
0 0 0
0 0 0
0 0 0
0 0 0
0 0 0
0 0 0
0 0 0
0 0 0
0 0 0
0 0 0
0 0 0
0 0 0
0 0 0
0 0 0
0 0 0
0 0 0
0 0 0
0 0 0
0 0 0
0 0 0
0 0 0
0 0 0
0 0 0
0 0 0
0 0 0
0 0 0
0 0 0
0 0 0
0 0 0
0 0 0
0 0 0
0 0 0
0 0 0
0 0 0
0 0 0
0 0 0
0 0 0
0 0 0
0 0 0
0 0 0
0 0 0
0 0 0
0 0 0
0 0 0
0 0 0
0 0 0
0 0 0
0 0 0
0 0 0
0 0 0
0 0 0
0 0 0
0 0 0
0 0 0
0 0 0
0 0 0
0 0 0
0 0 0
0 0 0
0 0 0
0 0 0
0 0 0
0 0 0
0 0 0
0 0 0
0 0 0
0 0 0
0 0 0
0 0 0
0 0 0
0 0 0
0 0 0
0 0 0
0 0 0
0 0 0
0 0 0
0 0 0
0 0 0
0 0 0
0 0 0
0 0 0
0 0 0
0 0 0
0 0 0
0 0 0
0 0 0
0 0 0
0 0 0
0 0 0
0 0 0
0 0 0
0 0 0
0 0 0
0 0 0
0 0 0
0 0 0
0 0 0
0 0 0
0 0 0
0 0 0
0 0 0
0 0 0
0 0 0
0 0 0
0 0 0
0 0 0
0 0 0
0 0 0
0 0 0
0 0 0
0 0 0
0 0 0
0 0 0
0 0 0
0 0 0
0 0 0
0 0 0
0 0 0
0 0 0
0 0 0
0 0 0
0 0 0
0 0 0
0 0 0
0 0 0
0 0 0
0 0 0
0 0 0
0 0 0
0 0 0
0 0 0
0 0 0
0 0 0
0 0 0
0 0 0
0 0 0
0 0 0
0 0 0
0 0 0
0 0 0
0 0 0
0 0 0
0 0 0
0 0 0
0 0 0
0 0 0
0 0 0
0 0 0
0 0 0
0 0 0
0 0 0
0 0 0
0 0 0
0 0 0
0 0 0
0 0 0
0 0 0
0 0 0
0 0 0
0 0 0
0 0 0
0 0 0
0 0 0
0 0 0
0 0 0
0 0 0
0 0 0
0 0 0
0 0 0
0 0 0
0 0 0
0 0 0
0 0 0
0 0 0
0 0 0
0 0 0
0 0 0
0 0 0
0 0 0
0 0 0
0 0 0
0 0 0
0 0 0
0 0 0
0 0 0
0 0 0
0 0 0
0 0 0
0 0 0
0 0 0
0 0 0
0 0 0
0 0 0
0 0 0
0 0 0
0 0 0
0 0 0
0 0 0
0 0 0
0 0 0
0 0 0
0 0 0
0 0 0
0 0 0
0 0 0
0 0 0
0 0 0
0 0 0
0 0 0
0 0 0
0 0 0
0 0 0
0 0 0
0 0 0
0 0 0
0 0 0
0 0 0
0 0 0
0 0 0
0 0 0
0 0 0
0 0 0
0 0 0
0 0 0
0 0 0
0 0 0
0 0 0
0 0 0
247 187 128
248 188 128
249 188 128
250 189 128
251 189 128
252 190 128
253 190 128
254 191 128
0 64 129
1 65 129
2 65 129
3 66 129
4 66 129
5 67 129
6 67 129
7 68 129
0 0 0
0 0 0
0 0 0
0 0 0
0 0 0
0 0 0
0 0 0
0 0 0
0 0 0
0 0 0
0 0 0
0 0 0
0 0 0
0 0 0
0 0 0
0 0 0
0 0 0
0 0 0
0 0 0
0 0 0
0 0 0
0 0 0
0 0 0
0 0 0
0 0 0
0 0 0
0 0 0
0 0 0
0 0 0
0 0 0
0 0 0
0 0 0
0 0 0
0 0 0
0 0 0
0 0 0
0 0 0
0 0 0
0 0 0
0 0 0
0 0 0
0 0 0
0 0 0
0 0 0
0 0 0
0 0 0
0 0 0
0 0 0
0 0 0
0 0 0
0 0 0
0 0 0
0 0 0
0 0 0
0 0 0
0 0 0
0 0 0
0 0 0
0 0 0
0 0 0
0 0 0
0 0 0
0 0 0
0 0 0
0 0 0
0 0 0
0 0 0
0 0 0
0 0 0
0 0 0
0 0 0
0 0 0
0 0 0
0 0 0
0 0 0
0 0 0
0 0 0
0 0 0
0 0 0
0 0 0
0 0 0
0 0 0
0 0 0
0 0 0
0 0 0
0 0 0
0 0 0
0 0 0
0 0 0
0 0 0
0 0 0
0 0 0
0 0 0
0 0 0
0 0 0
0 0 0
0 0 0
0 0 0
0 0 0
0 0 0
0 0 0
0 0 0
0 0 0
0 0 0
0 0 0
0 0 0
0 0 0
0 0 0
0 0 0
0 0 0
0 0 0
0 0 0
0 0 0
0 0 0
0 0 0
0 0 0
0 0 0
0 0 0
0 0 0
0 0 0
0 0 0
0 0 0
0 0 0
0 0 0
0 0 0
0 0 0
0 0 0
0 0 0
0 0 0
0 0 0
0 0 0
0 0 0
0 0 0
0 0 0
0 0 0
0 0 0
0 0 0
0 0 0
0 0 0
0 0 0
0 0 0
0 0 0
0 0 0
0 0 0
0 0 0
0 0 0
0 0 0
0 0 0
0 0 0
0 0 0
0 0 0
0 0 0
0 0 0
0 0 0
0 0 0
0 0 0
0 0 0
0 0 0
0 0 0
0 0 0
0 0 0
0 0 0
0 0 0
0 0 0
0 0 0
0 0 0
0 0 0
0 0 0
0 0 0
0 0 0
0 0 0
0 0 0
0 0 0
0 0 0
0 0 0
0 0 0
0 0 0
0 0 0
0 0 0
0 0 0
0 0 0
0 0 0
0 0 0
0 0 0
0 0 0
0 0 0
0 0 0
0 0 0
0 0 0
0 0 0
0 0 0
0 0 0
0 0 0
0 0 0
0 0 0
0 0 0
0 0 0
0 0 0
0 0 0
0 0 0
0 0 0
0 0 0
0 0 0
0 0 0
0 0 0
0 0 0
0 0 0
0 0 0
0 0 0
0 0 0
0 0 0
0 0 0
0 0 0
0 0 0
0 0 0
0 0 0
0 0 0
0 0 0
0 0 0
0 0 0
0 0 0
0 0 0
0 0 0
0 0 0
0 0 0
0 0 0
0 0 0
0 0 0
0 0 0
0 0 0
0 0 0
0 0 0
0 0 0
0 0 0
0 0 0
0 0 0
0 0 0
0 0 0
0 0 0
247 188 129
248 188 129
249 189 129
250 189 129
251 190 129
252 190 129
253 191 129
254 191 129
0 65 130
1 65 130
2 66 130
3 66 130
4 67 130
5 67 130
6 68 130
7 68 130
0 0 0
0 0 0
0 0 0
0 0 0
0 0 0
0 0 0
0 0 0
0 0 0
0 0 0
0 0 0
0 0 0
0 0 0
0 0 0
0 0 0
0 0 0
0 0 0
0 0 0
0 0 0
0 0 0
0 0 0
0 0 0
0 0 0
0 0 0
0 0 0
0 0 0
0 0 0
0 0 0
0 0 0
0 0 0
0 0 0
0 0 0
0 0 0
0 0 0
0 0 0
0 0 0
0 0 0
0 0 0
0 0 0
0 0 0
0 0 0
0 0 0
0 0 0
0 0 0
0 0 0
0 0 0
0 0 0
0 0 0
0 0 0
0 0 0
0 0 0
0 0 0
0 0 0
0 0 0
0 0 0
0 0 0
0 0 0
0 0 0
0 0 0
0 0 0
0 0 0
0 0 0
0 0 0
0 0 0
0 0 0
0 0 0
0 0 0
0 0 0
0 0 0
0 0 0
0 0 0
0 0 0
0 0 0
0 0 0
0 0 0
0 0 0
0 0 0
0 0 0
0 0 0
0 0 0
0 0 0
0 0 0
0 0 0
0 0 0
0 0 0
0 0 0
0 0 0
0 0 0
0 0 0
0 0 0
0 0 0
0 0 0
0 0 0
0 0 0
0 0 0
0 0 0
0 0 0
0 0 0
0 0 0
0 0 0
0 0 0
0 0 0
0 0 0
0 0 0
0 0 0
0 0 0
0 0 0
0 0 0
0 0 0
0 0 0
0 0 0
0 0 0
0 0 0
0 0 0
0 0 0
0 0 0
0 0 0
0 0 0
0 0 0
0 0 0
0 0 0
0 0 0
0 0 0
0 0 0
0 0 0
0 0 0
0 0 0
0 0 0
0 0 0
0 0 0
0 0 0
0 0 0
0 0 0
0 0 0
0 0 0
0 0 0
0 0 0
0 0 0
0 0 0
0 0 0
0 0 0
0 0 0
0 0 0
0 0 0
0 0 0
0 0 0
0 0 0
0 0 0
0 0 0
0 0 0
0 0 0
0 0 0
0 0 0
0 0 0
0 0 0
0 0 0
0 0 0
0 0 0
0 0 0
0 0 0
0 0 0
0 0 0
0 0 0
0 0 0
0 0 0
0 0 0
0 0 0
0 0 0
0 0 0
0 0 0
0 0 0
0 0 0
0 0 0
0 0 0
0 0 0
0 0 0
0 0 0
0 0 0
0 0 0
0 0 0
0 0 0
0 0 0
0 0 0
0 0 0
0 0 0
0 0 0
0 0 0
0 0 0
0 0 0
0 0 0
0 0 0
0 0 0
0 0 0
0 0 0
0 0 0
0 0 0
0 0 0
0 0 0
0 0 0
0 0 0
0 0 0
0 0 0
0 0 0
0 0 0
0 0 0
0 0 0
0 0 0
0 0 0
0 0 0
0 0 0
0 0 0
0 0 0
0 0 0
0 0 0
0 0 0
0 0 0
0 0 0
0 0 0
0 0 0
0 0 0
0 0 0
0 0 0
0 0 0
0 0 0
0 0 0
0 0 0
0 0 0
0 0 0
0 0 0
0 0 0
0 0 0
0 0 0
0 0 0
0 0 0
0 0 0
0 0 0
0 0 0
0 0 0
0 0 0
0 0 0
247 188 130
248 189 130
249 189 130
250 190 130
251 190 130
252 191 130
253 191 130
254 192 130
0 65 131
1 66 131
2 66 131
3 67 131
4 67 131
5 68 131
6 68 131
7 69 131
0 0 0
0 0 0
0 0 0
0 0 0
0 0 0
0 0 0
0 0 0
0 0 0
0 0 0
0 0 0
0 0 0
0 0 0
0 0 0
0 0 0
0 0 0
0 0 0
0 0 0
0 0 0
0 0 0
0 0 0
0 0 0
0 0 0
0 0 0
0 0 0
0 0 0
0 0 0
0 0 0
0 0 0
0 0 0
0 0 0
0 0 0
0 0 0
0 0 0
0 0 0
0 0 0
0 0 0
0 0 0
0 0 0
0 0 0
0 0 0
0 0 0
0 0 0
0 0 0
0 0 0
0 0 0
0 0 0
0 0 0
0 0 0
0 0 0
0 0 0
0 0 0
0 0 0
0 0 0
0 0 0
0 0 0
0 0 0
0 0 0
0 0 0
0 0 0
0 0 0
0 0 0
0 0 0
0 0 0
0 0 0
0 0 0
0 0 0
0 0 0
0 0 0
0 0 0
0 0 0
0 0 0
0 0 0
0 0 0
0 0 0
0 0 0
0 0 0
0 0 0
0 0 0
0 0 0
0 0 0
0 0 0
0 0 0
0 0 0
0 0 0
0 0 0
0 0 0
0 0 0
0 0 0
0 0 0
0 0 0
0 0 0
0 0 0
0 0 0
0 0 0
0 0 0
0 0 0
0 0 0
0 0 0
0 0 0
0 0 0
0 0 0
0 0 0
0 0 0
0 0 0
0 0 0
0 0 0
0 0 0
0 0 0
0 0 0
0 0 0
0 0 0
0 0 0
0 0 0
0 0 0
0 0 0
0 0 0
0 0 0
0 0 0
0 0 0
0 0 0
0 0 0
0 0 0
0 0 0
0 0 0
0 0 0
0 0 0
0 0 0
0 0 0
0 0 0
0 0 0
0 0 0
0 0 0
0 0 0
0 0 0
0 0 0
0 0 0
0 0 0
0 0 0
0 0 0
0 0 0
0 0 0
0 0 0
0 0 0
0 0 0
0 0 0
0 0 0
0 0 0
0 0 0
0 0 0
0 0 0
0 0 0
0 0 0
0 0 0
0 0 0
0 0 0
0 0 0
0 0 0
0 0 0
0 0 0
0 0 0
0 0 0
0 0 0
0 0 0
0 0 0
0 0 0
0 0 0
0 0 0
0 0 0
0 0 0
0 0 0
0 0 0
0 0 0
0 0 0
0 0 0
0 0 0
0 0 0
0 0 0
0 0 0
0 0 0
0 0 0
0 0 0
0 0 0
0 0 0
0 0 0
0 0 0
0 0 0
0 0 0
0 0 0
0 0 0
0 0 0
0 0 0
0 0 0
0 0 0
0 0 0
0 0 0
0 0 0
0 0 0
0 0 0
0 0 0
0 0 0
0 0 0
0 0 0
0 0 0
0 0 0
0 0 0
0 0 0
0 0 0
0 0 0
0 0 0
0 0 0
0 0 0
0 0 0
0 0 0
0 0 0
0 0 0
0 0 0
0 0 0
0 0 0
0 0 0
0 0 0
0 0 0
0 0 0
0 0 0
0 0 0
0 0 0
0 0 0
0 0 0
0 0 0
0 0 0
0 0 0
0 0 0
0 0 0
0 0 0
0 0 0
0 0 0
0 0 0
0 0 0
0 0 0
0 0 0
247 189 131
248 189 131
249 190 131
250 190 131
251 191 131
252 191 131
253 192 131
254 192 131
0 66 132
1 66 132
2 67 132
3 67 132
4 68 132
5 68 132
6 69 132
7 69 132
0 0 0
0 0 0
0 0 0
0 0 0
0 0 0
0 0 0
0 0 0
0 0 0
0 0 0
0 0 0
0 0 0
0 0 0
0 0 0
0 0 0
0 0 0
0 0 0
0 0 0
0 0 0
0 0 0
0 0 0
0 0 0
0 0 0
0 0 0
0 0 0
0 0 0
0 0 0
0 0 0
0 0 0
0 0 0
0 0 0
0 0 0
0 0 0
0 0 0
0 0 0
0 0 0
0 0 0
0 0 0
0 0 0
0 0 0
0 0 0
0 0 0
0 0 0
0 0 0
0 0 0
0 0 0
0 0 0
0 0 0
0 0 0
0 0 0
0 0 0
0 0 0
0 0 0
0 0 0
0 0 0
0 0 0
0 0 0
0 0 0
0 0 0
0 0 0
0 0 0
0 0 0
0 0 0
0 0 0
0 0 0
0 0 0
0 0 0
0 0 0
0 0 0
0 0 0
0 0 0
0 0 0
0 0 0
0 0 0
0 0 0
0 0 0
0 0 0
0 0 0
0 0 0
0 0 0
0 0 0
0 0 0
0 0 0
0 0 0
0 0 0
0 0 0
0 0 0
0 0 0
0 0 0
0 0 0
0 0 0
0 0 0
0 0 0
0 0 0
0 0 0
0 0 0
0 0 0
0 0 0
0 0 0
0 0 0
0 0 0
0 0 0
0 0 0
0 0 0
0 0 0
0 0 0
0 0 0
0 0 0
0 0 0
0 0 0
0 0 0
0 0 0
0 0 0
0 0 0
0 0 0
0 0 0
0 0 0
0 0 0
0 0 0
0 0 0
0 0 0
0 0 0
0 0 0
0 0 0
0 0 0
0 0 0
0 0 0
0 0 0
0 0 0
0 0 0
0 0 0
0 0 0
0 0 0
0 0 0
0 0 0
0 0 0
0 0 0
0 0 0
0 0 0
0 0 0
0 0 0
0 0 0
0 0 0
0 0 0
0 0 0
0 0 0
0 0 0
0 0 0
0 0 0
0 0 0
0 0 0
0 0 0
0 0 0
0 0 0
0 0 0
0 0 0
0 0 0
0 0 0
0 0 0
0 0 0
0 0 0
0 0 0
0 0 0
0 0 0
0 0 0
0 0 0
0 0 0
0 0 0
0 0 0
0 0 0
0 0 0
0 0 0
0 0 0
0 0 0
0 0 0
0 0 0
0 0 0
0 0 0
0 0 0
0 0 0
0 0 0
0 0 0
0 0 0
0 0 0
0 0 0
0 0 0
0 0 0
0 0 0
0 0 0
0 0 0
0 0 0
0 0 0
0 0 0
0 0 0
0 0 0
0 0 0
0 0 0
0 0 0
0 0 0
0 0 0
0 0 0
0 0 0
0 0 0
0 0 0
0 0 0
0 0 0
0 0 0
0 0 0
0 0 0
0 0 0
0 0 0
0 0 0
0 0 0
0 0 0
0 0 0
0 0 0
0 0 0
0 0 0
0 0 0
0 0 0
0 0 0
0 0 0
0 0 0
0 0 0
0 0 0
0 0 0
0 0 0
0 0 0
0 0 0
0 0 0
0 0 0
0 0 0
0 0 0
0 0 0
0 0 0
0 0 0
0 0 0
0 0 0
0 0 0
0 0 0
247 189 132
248 190 132
249 190 132
250 191 132
251 191 132
252 192 132
253 192 132
254 193 132
0 66 133
1 67 133
2 67 133
3 68 133
4 68 133
5 69 133
6 69 133
7 70 133
0 0 0
0 0 0
0 0 0
0 0 0
0 0 0
0 0 0
0 0 0
0 0 0
0 0 0
0 0 0
0 0 0
0 0 0
0 0 0
0 0 0
0 0 0
0 0 0
0 0 0
0 0 0
0 0 0
0 0 0
0 0 0
0 0 0
0 0 0
0 0 0
0 0 0
0 0 0
0 0 0
0 0 0
0 0 0
0 0 0
0 0 0
0 0 0
0 0 0
0 0 0
0 0 0
0 0 0
0 0 0
0 0 0
0 0 0
0 0 0
0 0 0
0 0 0
0 0 0
0 0 0
0 0 0
0 0 0
0 0 0
0 0 0
0 0 0
0 0 0
0 0 0
0 0 0
0 0 0
0 0 0
0 0 0
0 0 0
0 0 0
0 0 0
0 0 0
0 0 0
0 0 0
0 0 0
0 0 0
0 0 0
0 0 0
0 0 0
0 0 0
0 0 0
0 0 0
0 0 0
0 0 0
0 0 0
0 0 0
0 0 0
0 0 0
0 0 0
0 0 0
0 0 0
0 0 0
0 0 0
0 0 0
0 0 0
0 0 0
0 0 0
0 0 0
0 0 0
0 0 0
0 0 0
0 0 0
0 0 0
0 0 0
0 0 0
0 0 0
0 0 0
0 0 0
0 0 0
0 0 0
0 0 0
0 0 0
0 0 0
0 0 0
0 0 0
0 0 0
0 0 0
0 0 0
0 0 0
0 0 0
0 0 0
0 0 0
0 0 0
0 0 0
0 0 0
0 0 0
0 0 0
0 0 0
0 0 0
0 0 0
0 0 0
0 0 0
0 0 0
0 0 0
0 0 0
0 0 0
0 0 0
0 0 0
0 0 0
0 0 0
0 0 0
0 0 0
0 0 0
0 0 0
0 0 0
0 0 0
0 0 0
0 0 0
0 0 0
0 0 0
0 0 0
0 0 0
0 0 0
0 0 0
0 0 0
0 0 0
0 0 0
0 0 0
0 0 0
0 0 0
0 0 0
0 0 0
0 0 0
0 0 0
0 0 0
0 0 0
0 0 0
0 0 0
0 0 0
0 0 0
0 0 0
0 0 0
0 0 0
0 0 0
0 0 0
0 0 0
0 0 0
0 0 0
0 0 0
0 0 0
0 0 0
0 0 0
0 0 0
0 0 0
0 0 0
0 0 0
0 0 0
0 0 0
0 0 0
0 0 0
0 0 0
0 0 0
0 0 0
0 0 0
0 0 0
0 0 0
0 0 0
0 0 0
0 0 0
0 0 0
0 0 0
0 0 0
0 0 0
0 0 0
0 0 0
0 0 0
0 0 0
0 0 0
0 0 0
0 0 0
0 0 0
0 0 0
0 0 0
0 0 0
0 0 0
0 0 0
0 0 0
0 0 0
0 0 0
0 0 0
0 0 0
0 0 0
0 0 0
0 0 0
0 0 0
0 0 0
0 0 0
0 0 0
0 0 0
0 0 0
0 0 0
0 0 0
0 0 0
0 0 0
0 0 0
0 0 0
0 0 0
0 0 0
0 0 0
0 0 0
0 0 0
0 0 0
0 0 0
0 0 0
0 0 0
0 0 0
0 0 0
0 0 0
0 0 0
0 0 0
0 0 0
0 0 0
247 190 133
248 190 133
249 191 133
250 191 133
251 192 133
252 192 133
253 193 133
254 193 133
0 67 134
1 67 134
2 68 134
3 68 134
4 69 134
5 69 134
6 70 134
7 70 134
0 0 0
0 0 0
0 0 0
0 0 0
0 0 0
0 0 0
0 0 0
0 0 0
0 0 0
0 0 0
0 0 0
0 0 0
0 0 0
0 0 0
0 0 0
0 0 0
0 0 0
0 0 0
0 0 0
0 0 0
0 0 0
0 0 0
0 0 0
0 0 0
0 0 0
0 0 0
0 0 0
0 0 0
0 0 0
0 0 0
0 0 0
0 0 0
0 0 0
0 0 0
0 0 0
0 0 0
0 0 0
0 0 0
0 0 0
0 0 0
0 0 0
0 0 0
0 0 0
0 0 0
0 0 0
0 0 0
0 0 0
0 0 0
0 0 0
0 0 0
0 0 0
0 0 0
0 0 0
0 0 0
0 0 0
0 0 0
0 0 0
0 0 0
0 0 0
0 0 0
0 0 0
0 0 0
0 0 0
0 0 0
0 0 0
0 0 0
0 0 0
0 0 0
0 0 0
0 0 0
0 0 0
0 0 0
0 0 0
0 0 0
0 0 0
0 0 0
0 0 0
0 0 0
0 0 0
0 0 0
0 0 0
0 0 0
0 0 0
0 0 0
0 0 0
0 0 0
0 0 0
0 0 0
0 0 0
0 0 0
0 0 0
0 0 0
0 0 0
0 0 0
0 0 0
0 0 0
0 0 0
0 0 0
0 0 0
0 0 0
0 0 0
0 0 0
0 0 0
0 0 0
0 0 0
0 0 0
0 0 0
0 0 0
0 0 0
0 0 0
0 0 0
0 0 0
0 0 0
0 0 0
0 0 0
0 0 0
0 0 0
0 0 0
0 0 0
0 0 0
0 0 0
0 0 0
0 0 0
0 0 0
0 0 0
0 0 0
0 0 0
0 0 0
0 0 0
0 0 0
0 0 0
0 0 0
0 0 0
0 0 0
0 0 0
0 0 0
0 0 0
0 0 0
0 0 0
0 0 0
0 0 0
0 0 0
0 0 0
0 0 0
0 0 0
0 0 0
0 0 0
0 0 0
0 0 0
0 0 0
0 0 0
0 0 0
0 0 0
0 0 0
0 0 0
0 0 0
0 0 0
0 0 0
0 0 0
0 0 0
0 0 0
0 0 0
0 0 0
0 0 0
0 0 0
0 0 0
0 0 0
0 0 0
0 0 0
0 0 0
0 0 0
0 0 0
0 0 0
0 0 0
0 0 0
0 0 0
0 0 0
0 0 0
0 0 0
0 0 0
0 0 0
0 0 0
0 0 0
0 0 0
0 0 0
0 0 0
0 0 0
0 0 0
0 0 0
0 0 0
0 0 0
0 0 0
0 0 0
0 0 0
0 0 0
0 0 0
0 0 0
0 0 0
0 0 0
0 0 0
0 0 0
0 0 0
0 0 0
0 0 0
0 0 0
0 0 0
0 0 0
0 0 0
0 0 0
0 0 0
0 0 0
0 0 0
0 0 0
0 0 0
0 0 0
0 0 0
0 0 0
0 0 0
0 0 0
0 0 0
0 0 0
0 0 0
0 0 0
0 0 0
0 0 0
0 0 0
0 0 0
0 0 0
0 0 0
0 0 0
0 0 0
0 0 0
0 0 0
0 0 0
0 0 0
0 0 0
0 0 0
0 0 0
0 0 0
247 190 134
248 191 134
249 191 134
250 192 134
251 192 134
252 193 134
253 193 134
254 194 134
0 67 135
1 68 135
2 68 135
3 69 135
4 69 135
5 70 135
6 70 135
7 71 135
0 0 0
0 0 0
0 0 0
0 0 0
0 0 0
0 0 0
0 0 0
0 0 0
0 0 0
0 0 0
0 0 0
0 0 0
0 0 0
0 0 0
0 0 0
0 0 0
0 0 0
0 0 0
0 0 0
0 0 0
0 0 0
0 0 0
0 0 0
0 0 0
0 0 0
0 0 0
0 0 0
0 0 0
0 0 0
0 0 0
0 0 0
0 0 0
0 0 0
0 0 0
0 0 0
0 0 0
0 0 0
0 0 0
0 0 0
0 0 0
0 0 0
0 0 0
0 0 0
0 0 0
0 0 0
0 0 0
0 0 0
0 0 0
0 0 0
0 0 0
0 0 0
0 0 0
0 0 0
0 0 0
0 0 0
0 0 0
0 0 0
0 0 0
0 0 0
0 0 0
0 0 0
0 0 0
0 0 0
0 0 0
0 0 0
0 0 0
0 0 0
0 0 0
0 0 0
0 0 0
0 0 0
0 0 0
0 0 0
0 0 0
0 0 0
0 0 0
0 0 0
0 0 0
0 0 0
0 0 0
0 0 0
0 0 0
0 0 0
0 0 0
0 0 0
0 0 0
0 0 0
0 0 0
0 0 0
0 0 0
0 0 0
0 0 0
0 0 0
0 0 0
0 0 0
0 0 0
0 0 0
0 0 0
0 0 0
0 0 0
0 0 0
0 0 0
0 0 0
0 0 0
0 0 0
0 0 0
0 0 0
0 0 0
0 0 0
0 0 0
0 0 0
0 0 0
0 0 0
0 0 0
0 0 0
0 0 0
0 0 0
0 0 0
0 0 0
0 0 0
0 0 0
0 0 0
0 0 0
0 0 0
0 0 0
0 0 0
0 0 0
0 0 0
0 0 0
0 0 0
0 0 0
0 0 0
0 0 0
0 0 0
0 0 0
0 0 0
0 0 0
0 0 0
0 0 0
0 0 0
0 0 0
0 0 0
0 0 0
0 0 0
0 0 0
0 0 0
0 0 0
0 0 0
0 0 0
0 0 0
0 0 0
0 0 0
0 0 0
0 0 0
0 0 0
0 0 0
0 0 0
0 0 0
0 0 0
0 0 0
0 0 0
0 0 0
0 0 0
0 0 0
0 0 0
0 0 0
0 0 0
0 0 0
0 0 0
0 0 0
0 0 0
0 0 0
0 0 0
0 0 0
0 0 0
0 0 0
0 0 0
0 0 0
0 0 0
0 0 0
0 0 0
0 0 0
0 0 0
0 0 0
0 0 0
0 0 0
0 0 0
0 0 0
0 0 0
0 0 0
0 0 0
0 0 0
0 0 0
0 0 0
0 0 0
0 0 0
0 0 0
0 0 0
0 0 0
0 0 0
0 0 0
0 0 0
0 0 0
0 0 0
0 0 0
0 0 0
0 0 0
0 0 0
0 0 0
0 0 0
0 0 0
0 0 0
0 0 0
0 0 0
0 0 0
0 0 0
0 0 0
0 0 0
0 0 0
0 0 0
0 0 0
0 0 0
0 0 0
0 0 0
0 0 0
0 0 0
0 0 0
0 0 0
0 0 0
0 0 0
0 0 0
0 0 0
0 0 0
0 0 0
0 0 0
0 0 0
0 0 0
0 0 0
0 0 0
247 191 135
248 191 135
249 192 135
250 192 135
251 193 135
252 193 135
253 194 135
254 194 135
0 68 136
1 68 136
2 69 136
3 69 136
4 70 136
5 70 136
6 71 136
7 71 136
0 0 0
0 0 0
0 0 0
0 0 0
0 0 0
0 0 0
0 0 0
0 0 0
0 0 0
0 0 0
0 0 0
0 0 0
0 0 0
0 0 0
0 0 0
0 0 0
0 0 0
0 0 0
0 0 0
0 0 0
0 0 0
0 0 0
0 0 0
0 0 0
0 0 0
0 0 0
0 0 0
0 0 0
0 0 0
0 0 0
0 0 0
0 0 0
0 0 0
0 0 0
0 0 0
0 0 0
0 0 0
0 0 0
0 0 0
0 0 0
0 0 0
0 0 0
0 0 0
0 0 0
0 0 0
0 0 0
0 0 0
0 0 0
0 0 0
0 0 0
0 0 0
0 0 0
0 0 0
0 0 0
0 0 0
0 0 0
0 0 0
0 0 0
0 0 0
0 0 0
0 0 0
0 0 0
0 0 0
0 0 0
0 0 0
0 0 0
0 0 0
0 0 0
0 0 0
0 0 0
0 0 0
0 0 0
0 0 0
0 0 0
0 0 0
0 0 0
0 0 0
0 0 0
0 0 0
0 0 0
0 0 0
0 0 0
0 0 0
0 0 0
0 0 0
0 0 0
0 0 0
0 0 0
0 0 0
0 0 0
0 0 0
0 0 0
0 0 0
0 0 0
0 0 0
0 0 0
0 0 0
0 0 0
0 0 0
0 0 0
0 0 0
0 0 0
0 0 0
0 0 0
0 0 0
0 0 0
0 0 0
0 0 0
0 0 0
0 0 0
0 0 0
0 0 0
0 0 0
0 0 0
0 0 0
0 0 0
0 0 0
0 0 0
0 0 0
0 0 0
0 0 0
0 0 0
0 0 0
0 0 0
0 0 0
0 0 0
0 0 0
0 0 0
0 0 0
0 0 0
0 0 0
0 0 0
0 0 0
0 0 0
0 0 0
0 0 0
0 0 0
0 0 0
0 0 0
0 0 0
0 0 0
0 0 0
0 0 0
0 0 0
0 0 0
0 0 0
0 0 0
0 0 0
0 0 0
0 0 0
0 0 0
0 0 0
0 0 0
0 0 0
0 0 0
0 0 0
0 0 0
0 0 0
0 0 0
0 0 0
0 0 0
0 0 0
0 0 0
0 0 0
0 0 0
0 0 0
0 0 0
0 0 0
0 0 0
0 0 0
0 0 0
0 0 0
0 0 0
0 0 0
0 0 0
0 0 0
0 0 0
0 0 0
0 0 0
0 0 0
0 0 0
0 0 0
0 0 0
0 0 0
0 0 0
0 0 0
0 0 0
0 0 0
0 0 0
0 0 0
0 0 0
0 0 0
0 0 0
0 0 0
0 0 0
0 0 0
0 0 0
0 0 0
0 0 0
0 0 0
0 0 0
0 0 0
0 0 0
0 0 0
0 0 0
0 0 0
0 0 0
0 0 0
0 0 0
0 0 0
0 0 0
0 0 0
0 0 0
0 0 0
0 0 0
0 0 0
0 0 0
0 0 0
0 0 0
0 0 0
0 0 0
0 0 0
0 0 0
0 0 0
0 0 0
0 0 0
0 0 0
0 0 0
0 0 0
0 0 0
0 0 0
0 0 0
0 0 0
0 0 0
0 0 0
0 0 0
0 0 0
0 0 0
0 0 0
247 191 136
248 192 136
249 192 136
250 193 136
251 193 136
252 194 136
253 194 136
254 195 136
0 68 137
1 69 137
2 69 137
3 70 137
4 70 137
5 71 137
6 71 137
7 72 137
0 0 0
0 0 0
0 0 0
0 0 0
0 0 0
0 0 0
0 0 0
0 0 0
0 0 0
0 0 0
0 0 0
0 0 0
0 0 0
0 0 0
0 0 0
0 0 0
0 0 0
0 0 0
0 0 0
0 0 0
0 0 0
0 0 0
0 0 0
0 0 0
0 0 0
0 0 0
0 0 0
0 0 0
0 0 0
0 0 0
0 0 0
0 0 0
0 0 0
0 0 0
0 0 0
0 0 0
0 0 0
0 0 0
0 0 0
0 0 0
0 0 0
0 0 0
0 0 0
0 0 0
0 0 0
0 0 0
0 0 0
0 0 0
0 0 0
0 0 0
0 0 0
0 0 0
0 0 0
0 0 0
0 0 0
0 0 0
0 0 0
0 0 0
0 0 0
0 0 0
0 0 0
0 0 0
0 0 0
0 0 0
0 0 0
0 0 0
0 0 0
0 0 0
0 0 0
0 0 0
0 0 0
0 0 0
0 0 0
0 0 0
0 0 0
0 0 0
0 0 0
0 0 0
0 0 0
0 0 0
0 0 0
0 0 0
0 0 0
0 0 0
0 0 0
0 0 0
0 0 0
0 0 0
0 0 0
0 0 0
0 0 0
0 0 0
0 0 0
0 0 0
0 0 0
0 0 0
0 0 0
0 0 0
0 0 0
0 0 0
0 0 0
0 0 0
0 0 0
0 0 0
0 0 0
0 0 0
0 0 0
0 0 0
0 0 0
0 0 0
0 0 0
0 0 0
0 0 0
0 0 0
0 0 0
0 0 0
0 0 0
0 0 0
0 0 0
0 0 0
0 0 0
0 0 0
0 0 0
0 0 0
0 0 0
0 0 0
0 0 0
0 0 0
0 0 0
0 0 0
0 0 0
0 0 0
0 0 0
0 0 0
0 0 0
0 0 0
0 0 0
0 0 0
0 0 0
0 0 0
0 0 0
0 0 0
0 0 0
0 0 0
0 0 0
0 0 0
0 0 0
0 0 0
0 0 0
0 0 0
0 0 0
0 0 0
0 0 0
0 0 0
0 0 0
0 0 0
0 0 0
0 0 0
0 0 0
0 0 0
0 0 0
0 0 0
0 0 0
0 0 0
0 0 0
0 0 0
0 0 0
0 0 0
0 0 0
0 0 0
0 0 0
0 0 0
0 0 0
0 0 0
0 0 0
0 0 0
0 0 0
0 0 0
0 0 0
0 0 0
0 0 0
0 0 0
0 0 0
0 0 0
0 0 0
0 0 0
0 0 0
0 0 0
0 0 0
0 0 0
0 0 0
0 0 0
0 0 0
0 0 0
0 0 0
0 0 0
0 0 0
0 0 0
0 0 0
0 0 0
0 0 0
0 0 0
0 0 0
0 0 0
0 0 0
0 0 0
0 0 0
0 0 0
0 0 0
0 0 0
0 0 0
0 0 0
0 0 0
0 0 0
0 0 0
0 0 0
0 0 0
0 0 0
0 0 0
0 0 0
0 0 0
0 0 0
0 0 0
0 0 0
0 0 0
0 0 0
0 0 0
0 0 0
0 0 0
0 0 0
0 0 0
0 0 0
0 0 0
0 0 0
0 0 0
0 0 0
0 0 0
0 0 0
0 0 0
247 192 137
248 192 137
249 193 137
250 193 137
251 194 137
252 194 137
253 195 137
254 195 137
0 69 138
1 69 138
2 70 138
3 70 138
4 71 138
5 71 138
6 72 138
7 72 138
0 0 0
0 0 0
0 0 0
0 0 0
0 0 0
0 0 0
0 0 0
0 0 0
0 0 0
0 0 0
0 0 0
0 0 0
0 0 0
0 0 0
0 0 0
0 0 0
0 0 0
0 0 0
0 0 0
0 0 0
0 0 0
0 0 0
0 0 0
0 0 0
0 0 0
0 0 0
0 0 0
0 0 0
0 0 0
0 0 0
0 0 0
0 0 0
0 0 0
0 0 0
0 0 0
0 0 0
0 0 0
0 0 0
0 0 0
0 0 0
0 0 0
0 0 0
0 0 0
0 0 0
0 0 0
0 0 0
0 0 0
0 0 0
0 0 0
0 0 0
0 0 0
0 0 0
0 0 0
0 0 0
0 0 0
0 0 0
0 0 0
0 0 0
0 0 0
0 0 0
0 0 0
0 0 0
0 0 0
0 0 0
0 0 0
0 0 0
0 0 0
0 0 0
0 0 0
0 0 0
0 0 0
0 0 0
0 0 0
0 0 0
0 0 0
0 0 0
0 0 0
0 0 0
0 0 0
0 0 0
0 0 0
0 0 0
0 0 0
0 0 0
0 0 0
0 0 0
0 0 0
0 0 0
0 0 0
0 0 0
0 0 0
0 0 0
0 0 0
0 0 0
0 0 0
0 0 0
0 0 0
0 0 0
0 0 0
0 0 0
0 0 0
0 0 0
0 0 0
0 0 0
0 0 0
0 0 0
0 0 0
0 0 0
0 0 0
0 0 0
0 0 0
0 0 0
0 0 0
0 0 0
0 0 0
0 0 0
0 0 0
0 0 0
0 0 0
0 0 0
0 0 0
0 0 0
0 0 0
0 0 0
0 0 0
0 0 0
0 0 0
0 0 0
0 0 0
0 0 0
0 0 0
0 0 0
0 0 0
0 0 0
0 0 0
0 0 0
0 0 0
0 0 0
0 0 0
0 0 0
0 0 0
0 0 0
0 0 0
0 0 0
0 0 0
0 0 0
0 0 0
0 0 0
0 0 0
0 0 0
0 0 0
0 0 0
0 0 0
0 0 0
0 0 0
0 0 0
0 0 0
0 0 0
0 0 0
0 0 0
0 0 0
0 0 0
0 0 0
0 0 0
0 0 0
0 0 0
0 0 0
0 0 0
0 0 0
0 0 0
0 0 0
0 0 0
0 0 0
0 0 0
0 0 0
0 0 0
0 0 0
0 0 0
0 0 0
0 0 0
0 0 0
0 0 0
0 0 0
0 0 0
0 0 0
0 0 0
0 0 0
0 0 0
0 0 0
0 0 0
0 0 0
0 0 0
0 0 0
0 0 0
0 0 0
0 0 0
0 0 0
0 0 0
0 0 0
0 0 0
0 0 0
0 0 0
0 0 0
0 0 0
0 0 0
0 0 0
0 0 0
0 0 0
0 0 0
0 0 0
0 0 0
0 0 0
0 0 0
0 0 0
0 0 0
0 0 0
0 0 0
0 0 0
0 0 0
0 0 0
0 0 0
0 0 0
0 0 0
0 0 0
0 0 0
0 0 0
0 0 0
0 0 0
0 0 0
0 0 0
0 0 0
0 0 0
0 0 0
0 0 0
0 0 0
0 0 0
0 0 0
0 0 0
0 0 0
247 192 138
248 193 138
249 193 138
250 194 138
251 194 138
252 195 138
253 195 138
254 196 138
0 69 139
1 70 139
2 70 139
3 71 139
4 71 139
5 72 139
6 72 139
7 73 139
0 0 0
0 0 0
0 0 0
0 0 0
0 0 0
0 0 0
0 0 0
0 0 0
0 0 0
0 0 0
0 0 0
0 0 0
0 0 0
0 0 0
0 0 0
0 0 0
0 0 0
0 0 0
0 0 0
0 0 0
0 0 0
0 0 0
0 0 0
0 0 0
0 0 0
0 0 0
0 0 0
0 0 0
0 0 0
0 0 0
0 0 0
0 0 0
0 0 0
0 0 0
0 0 0
0 0 0
0 0 0
0 0 0
0 0 0
0 0 0
0 0 0
0 0 0
0 0 0
0 0 0
0 0 0
0 0 0
0 0 0
0 0 0
0 0 0
0 0 0
0 0 0
0 0 0
0 0 0
0 0 0
0 0 0
0 0 0
0 0 0
0 0 0
0 0 0
0 0 0
0 0 0
0 0 0
0 0 0
0 0 0
0 0 0
0 0 0
0 0 0
0 0 0
0 0 0
0 0 0
0 0 0
0 0 0
0 0 0
0 0 0
0 0 0
0 0 0
0 0 0
0 0 0
0 0 0
0 0 0
0 0 0
0 0 0
0 0 0
0 0 0
0 0 0
0 0 0
0 0 0
0 0 0
0 0 0
0 0 0
0 0 0
0 0 0
0 0 0
0 0 0
0 0 0
0 0 0
0 0 0
0 0 0
0 0 0
0 0 0
0 0 0
0 0 0
0 0 0
0 0 0
0 0 0
0 0 0
0 0 0
0 0 0
0 0 0
0 0 0
0 0 0
0 0 0
0 0 0
0 0 0
0 0 0
0 0 0
0 0 0
0 0 0
0 0 0
0 0 0
0 0 0
0 0 0
0 0 0
0 0 0
0 0 0
0 0 0
0 0 0
0 0 0
0 0 0
0 0 0
0 0 0
0 0 0
0 0 0
0 0 0
0 0 0
0 0 0
0 0 0
0 0 0
0 0 0
0 0 0
0 0 0
0 0 0
0 0 0
0 0 0
0 0 0
0 0 0
0 0 0
0 0 0
0 0 0
0 0 0
0 0 0
0 0 0
0 0 0
0 0 0
0 0 0
0 0 0
0 0 0
0 0 0
0 0 0
0 0 0
0 0 0
0 0 0
0 0 0
0 0 0
0 0 0
0 0 0
0 0 0
0 0 0
0 0 0
0 0 0
0 0 0
0 0 0
0 0 0
0 0 0
0 0 0
0 0 0
0 0 0
0 0 0
0 0 0
0 0 0
0 0 0
0 0 0
0 0 0
0 0 0
0 0 0
0 0 0
0 0 0
0 0 0
0 0 0
0 0 0
0 0 0
0 0 0
0 0 0
0 0 0
0 0 0
0 0 0
0 0 0
0 0 0
0 0 0
0 0 0
0 0 0
0 0 0
0 0 0
0 0 0
0 0 0
0 0 0
0 0 0
0 0 0
0 0 0
0 0 0
0 0 0
0 0 0
0 0 0
0 0 0
0 0 0
0 0 0
0 0 0
0 0 0
0 0 0
0 0 0
0 0 0
0 0 0
0 0 0
0 0 0
0 0 0
0 0 0
0 0 0
0 0 0
0 0 0
0 0 0
0 0 0
0 0 0
0 0 0
0 0 0
0 0 0
0 0 0
0 0 0
0 0 0
0 0 0
247 193 139
248 193 139
249 194 139
250 194 139
251 195 139
252 195 139
253 196 139
254 196 139
0 70 140
1 70 140
2 71 140
3 71 140
4 72 140
5 72 140
6 73 140
7 73 140
0 0 0
0 0 0
0 0 0
0 0 0
0 0 0
0 0 0
0 0 0
0 0 0
0 0 0
0 0 0
0 0 0
0 0 0
0 0 0
0 0 0
0 0 0
0 0 0
0 0 0
0 0 0
0 0 0
0 0 0
0 0 0
0 0 0
0 0 0
0 0 0
0 0 0
0 0 0
0 0 0
0 0 0
0 0 0
0 0 0
0 0 0
0 0 0
0 0 0
0 0 0
0 0 0
0 0 0
0 0 0
0 0 0
0 0 0
0 0 0
0 0 0
0 0 0
0 0 0
0 0 0
0 0 0
0 0 0
0 0 0
0 0 0
0 0 0
0 0 0
0 0 0
0 0 0
0 0 0
0 0 0
0 0 0
0 0 0
0 0 0
0 0 0
0 0 0
0 0 0
0 0 0
0 0 0
0 0 0
0 0 0
0 0 0
0 0 0
0 0 0
0 0 0
0 0 0
0 0 0
0 0 0
0 0 0
0 0 0
0 0 0
0 0 0
0 0 0
0 0 0
0 0 0
0 0 0
0 0 0
0 0 0
0 0 0
0 0 0
0 0 0
0 0 0
0 0 0
0 0 0
0 0 0
0 0 0
0 0 0
0 0 0
0 0 0
0 0 0
0 0 0
0 0 0
0 0 0
0 0 0
0 0 0
0 0 0
0 0 0
0 0 0
0 0 0
0 0 0
0 0 0
0 0 0
0 0 0
0 0 0
0 0 0
0 0 0
0 0 0
0 0 0
0 0 0
0 0 0
0 0 0
0 0 0
0 0 0
0 0 0
0 0 0
0 0 0
0 0 0
0 0 0
0 0 0
0 0 0
0 0 0
0 0 0
0 0 0
0 0 0
0 0 0
0 0 0
0 0 0
0 0 0
0 0 0
0 0 0
0 0 0
0 0 0
0 0 0
0 0 0
0 0 0
0 0 0
0 0 0
0 0 0
0 0 0
0 0 0
0 0 0
0 0 0
0 0 0
0 0 0
0 0 0
0 0 0
0 0 0
0 0 0
0 0 0
0 0 0
0 0 0
0 0 0
0 0 0
0 0 0
0 0 0
0 0 0
0 0 0
0 0 0
0 0 0
0 0 0
0 0 0
0 0 0
0 0 0
0 0 0
0 0 0
0 0 0
0 0 0
0 0 0
0 0 0
0 0 0
0 0 0
0 0 0
0 0 0
0 0 0
0 0 0
0 0 0
0 0 0
0 0 0
0 0 0
0 0 0
0 0 0
0 0 0
0 0 0
0 0 0
0 0 0
0 0 0
0 0 0
0 0 0
0 0 0
0 0 0
0 0 0
0 0 0
0 0 0
0 0 0
0 0 0
0 0 0
0 0 0
0 0 0
0 0 0
0 0 0
0 0 0
0 0 0
0 0 0
0 0 0
0 0 0
0 0 0
0 0 0
0 0 0
0 0 0
0 0 0
0 0 0
0 0 0
0 0 0
0 0 0
0 0 0
0 0 0
0 0 0
0 0 0
0 0 0
0 0 0
0 0 0
0 0 0
0 0 0
0 0 0
0 0 0
0 0 0
0 0 0
0 0 0
0 0 0
0 0 0
0 0 0
0 0 0
0 0 0
0 0 0
0 0 0
0 0 0
247 193 140
248 194 140
249 194 140
250 195 140
251 195 140
252 196 140
253 196 140
254 197 140
0 70 141
1 71 141
2 71 141
3 72 141
4 72 141
5 73 141
6 73 141
7 74 141
0 0 0
0 0 0
0 0 0
0 0 0
0 0 0
0 0 0
0 0 0
0 0 0
0 0 0
0 0 0
0 0 0
0 0 0
0 0 0
0 0 0
0 0 0
0 0 0
0 0 0
0 0 0
0 0 0
0 0 0
0 0 0
0 0 0
0 0 0
0 0 0
0 0 0
0 0 0
0 0 0
0 0 0
0 0 0
0 0 0
0 0 0
0 0 0
0 0 0
0 0 0
0 0 0
0 0 0
0 0 0
0 0 0
0 0 0
0 0 0
0 0 0
0 0 0
0 0 0
0 0 0
0 0 0
0 0 0
0 0 0
0 0 0
0 0 0
0 0 0
0 0 0
0 0 0
0 0 0
0 0 0
0 0 0
0 0 0
0 0 0
0 0 0
0 0 0
0 0 0
0 0 0
0 0 0
0 0 0
0 0 0
0 0 0
0 0 0
0 0 0
0 0 0
0 0 0
0 0 0
0 0 0
0 0 0
0 0 0
0 0 0
0 0 0
0 0 0
0 0 0
0 0 0
0 0 0
0 0 0
0 0 0
0 0 0
0 0 0
0 0 0
0 0 0
0 0 0
0 0 0
0 0 0
0 0 0
0 0 0
0 0 0
0 0 0
0 0 0
0 0 0
0 0 0
0 0 0
0 0 0
0 0 0
0 0 0
0 0 0
0 0 0
0 0 0
0 0 0
0 0 0
0 0 0
0 0 0
0 0 0
0 0 0
0 0 0
0 0 0
0 0 0
0 0 0
0 0 0
0 0 0
0 0 0
0 0 0
0 0 0
0 0 0
0 0 0
0 0 0
0 0 0
0 0 0
0 0 0
0 0 0
0 0 0
0 0 0
0 0 0
0 0 0
0 0 0
0 0 0
0 0 0
0 0 0
0 0 0
0 0 0
0 0 0
0 0 0
0 0 0
0 0 0
0 0 0
0 0 0
0 0 0
0 0 0
0 0 0
0 0 0
0 0 0
0 0 0
0 0 0
0 0 0
0 0 0
0 0 0
0 0 0
0 0 0
0 0 0
0 0 0
0 0 0
0 0 0
0 0 0
0 0 0
0 0 0
0 0 0
0 0 0
0 0 0
0 0 0
0 0 0
0 0 0
0 0 0
0 0 0
0 0 0
0 0 0
0 0 0
0 0 0
0 0 0
0 0 0
0 0 0
0 0 0
0 0 0
0 0 0
0 0 0
0 0 0
0 0 0
0 0 0
0 0 0
0 0 0
0 0 0
0 0 0
0 0 0
0 0 0
0 0 0
0 0 0
0 0 0
0 0 0
0 0 0
0 0 0
0 0 0
0 0 0
0 0 0
0 0 0
0 0 0
0 0 0
0 0 0
0 0 0
0 0 0
0 0 0
0 0 0
0 0 0
0 0 0
0 0 0
0 0 0
0 0 0
0 0 0
0 0 0
0 0 0
0 0 0
0 0 0
0 0 0
0 0 0
0 0 0
0 0 0
0 0 0
0 0 0
0 0 0
0 0 0
0 0 0
0 0 0
0 0 0
0 0 0
0 0 0
0 0 0
0 0 0
0 0 0
0 0 0
0 0 0
0 0 0
0 0 0
0 0 0
0 0 0
0 0 0
0 0 0
0 0 0
247 194 141
248 194 141
249 195 141
250 195 141
251 196 141
252 196 141
253 197 141
254 197 141
0 71 142
1 71 142
2 72 142
3 72 142
4 73 142
5 73 142
6 74 142
7 74 142
0 0 0
0 0 0
0 0 0
0 0 0
0 0 0
0 0 0
0 0 0
0 0 0
0 0 0
0 0 0
0 0 0
0 0 0
0 0 0
0 0 0
0 0 0
0 0 0
0 0 0
0 0 0
0 0 0
0 0 0
0 0 0
0 0 0
0 0 0
0 0 0
0 0 0
0 0 0
0 0 0
0 0 0
0 0 0
0 0 0
0 0 0
0 0 0
0 0 0
0 0 0
0 0 0
0 0 0
0 0 0
0 0 0
0 0 0
0 0 0
0 0 0
0 0 0
0 0 0
0 0 0
0 0 0
0 0 0
0 0 0
0 0 0
0 0 0
0 0 0
0 0 0
0 0 0
0 0 0
0 0 0
0 0 0
0 0 0
0 0 0
0 0 0
0 0 0
0 0 0
0 0 0
0 0 0
0 0 0
0 0 0
0 0 0
0 0 0
0 0 0
0 0 0
0 0 0
0 0 0
0 0 0
0 0 0
0 0 0
0 0 0
0 0 0
0 0 0
0 0 0
0 0 0
0 0 0
0 0 0
0 0 0
0 0 0
0 0 0
0 0 0
0 0 0
0 0 0
0 0 0
0 0 0
0 0 0
0 0 0
0 0 0
0 0 0
0 0 0
0 0 0
0 0 0
0 0 0
0 0 0
0 0 0
0 0 0
0 0 0
0 0 0
0 0 0
0 0 0
0 0 0
0 0 0
0 0 0
0 0 0
0 0 0
0 0 0
0 0 0
0 0 0
0 0 0
0 0 0
0 0 0
0 0 0
0 0 0
0 0 0
0 0 0
0 0 0
0 0 0
0 0 0
0 0 0
0 0 0
0 0 0
0 0 0
0 0 0
0 0 0
0 0 0
0 0 0
0 0 0
0 0 0
0 0 0
0 0 0
0 0 0
0 0 0
0 0 0
0 0 0
0 0 0
0 0 0
0 0 0
0 0 0
0 0 0
0 0 0
0 0 0
0 0 0
0 0 0
0 0 0
0 0 0
0 0 0
0 0 0
0 0 0
0 0 0
0 0 0
0 0 0
0 0 0
0 0 0
0 0 0
0 0 0
0 0 0
0 0 0
0 0 0
0 0 0
0 0 0
0 0 0
0 0 0
0 0 0
0 0 0
0 0 0
0 0 0
0 0 0
0 0 0
0 0 0
0 0 0
0 0 0
0 0 0
0 0 0
0 0 0
0 0 0
0 0 0
0 0 0
0 0 0
0 0 0
0 0 0
0 0 0
0 0 0
0 0 0
0 0 0
0 0 0
0 0 0
0 0 0
0 0 0
0 0 0
0 0 0
0 0 0
0 0 0
0 0 0
0 0 0
0 0 0
0 0 0
0 0 0
0 0 0
0 0 0
0 0 0
0 0 0
0 0 0
0 0 0
0 0 0
0 0 0
0 0 0
0 0 0
0 0 0
0 0 0
0 0 0
0 0 0
0 0 0
0 0 0
0 0 0
0 0 0
0 0 0
0 0 0
0 0 0
0 0 0
0 0 0
0 0 0
0 0 0
0 0 0
0 0 0
0 0 0
0 0 0
0 0 0
0 0 0
0 0 0
0 0 0
0 0 0
0 0 0
0 0 0
0 0 0
0 0 0
0 0 0
247 194 142
248 195 142
249 195 142
250 196 142
251 196 142
252 197 142
253 197 142
254 198 142
0 71 143
1 72 143
2 72 143
3 73 143
4 73 143
5 74 143
6 74 143
7 75 143
8 75 143
0 0 0
0 0 0
0 0 0
0 0 0
0 0 0
0 0 0
0 0 0
0 0 0
0 0 0
0 0 0
0 0 0
0 0 0
0 0 0
0 0 0
0 0 0
0 0 0
0 0 0
0 0 0
0 0 0
0 0 0
0 0 0
0 0 0
0 0 0
0 0 0
0 0 0
0 0 0
0 0 0
0 0 0
0 0 0
0 0 0
0 0 0
0 0 0
0 0 0
0 0 0
0 0 0
0 0 0
0 0 0
0 0 0
0 0 0
0 0 0
0 0 0
0 0 0
0 0 0
0 0 0
0 0 0
0 0 0
0 0 0
0 0 0
0 0 0
0 0 0
0 0 0
0 0 0
0 0 0
0 0 0
0 0 0
0 0 0
0 0 0
0 0 0
0 0 0
0 0 0
0 0 0
0 0 0
0 0 0
0 0 0
0 0 0
0 0 0
0 0 0
0 0 0
0 0 0
0 0 0
0 0 0
0 0 0
0 0 0
0 0 0
0 0 0
0 0 0
0 0 0
0 0 0
0 0 0
0 0 0
0 0 0
0 0 0
0 0 0
0 0 0
0 0 0
0 0 0
0 0 0
0 0 0
0 0 0
0 0 0
0 0 0
0 0 0
0 0 0
0 0 0
0 0 0
0 0 0
0 0 0
0 0 0
0 0 0
0 0 0
0 0 0
0 0 0
0 0 0
0 0 0
0 0 0
0 0 0
0 0 0
0 0 0
0 0 0
0 0 0
0 0 0
0 0 0
0 0 0
0 0 0
0 0 0
0 0 0
0 0 0
0 0 0
0 0 0
0 0 0
0 0 0
0 0 0
0 0 0
0 0 0
0 0 0
0 0 0
0 0 0
0 0 0
0 0 0
0 0 0
0 0 0
0 0 0
0 0 0
0 0 0
0 0 0
0 0 0
0 0 0
0 0 0
0 0 0
0 0 0
0 0 0
0 0 0
0 0 0
0 0 0
0 0 0
0 0 0
0 0 0
0 0 0
0 0 0
0 0 0
0 0 0
0 0 0
0 0 0
0 0 0
0 0 0
0 0 0
0 0 0
0 0 0
0 0 0
0 0 0
0 0 0
0 0 0
0 0 0
0 0 0
0 0 0
0 0 0
0 0 0
0 0 0
0 0 0
0 0 0
0 0 0
0 0 0
0 0 0
0 0 0
0 0 0
0 0 0
0 0 0
0 0 0
0 0 0
0 0 0
0 0 0
0 0 0
0 0 0
0 0 0
0 0 0
0 0 0
0 0 0
0 0 0
0 0 0
0 0 0
0 0 0
0 0 0
0 0 0
0 0 0
0 0 0
0 0 0
0 0 0
0 0 0
0 0 0
0 0 0
0 0 0
0 0 0
0 0 0
0 0 0
0 0 0
0 0 0
0 0 0
0 0 0
0 0 0
0 0 0
0 0 0
0 0 0
0 0 0
0 0 0
0 0 0
0 0 0
0 0 0
0 0 0
0 0 0
0 0 0
0 0 0
0 0 0
0 0 0
0 0 0
0 0 0
0 0 0
0 0 0
0 0 0
0 0 0
0 0 0
0 0 0
0 0 0
0 0 0
0 0 0
0 0 0
0 0 0
0 0 0
246 194 143
247 195 143
248 195 143
249 196 143
250 196 143
251 197 143
252 197 143
253 198 143
254 198 143
0 72 144
1 72 144
2 73 144
3 73 144
4 74 144
5 74 144
6 75 144
7 75 144
8 76 144
0 0 0
0 0 0
0 0 0
0 0 0
0 0 0
0 0 0
0 0 0
0 0 0
0 0 0
0 0 0
0 0 0
0 0 0
0 0 0
0 0 0
0 0 0
0 0 0
0 0 0
0 0 0
0 0 0
0 0 0
0 0 0
0 0 0
0 0 0
0 0 0
0 0 0
0 0 0
0 0 0
0 0 0
0 0 0
0 0 0
0 0 0
0 0 0
0 0 0
0 0 0
0 0 0
0 0 0
0 0 0
0 0 0
0 0 0
0 0 0
0 0 0
0 0 0
0 0 0
0 0 0
0 0 0
0 0 0
0 0 0
0 0 0
0 0 0
0 0 0
0 0 0
0 0 0
0 0 0
0 0 0
0 0 0
0 0 0
0 0 0
0 0 0
0 0 0
0 0 0
0 0 0
0 0 0
0 0 0
0 0 0
0 0 0
0 0 0
0 0 0
0 0 0
0 0 0
0 0 0
0 0 0
0 0 0
0 0 0
0 0 0
0 0 0
0 0 0
0 0 0
0 0 0
0 0 0
0 0 0
0 0 0
0 0 0
0 0 0
0 0 0
0 0 0
0 0 0
0 0 0
0 0 0
0 0 0
0 0 0
0 0 0
0 0 0
0 0 0
0 0 0
0 0 0
0 0 0
0 0 0
0 0 0
0 0 0
0 0 0
0 0 0
0 0 0
0 0 0
0 0 0
0 0 0
0 0 0
0 0 0
0 0 0
0 0 0
0 0 0
0 0 0
0 0 0
0 0 0
0 0 0
0 0 0
0 0 0
0 0 0
0 0 0
0 0 0
0 0 0
0 0 0
0 0 0
0 0 0
0 0 0
0 0 0
0 0 0
0 0 0
0 0 0
0 0 0
0 0 0
0 0 0
0 0 0
0 0 0
0 0 0
0 0 0
0 0 0
0 0 0
0 0 0
0 0 0
0 0 0
0 0 0
0 0 0
0 0 0
0 0 0
0 0 0
0 0 0
0 0 0
0 0 0
0 0 0
0 0 0
0 0 0
0 0 0
0 0 0
0 0 0
0 0 0
0 0 0
0 0 0
0 0 0
0 0 0
0 0 0
0 0 0
0 0 0
0 0 0
0 0 0
0 0 0
0 0 0
0 0 0
0 0 0
0 0 0
0 0 0
0 0 0
0 0 0
0 0 0
0 0 0
0 0 0
0 0 0
0 0 0
0 0 0
0 0 0
0 0 0
0 0 0
0 0 0
0 0 0
0 0 0
0 0 0
0 0 0
0 0 0
0 0 0
0 0 0
0 0 0
0 0 0
0 0 0
0 0 0
0 0 0
0 0 0
0 0 0
0 0 0
0 0 0
0 0 0
0 0 0
0 0 0
0 0 0
0 0 0
0 0 0
0 0 0
0 0 0
0 0 0
0 0 0
0 0 0
0 0 0
0 0 0
0 0 0
0 0 0
0 0 0
0 0 0
0 0 0
0 0 0
0 0 0
0 0 0
0 0 0
0 0 0
0 0 0
0 0 0
0 0 0
0 0 0
0 0 0
0 0 0
0 0 0
0 0 0
0 0 0
0 0 0
0 0 0
0 0 0
0 0 0
0 0 0
0 0 0
0 0 0
246 195 144
247 195 144
248 196 144
249 196 144
250 197 144
251 197 144
252 198 144
253 198 144
254 199 144
0 72 145
1 73 145
2 73 145
3 74 145
4 74 145
5 75 145
6 75 145
7 76 145
8 76 145
0 0 0
0 0 0
0 0 0
0 0 0
0 0 0
0 0 0
0 0 0
0 0 0
0 0 0
0 0 0
0 0 0
0 0 0
0 0 0
0 0 0
0 0 0
0 0 0
0 0 0
0 0 0
0 0 0
0 0 0
0 0 0
0 0 0
0 0 0
0 0 0
0 0 0
0 0 0
0 0 0
0 0 0
0 0 0
0 0 0
0 0 0
0 0 0
0 0 0
0 0 0
0 0 0
0 0 0
0 0 0
0 0 0
0 0 0
0 0 0
0 0 0
0 0 0
0 0 0
0 0 0
0 0 0
0 0 0
0 0 0
0 0 0
0 0 0
0 0 0
0 0 0
0 0 0
0 0 0
0 0 0
0 0 0
0 0 0
0 0 0
0 0 0
0 0 0
0 0 0
0 0 0
0 0 0
0 0 0
0 0 0
0 0 0
0 0 0
0 0 0
0 0 0
0 0 0
0 0 0
0 0 0
0 0 0
0 0 0
0 0 0
0 0 0
0 0 0
0 0 0
0 0 0
0 0 0
0 0 0
0 0 0
0 0 0
0 0 0
0 0 0
0 0 0
0 0 0
0 0 0
0 0 0
0 0 0
0 0 0
0 0 0
0 0 0
0 0 0
0 0 0
0 0 0
0 0 0
0 0 0
0 0 0
0 0 0
0 0 0
0 0 0
0 0 0
0 0 0
0 0 0
0 0 0
0 0 0
0 0 0
0 0 0
0 0 0
0 0 0
0 0 0
0 0 0
0 0 0
0 0 0
0 0 0
0 0 0
0 0 0
0 0 0
0 0 0
0 0 0
0 0 0
0 0 0
0 0 0
0 0 0
0 0 0
0 0 0
0 0 0
0 0 0
0 0 0
0 0 0
0 0 0
0 0 0
0 0 0
0 0 0
0 0 0
0 0 0
0 0 0
0 0 0
0 0 0
0 0 0
0 0 0
0 0 0
0 0 0
0 0 0
0 0 0
0 0 0
0 0 0
0 0 0
0 0 0
0 0 0
0 0 0
0 0 0
0 0 0
0 0 0
0 0 0
0 0 0
0 0 0
0 0 0
0 0 0
0 0 0
0 0 0
0 0 0
0 0 0
0 0 0
0 0 0
0 0 0
0 0 0
0 0 0
0 0 0
0 0 0
0 0 0
0 0 0
0 0 0
0 0 0
0 0 0
0 0 0
0 0 0
0 0 0
0 0 0
0 0 0
0 0 0
0 0 0
0 0 0
0 0 0
0 0 0
0 0 0
0 0 0
0 0 0
0 0 0
0 0 0
0 0 0
0 0 0
0 0 0
0 0 0
0 0 0
0 0 0
0 0 0
0 0 0
0 0 0
0 0 0
0 0 0
0 0 0
0 0 0
0 0 0
0 0 0
0 0 0
0 0 0
0 0 0
0 0 0
0 0 0
0 0 0
0 0 0
0 0 0
0 0 0
0 0 0
0 0 0
0 0 0
0 0 0
0 0 0
0 0 0
0 0 0
0 0 0
0 0 0
0 0 0
0 0 0
0 0 0
0 0 0
0 0 0
0 0 0
0 0 0
0 0 0
0 0 0
0 0 0
0 0 0
0 0 0
0 0 0
0 0 0
246 195 145
247 196 145
248 196 145
249 197 145
250 197 145
251 198 145
252 198 145
253 199 145
254 199 145
0 73 146
1 73 146
2 74 146
3 74 146
4 75 146
5 75 146
6 76 146
7 76 146
8 77 146
0 0 0
0 0 0
0 0 0
0 0 0
0 0 0
0 0 0
0 0 0
0 0 0
0 0 0
0 0 0
0 0 0
0 0 0
0 0 0
0 0 0
0 0 0
0 0 0
0 0 0
0 0 0
0 0 0
0 0 0
0 0 0
0 0 0
0 0 0
0 0 0
0 0 0
0 0 0
0 0 0
0 0 0
0 0 0
0 0 0
0 0 0
0 0 0
0 0 0
0 0 0
0 0 0
0 0 0
0 0 0
0 0 0
0 0 0
0 0 0
0 0 0
0 0 0
0 0 0
0 0 0
0 0 0
0 0 0
0 0 0
0 0 0
0 0 0
0 0 0
0 0 0
0 0 0
0 0 0
0 0 0
0 0 0
0 0 0
0 0 0
0 0 0
0 0 0
0 0 0
0 0 0
0 0 0
0 0 0
0 0 0
0 0 0
0 0 0
0 0 0
0 0 0
0 0 0
0 0 0
0 0 0
0 0 0
0 0 0
0 0 0
0 0 0
0 0 0
0 0 0
0 0 0
0 0 0
0 0 0
0 0 0
0 0 0
0 0 0
0 0 0
0 0 0
0 0 0
0 0 0
0 0 0
0 0 0
0 0 0
0 0 0
0 0 0
0 0 0
0 0 0
0 0 0
0 0 0
0 0 0
0 0 0
0 0 0
0 0 0
0 0 0
0 0 0
0 0 0
0 0 0
0 0 0
0 0 0
0 0 0
0 0 0
0 0 0
0 0 0
0 0 0
0 0 0
0 0 0
0 0 0
0 0 0
0 0 0
0 0 0
0 0 0
0 0 0
0 0 0
0 0 0
0 0 0
0 0 0
0 0 0
0 0 0
0 0 0
0 0 0
0 0 0
0 0 0
0 0 0
0 0 0
0 0 0
0 0 0
0 0 0
0 0 0
0 0 0
0 0 0
0 0 0
0 0 0
0 0 0
0 0 0
0 0 0
0 0 0
0 0 0
0 0 0
0 0 0
0 0 0
0 0 0
0 0 0
0 0 0
0 0 0
0 0 0
0 0 0
0 0 0
0 0 0
0 0 0
0 0 0
0 0 0
0 0 0
0 0 0
0 0 0
0 0 0
0 0 0
0 0 0
0 0 0
0 0 0
0 0 0
0 0 0
0 0 0
0 0 0
0 0 0
0 0 0
0 0 0
0 0 0
0 0 0
0 0 0
0 0 0
0 0 0
0 0 0
0 0 0
0 0 0
0 0 0
0 0 0
0 0 0
0 0 0
0 0 0
0 0 0
0 0 0
0 0 0
0 0 0
0 0 0
0 0 0
0 0 0
0 0 0
0 0 0
0 0 0
0 0 0
0 0 0
0 0 0
0 0 0
0 0 0
0 0 0
0 0 0
0 0 0
0 0 0
0 0 0
0 0 0
0 0 0
0 0 0
0 0 0
0 0 0
0 0 0
0 0 0
0 0 0
0 0 0
0 0 0
0 0 0
0 0 0
0 0 0
0 0 0
0 0 0
0 0 0
0 0 0
0 0 0
0 0 0
0 0 0
0 0 0
0 0 0
0 0 0
0 0 0
0 0 0
0 0 0
0 0 0
0 0 0
0 0 0
0 0 0
0 0 0
246 196 146
247 196 146
248 197 146
249 197 146
250 198 146
251 198 146
252 199 146
253 199 146
254 200 146
0 73 147
1 74 147
2 74 147
3 75 147
4 75 147
5 76 147
6 76 147
7 77 147
8 77 147
0 0 0
0 0 0
0 0 0
0 0 0
0 0 0
0 0 0
0 0 0
0 0 0
0 0 0
0 0 0
0 0 0
0 0 0
0 0 0
0 0 0
0 0 0
0 0 0
0 0 0
0 0 0
0 0 0
0 0 0
0 0 0
0 0 0
0 0 0
0 0 0
0 0 0
0 0 0
0 0 0
0 0 0
0 0 0
0 0 0
0 0 0
0 0 0
0 0 0
0 0 0
0 0 0
0 0 0
0 0 0
0 0 0
0 0 0
0 0 0
0 0 0
0 0 0
0 0 0
0 0 0
0 0 0
0 0 0
0 0 0
0 0 0
0 0 0
0 0 0
0 0 0
0 0 0
0 0 0
0 0 0
0 0 0
0 0 0
0 0 0
0 0 0
0 0 0
0 0 0
0 0 0
0 0 0
0 0 0
0 0 0
0 0 0
0 0 0
0 0 0
0 0 0
0 0 0
0 0 0
0 0 0
0 0 0
0 0 0
0 0 0
0 0 0
0 0 0
0 0 0
0 0 0
0 0 0
0 0 0
0 0 0
0 0 0
0 0 0
0 0 0
0 0 0
0 0 0
0 0 0
0 0 0
0 0 0
0 0 0
0 0 0
0 0 0
0 0 0
0 0 0
0 0 0
0 0 0
0 0 0
0 0 0
0 0 0
0 0 0
0 0 0
0 0 0
0 0 0
0 0 0
0 0 0
0 0 0
0 0 0
0 0 0
0 0 0
0 0 0
0 0 0
0 0 0
0 0 0
0 0 0
0 0 0
0 0 0
0 0 0
0 0 0
0 0 0
0 0 0
0 0 0
0 0 0
0 0 0
0 0 0
0 0 0
0 0 0
0 0 0
0 0 0
0 0 0
0 0 0
0 0 0
0 0 0
0 0 0
0 0 0
0 0 0
0 0 0
0 0 0
0 0 0
0 0 0
0 0 0
0 0 0
0 0 0
0 0 0
0 0 0
0 0 0
0 0 0
0 0 0
0 0 0
0 0 0
0 0 0
0 0 0
0 0 0
0 0 0
0 0 0
0 0 0
0 0 0
0 0 0
0 0 0
0 0 0
0 0 0
0 0 0
0 0 0
0 0 0
0 0 0
0 0 0
0 0 0
0 0 0
0 0 0
0 0 0
0 0 0
0 0 0
0 0 0
0 0 0
0 0 0
0 0 0
0 0 0
0 0 0
0 0 0
0 0 0
0 0 0
0 0 0
0 0 0
0 0 0
0 0 0
0 0 0
0 0 0
0 0 0
0 0 0
0 0 0
0 0 0
0 0 0
0 0 0
0 0 0
0 0 0
0 0 0
0 0 0
0 0 0
0 0 0
0 0 0
0 0 0
0 0 0
0 0 0
0 0 0
0 0 0
0 0 0
0 0 0
0 0 0
0 0 0
0 0 0
0 0 0
0 0 0
0 0 0
0 0 0
0 0 0
0 0 0
0 0 0
0 0 0
0 0 0
0 0 0
0 0 0
0 0 0
0 0 0
0 0 0
0 0 0
0 0 0
0 0 0
0 0 0
0 0 0
0 0 0
0 0 0
0 0 0
0 0 0
0 0 0
0 0 0
0 0 0
0 0 0
0 0 0
246 196 147
247 197 147
248 197 147
249 198 147
250 198 147
251 199 147
252 199 147
253 200 147
254 200 147
0 74 148
1 74 148
2 75 148
3 75 148
4 76 148
5 76 148
6 77 148
7 77 148
8 78 148
0 0 0
0 0 0
0 0 0
0 0 0
0 0 0
0 0 0
0 0 0
0 0 0
0 0 0
0 0 0
0 0 0
0 0 0
0 0 0
0 0 0
0 0 0
0 0 0
0 0 0
0 0 0
0 0 0
0 0 0
0 0 0
0 0 0
0 0 0
0 0 0
0 0 0
0 0 0
0 0 0
0 0 0
0 0 0
0 0 0
0 0 0
0 0 0
0 0 0
0 0 0
0 0 0
0 0 0
0 0 0
0 0 0
0 0 0
0 0 0
0 0 0
0 0 0
0 0 0
0 0 0
0 0 0
0 0 0
0 0 0
0 0 0
0 0 0
0 0 0
0 0 0
0 0 0
0 0 0
0 0 0
0 0 0
0 0 0
0 0 0
0 0 0
0 0 0
0 0 0
0 0 0
0 0 0
0 0 0
0 0 0
0 0 0
0 0 0
0 0 0
0 0 0
0 0 0
0 0 0
0 0 0
0 0 0
0 0 0
0 0 0
0 0 0
0 0 0
0 0 0
0 0 0
0 0 0
0 0 0
0 0 0
0 0 0
0 0 0
0 0 0
0 0 0
0 0 0
0 0 0
0 0 0
0 0 0
0 0 0
0 0 0
0 0 0
0 0 0
0 0 0
0 0 0
0 0 0
0 0 0
0 0 0
0 0 0
0 0 0
0 0 0
0 0 0
0 0 0
0 0 0
0 0 0
0 0 0
0 0 0
0 0 0
0 0 0
0 0 0
0 0 0
0 0 0
0 0 0
0 0 0
0 0 0
0 0 0
0 0 0
0 0 0
0 0 0
0 0 0
0 0 0
0 0 0
0 0 0
0 0 0
0 0 0
0 0 0
0 0 0
0 0 0
0 0 0
0 0 0
0 0 0
0 0 0
0 0 0
0 0 0
0 0 0
0 0 0
0 0 0
0 0 0
0 0 0
0 0 0
0 0 0
0 0 0
0 0 0
0 0 0
0 0 0
0 0 0
0 0 0
0 0 0
0 0 0
0 0 0
0 0 0
0 0 0
0 0 0
0 0 0
0 0 0
0 0 0
0 0 0
0 0 0
0 0 0
0 0 0
0 0 0
0 0 0
0 0 0
0 0 0
0 0 0
0 0 0
0 0 0
0 0 0
0 0 0
0 0 0
0 0 0
0 0 0
0 0 0
0 0 0
0 0 0
0 0 0
0 0 0
0 0 0
0 0 0
0 0 0
0 0 0
0 0 0
0 0 0
0 0 0
0 0 0
0 0 0
0 0 0
0 0 0
0 0 0
0 0 0
0 0 0
0 0 0
0 0 0
0 0 0
0 0 0
0 0 0
0 0 0
0 0 0
0 0 0
0 0 0
0 0 0
0 0 0
0 0 0
0 0 0
0 0 0
0 0 0
0 0 0
0 0 0
0 0 0
0 0 0
0 0 0
0 0 0
0 0 0
0 0 0
0 0 0
0 0 0
0 0 0
0 0 0
0 0 0
0 0 0
0 0 0
0 0 0
0 0 0
0 0 0
0 0 0
0 0 0
0 0 0
0 0 0
0 0 0
0 0 0
0 0 0
0 0 0
0 0 0
0 0 0
0 0 0
0 0 0
0 0 0
246 197 148
247 197 148
248 198 148
249 198 148
250 199 148
251 199 148
252 200 148
253 200 148
254 201 148
0 74 149
1 75 149
2 75 149
3 76 149
4 76 149
5 77 149
6 77 149
7 78 149
8 78 149
9 79 149
0 0 0
0 0 0
0 0 0
0 0 0
0 0 0
0 0 0
0 0 0
0 0 0
0 0 0
0 0 0
0 0 0
0 0 0
0 0 0
0 0 0
0 0 0
0 0 0
0 0 0
0 0 0
0 0 0
0 0 0
0 0 0
0 0 0
0 0 0
0 0 0
0 0 0
0 0 0
0 0 0
0 0 0
0 0 0
0 0 0
0 0 0
0 0 0
0 0 0
0 0 0
0 0 0
0 0 0
0 0 0
0 0 0
0 0 0
0 0 0
0 0 0
0 0 0
0 0 0
0 0 0
0 0 0
0 0 0
0 0 0
0 0 0
0 0 0
0 0 0
0 0 0
0 0 0
0 0 0
0 0 0
0 0 0
0 0 0
0 0 0
0 0 0
0 0 0
0 0 0
0 0 0
0 0 0
0 0 0
0 0 0
0 0 0
0 0 0
0 0 0
0 0 0
0 0 0
0 0 0
0 0 0
0 0 0
0 0 0
0 0 0
0 0 0
0 0 0
0 0 0
0 0 0
0 0 0
0 0 0
0 0 0
0 0 0
0 0 0
0 0 0
0 0 0
0 0 0
0 0 0
0 0 0
0 0 0
0 0 0
0 0 0
0 0 0
0 0 0
0 0 0
0 0 0
0 0 0
0 0 0
0 0 0
0 0 0
0 0 0
0 0 0
0 0 0
0 0 0
0 0 0
0 0 0
0 0 0
0 0 0
0 0 0
0 0 0
0 0 0
0 0 0
0 0 0
0 0 0
0 0 0
0 0 0
0 0 0
0 0 0
0 0 0
0 0 0
0 0 0
0 0 0
0 0 0
0 0 0
0 0 0
0 0 0
0 0 0
0 0 0
0 0 0
0 0 0
0 0 0
0 0 0
0 0 0
0 0 0
0 0 0
0 0 0
0 0 0
0 0 0
0 0 0
0 0 0
0 0 0
0 0 0
0 0 0
0 0 0
0 0 0
0 0 0
0 0 0
0 0 0
0 0 0
0 0 0
0 0 0
0 0 0
0 0 0
0 0 0
0 0 0
0 0 0
0 0 0
0 0 0
0 0 0
0 0 0
0 0 0
0 0 0
0 0 0
0 0 0
0 0 0
0 0 0
0 0 0
0 0 0
0 0 0
0 0 0
0 0 0
0 0 0
0 0 0
0 0 0
0 0 0
0 0 0
0 0 0
0 0 0
0 0 0
0 0 0
0 0 0
0 0 0
0 0 0
0 0 0
0 0 0
0 0 0
0 0 0
0 0 0
0 0 0
0 0 0
0 0 0
0 0 0
0 0 0
0 0 0
0 0 0
0 0 0
0 0 0
0 0 0
0 0 0
0 0 0
0 0 0
0 0 0
0 0 0
0 0 0
0 0 0
0 0 0
0 0 0
0 0 0
0 0 0
0 0 0
0 0 0
0 0 0
0 0 0
0 0 0
0 0 0
0 0 0
0 0 0
0 0 0
0 0 0
0 0 0
0 0 0
0 0 0
0 0 0
0 0 0
0 0 0
0 0 0
0 0 0
0 0 0
0 0 0
0 0 0
0 0 0
0 0 0
0 0 0
0 0 0
0 0 0
0 0 0
245 197 149
246 197 149
247 198 149
248 198 149
249 199 149
250 199 149
251 200 149
252 200 149
253 201 149
254 201 149
0 75 150
1 75 150
2 76 150
3 76 150
4 77 150
5 77 150
6 78 150
7 78 150
8 79 150
9 79 150
0 0 0
0 0 0
0 0 0
0 0 0
0 0 0
0 0 0
0 0 0
0 0 0
0 0 0
0 0 0
0 0 0
0 0 0
0 0 0
0 0 0
0 0 0
0 0 0
0 0 0
0 0 0
0 0 0
0 0 0
0 0 0
0 0 0
0 0 0
0 0 0
0 0 0
0 0 0
0 0 0
0 0 0
0 0 0
0 0 0
0 0 0
0 0 0
0 0 0
0 0 0
0 0 0
0 0 0
0 0 0
0 0 0
0 0 0
0 0 0
0 0 0
0 0 0
0 0 0
0 0 0
0 0 0
0 0 0
0 0 0
0 0 0
0 0 0
0 0 0
0 0 0
0 0 0
0 0 0
0 0 0
0 0 0
0 0 0
0 0 0
0 0 0
0 0 0
0 0 0
0 0 0
0 0 0
0 0 0
0 0 0
0 0 0
0 0 0
0 0 0
0 0 0
0 0 0
0 0 0
0 0 0
0 0 0
0 0 0
0 0 0
0 0 0
0 0 0
0 0 0
0 0 0
0 0 0
0 0 0
0 0 0
0 0 0
0 0 0
0 0 0
0 0 0
0 0 0
0 0 0
0 0 0
0 0 0
0 0 0
0 0 0
0 0 0
0 0 0
0 0 0
0 0 0
0 0 0
0 0 0
0 0 0
0 0 0
0 0 0
0 0 0
0 0 0
0 0 0
0 0 0
0 0 0
0 0 0
0 0 0
0 0 0
0 0 0
0 0 0
0 0 0
0 0 0
0 0 0
0 0 0
0 0 0
0 0 0
0 0 0
0 0 0
0 0 0
0 0 0
0 0 0
0 0 0
0 0 0
0 0 0
0 0 0
0 0 0
0 0 0
0 0 0
0 0 0
0 0 0
0 0 0
0 0 0
0 0 0
0 0 0
0 0 0
0 0 0
0 0 0
0 0 0
0 0 0
0 0 0
0 0 0
0 0 0
0 0 0
0 0 0
0 0 0
0 0 0
0 0 0
0 0 0
0 0 0
0 0 0
0 0 0
0 0 0
0 0 0
0 0 0
0 0 0
0 0 0
0 0 0
0 0 0
0 0 0
0 0 0
0 0 0
0 0 0
0 0 0
0 0 0
0 0 0
0 0 0
0 0 0
0 0 0
0 0 0
0 0 0
0 0 0
0 0 0
0 0 0
0 0 0
0 0 0
0 0 0
0 0 0
0 0 0
0 0 0
0 0 0
0 0 0
0 0 0
0 0 0
0 0 0
0 0 0
0 0 0
0 0 0
0 0 0
0 0 0
0 0 0
0 0 0
0 0 0
0 0 0
0 0 0
0 0 0
0 0 0
0 0 0
0 0 0
0 0 0
0 0 0
0 0 0
0 0 0
0 0 0
0 0 0
0 0 0
0 0 0
0 0 0
0 0 0
0 0 0
0 0 0
0 0 0
0 0 0
0 0 0
0 0 0
0 0 0
0 0 0
0 0 0
0 0 0
0 0 0
0 0 0
0 0 0
0 0 0
0 0 0
0 0 0
0 0 0
0 0 0
0 0 0
0 0 0
0 0 0
0 0 0
0 0 0
0 0 0
0 0 0
0 0 0
0 0 0
245 197 150
246 198 150
247 198 150
248 199 150
249 199 150
250 200 150
251 200 150
252 201 150
253 201 150
254 202 150
0 75 151
1 76 151
2 76 151
3 77 151
4 77 151
5 78 151
6 78 151
7 79 151
8 79 151
9 80 151
0 0 0
0 0 0
0 0 0
0 0 0
0 0 0
0 0 0
0 0 0
0 0 0
0 0 0
0 0 0
0 0 0
0 0 0
0 0 0
0 0 0
0 0 0
0 0 0
0 0 0
0 0 0
0 0 0
0 0 0
0 0 0
0 0 0
0 0 0
0 0 0
0 0 0
0 0 0
0 0 0
0 0 0
0 0 0
0 0 0
0 0 0
0 0 0
0 0 0
0 0 0
0 0 0
0 0 0
0 0 0
0 0 0
0 0 0
0 0 0
0 0 0
0 0 0
0 0 0
0 0 0
0 0 0
0 0 0
0 0 0
0 0 0
0 0 0
0 0 0
0 0 0
0 0 0
0 0 0
0 0 0
0 0 0
0 0 0
0 0 0
0 0 0
0 0 0
0 0 0
0 0 0
0 0 0
0 0 0
0 0 0
0 0 0
0 0 0
0 0 0
0 0 0
0 0 0
0 0 0
0 0 0
0 0 0
0 0 0
0 0 0
0 0 0
0 0 0
0 0 0
0 0 0
0 0 0
0 0 0
0 0 0
0 0 0
0 0 0
0 0 0
0 0 0
0 0 0
0 0 0
0 0 0
0 0 0
0 0 0
0 0 0
0 0 0
0 0 0
0 0 0
0 0 0
0 0 0
0 0 0
0 0 0
0 0 0
0 0 0
0 0 0
0 0 0
0 0 0
0 0 0
0 0 0
0 0 0
0 0 0
0 0 0
0 0 0
0 0 0
0 0 0
0 0 0
0 0 0
0 0 0
0 0 0
0 0 0
0 0 0
0 0 0
0 0 0
0 0 0
0 0 0
0 0 0
0 0 0
0 0 0
0 0 0
0 0 0
0 0 0
0 0 0
0 0 0
0 0 0
0 0 0
0 0 0
0 0 0
0 0 0
0 0 0
0 0 0
0 0 0
0 0 0
0 0 0
0 0 0
0 0 0
0 0 0
0 0 0
0 0 0
0 0 0
0 0 0
0 0 0
0 0 0
0 0 0
0 0 0
0 0 0
0 0 0
0 0 0
0 0 0
0 0 0
0 0 0
0 0 0
0 0 0
0 0 0
0 0 0
0 0 0
0 0 0
0 0 0
0 0 0
0 0 0
0 0 0
0 0 0
0 0 0
0 0 0
0 0 0
0 0 0
0 0 0
0 0 0
0 0 0
0 0 0
0 0 0
0 0 0
0 0 0
0 0 0
0 0 0
0 0 0
0 0 0
0 0 0
0 0 0
0 0 0
0 0 0
0 0 0
0 0 0
0 0 0
0 0 0
0 0 0
0 0 0
0 0 0
0 0 0
0 0 0
0 0 0
0 0 0
0 0 0
0 0 0
0 0 0
0 0 0
0 0 0
0 0 0
0 0 0
0 0 0
0 0 0
0 0 0
0 0 0
0 0 0
0 0 0
0 0 0
0 0 0
0 0 0
0 0 0
0 0 0
0 0 0
0 0 0
0 0 0
0 0 0
0 0 0
0 0 0
0 0 0
0 0 0
0 0 0
0 0 0
0 0 0
0 0 0
0 0 0
0 0 0
0 0 0
0 0 0
0 0 0
0 0 0
0 0 0
0 0 0
245 198 151
246 198 151
247 199 151
248 199 151
249 200 151
250 200 151
251 201 151
252 201 151
253 202 151
254 202 151
0 76 152
1 76 152
2 77 152
3 77 152
4 78 152
5 78 152
6 79 152
7 79 152
8 80 152
9 80 152
0 0 0
0 0 0
0 0 0
0 0 0
0 0 0
0 0 0
0 0 0
0 0 0
0 0 0
0 0 0
0 0 0
0 0 0
0 0 0
0 0 0
0 0 0
0 0 0
0 0 0
0 0 0
0 0 0
0 0 0
0 0 0
0 0 0
0 0 0
0 0 0
0 0 0
0 0 0
0 0 0
0 0 0
0 0 0
0 0 0
0 0 0
0 0 0
0 0 0
0 0 0
0 0 0
0 0 0
0 0 0
0 0 0
0 0 0
0 0 0
0 0 0
0 0 0
0 0 0
0 0 0
0 0 0
0 0 0
0 0 0
0 0 0
0 0 0
0 0 0
0 0 0
0 0 0
0 0 0
0 0 0
0 0 0
0 0 0
0 0 0
0 0 0
0 0 0
0 0 0
0 0 0
0 0 0
0 0 0
0 0 0
0 0 0
0 0 0
0 0 0
0 0 0
0 0 0
0 0 0
0 0 0
0 0 0
0 0 0
0 0 0
0 0 0
0 0 0
0 0 0
0 0 0
0 0 0
0 0 0
0 0 0
0 0 0
0 0 0
0 0 0
0 0 0
0 0 0
0 0 0
0 0 0
0 0 0
0 0 0
0 0 0
0 0 0
0 0 0
0 0 0
0 0 0
0 0 0
0 0 0
0 0 0
0 0 0
0 0 0
0 0 0
0 0 0
0 0 0
0 0 0
0 0 0
0 0 0
0 0 0
0 0 0
0 0 0
0 0 0
0 0 0
0 0 0
0 0 0
0 0 0
0 0 0
0 0 0
0 0 0
0 0 0
0 0 0
0 0 0
0 0 0
0 0 0
0 0 0
0 0 0
0 0 0
0 0 0
0 0 0
0 0 0
0 0 0
0 0 0
0 0 0
0 0 0
0 0 0
0 0 0
0 0 0
0 0 0
0 0 0
0 0 0
0 0 0
0 0 0
0 0 0
0 0 0
0 0 0
0 0 0
0 0 0
0 0 0
0 0 0
0 0 0
0 0 0
0 0 0
0 0 0
0 0 0
0 0 0
0 0 0
0 0 0
0 0 0
0 0 0
0 0 0
0 0 0
0 0 0
0 0 0
0 0 0
0 0 0
0 0 0
0 0 0
0 0 0
0 0 0
0 0 0
0 0 0
0 0 0
0 0 0
0 0 0
0 0 0
0 0 0
0 0 0
0 0 0
0 0 0
0 0 0
0 0 0
0 0 0
0 0 0
0 0 0
0 0 0
0 0 0
0 0 0
0 0 0
0 0 0
0 0 0
0 0 0
0 0 0
0 0 0
0 0 0
0 0 0
0 0 0
0 0 0
0 0 0
0 0 0
0 0 0
0 0 0
0 0 0
0 0 0
0 0 0
0 0 0
0 0 0
0 0 0
0 0 0
0 0 0
0 0 0
0 0 0
0 0 0
0 0 0
0 0 0
0 0 0
0 0 0
0 0 0
0 0 0
0 0 0
0 0 0
0 0 0
0 0 0
0 0 0
0 0 0
0 0 0
0 0 0
0 0 0
0 0 0
0 0 0
0 0 0
0 0 0
0 0 0
0 0 0
0 0 0
0 0 0
0 0 0
0 0 0
245 198 152
246 199 152
247 199 152
248 200 152
249 200 152
250 201 152
251 201 152
252 202 152
253 202 152
254 203 152
0 76 153
1 77 153
2 77 153
3 78 153
4 78 153
5 79 153
6 79 153
7 80 153
8 80 153
9 81 153
0 0 0
0 0 0
0 0 0
0 0 0
0 0 0
0 0 0
0 0 0
0 0 0
0 0 0
0 0 0
0 0 0
0 0 0
0 0 0
0 0 0
0 0 0
0 0 0
0 0 0
0 0 0
0 0 0
0 0 0
0 0 0
0 0 0
0 0 0
0 0 0
0 0 0
0 0 0
0 0 0
0 0 0
0 0 0
0 0 0
0 0 0
0 0 0
0 0 0
0 0 0
0 0 0
0 0 0
0 0 0
0 0 0
0 0 0
0 0 0
0 0 0
0 0 0
0 0 0
0 0 0
0 0 0
0 0 0
0 0 0
0 0 0
0 0 0
0 0 0
0 0 0
0 0 0
0 0 0
0 0 0
0 0 0
0 0 0
0 0 0
0 0 0
0 0 0
0 0 0
0 0 0
0 0 0
0 0 0
0 0 0
0 0 0
0 0 0
0 0 0
0 0 0
0 0 0
0 0 0
0 0 0
0 0 0
0 0 0
0 0 0
0 0 0
0 0 0
0 0 0
0 0 0
0 0 0
0 0 0
0 0 0
0 0 0
0 0 0
0 0 0
0 0 0
0 0 0
0 0 0
0 0 0
0 0 0
0 0 0
0 0 0
0 0 0
0 0 0
0 0 0
0 0 0
0 0 0
0 0 0
0 0 0
0 0 0
0 0 0
0 0 0
0 0 0
0 0 0
0 0 0
0 0 0
0 0 0
0 0 0
0 0 0
0 0 0
0 0 0
0 0 0
0 0 0
0 0 0
0 0 0
0 0 0
0 0 0
0 0 0
0 0 0
0 0 0
0 0 0
0 0 0
0 0 0
0 0 0
0 0 0
0 0 0
0 0 0
0 0 0
0 0 0
0 0 0
0 0 0
0 0 0
0 0 0
0 0 0
0 0 0
0 0 0
0 0 0
0 0 0
0 0 0
0 0 0
0 0 0
0 0 0
0 0 0
0 0 0
0 0 0
0 0 0
0 0 0
0 0 0
0 0 0
0 0 0
0 0 0
0 0 0
0 0 0
0 0 0
0 0 0
0 0 0
0 0 0
0 0 0
0 0 0
0 0 0
0 0 0
0 0 0
0 0 0
0 0 0
0 0 0
0 0 0
0 0 0
0 0 0
0 0 0
0 0 0
0 0 0
0 0 0
0 0 0
0 0 0
0 0 0
0 0 0
0 0 0
0 0 0
0 0 0
0 0 0
0 0 0
0 0 0
0 0 0
0 0 0
0 0 0
0 0 0
0 0 0
0 0 0
0 0 0
0 0 0
0 0 0
0 0 0
0 0 0
0 0 0
0 0 0
0 0 0
0 0 0
0 0 0
0 0 0
0 0 0
0 0 0
0 0 0
0 0 0
0 0 0
0 0 0
0 0 0
0 0 0
0 0 0
0 0 0
0 0 0
0 0 0
0 0 0
0 0 0
0 0 0
0 0 0
0 0 0
0 0 0
0 0 0
0 0 0
0 0 0
0 0 0
0 0 0
0 0 0
0 0 0
0 0 0
0 0 0
0 0 0
0 0 0
0 0 0
0 0 0
0 0 0
0 0 0
0 0 0
0 0 0
0 0 0
0 0 0
245 199 153
246 199 153
247 200 153
248 200 153
249 201 153
250 201 153
251 202 153
252 202 153
253 203 153
254 203 153
0 77 154
1 77 154
2 78 154
3 78 154
4 79 154
5 79 154
6 80 154
7 80 154
8 81 154
9 81 154
10 82 154
0 0 0
0 0 0
0 0 0
0 0 0
0 0 0
0 0 0
0 0 0
0 0 0
0 0 0
0 0 0
0 0 0
0 0 0
0 0 0
0 0 0
0 0 0
0 0 0
0 0 0
0 0 0
0 0 0
0 0 0
0 0 0
0 0 0
0 0 0
0 0 0
0 0 0
0 0 0
0 0 0
0 0 0
0 0 0
0 0 0
0 0 0
0 0 0
0 0 0
0 0 0
0 0 0
0 0 0
0 0 0
0 0 0
0 0 0
0 0 0
0 0 0
0 0 0
0 0 0
0 0 0
0 0 0
0 0 0
0 0 0
0 0 0
0 0 0
0 0 0
0 0 0
0 0 0
0 0 0
0 0 0
0 0 0
0 0 0
0 0 0
0 0 0
0 0 0
0 0 0
0 0 0
0 0 0
0 0 0
0 0 0
0 0 0
0 0 0
0 0 0
0 0 0
0 0 0
0 0 0
0 0 0
0 0 0
0 0 0
0 0 0
0 0 0
0 0 0
0 0 0
0 0 0
0 0 0
0 0 0
0 0 0
0 0 0
0 0 0
0 0 0
0 0 0
0 0 0
0 0 0
0 0 0
0 0 0
0 0 0
0 0 0
0 0 0
0 0 0
0 0 0
0 0 0
0 0 0
0 0 0
0 0 0
0 0 0
0 0 0
0 0 0
0 0 0
0 0 0
0 0 0
0 0 0
0 0 0
0 0 0
0 0 0
0 0 0
0 0 0
0 0 0
0 0 0
0 0 0
0 0 0
0 0 0
0 0 0
0 0 0
0 0 0
0 0 0
0 0 0
0 0 0
0 0 0
0 0 0
0 0 0
0 0 0
0 0 0
0 0 0
0 0 0
0 0 0
0 0 0
0 0 0
0 0 0
0 0 0
0 0 0
0 0 0
0 0 0
0 0 0
0 0 0
0 0 0
0 0 0
0 0 0
0 0 0
0 0 0
0 0 0
0 0 0
0 0 0
0 0 0
0 0 0
0 0 0
0 0 0
0 0 0
0 0 0
0 0 0
0 0 0
0 0 0
0 0 0
0 0 0
0 0 0
0 0 0
0 0 0
0 0 0
0 0 0
0 0 0
0 0 0
0 0 0
0 0 0
0 0 0
0 0 0
0 0 0
0 0 0
0 0 0
0 0 0
0 0 0
0 0 0
0 0 0
0 0 0
0 0 0
0 0 0
0 0 0
0 0 0
0 0 0
0 0 0
0 0 0
0 0 0
0 0 0
0 0 0
0 0 0
0 0 0
0 0 0
0 0 0
0 0 0
0 0 0
0 0 0
0 0 0
0 0 0
0 0 0
0 0 0
0 0 0
0 0 0
0 0 0
0 0 0
0 0 0
0 0 0
0 0 0
0 0 0
0 0 0
0 0 0
0 0 0
0 0 0
0 0 0
0 0 0
0 0 0
0 0 0
0 0 0
0 0 0
0 0 0
0 0 0
0 0 0
0 0 0
0 0 0
0 0 0
0 0 0
0 0 0
0 0 0
0 0 0
0 0 0
0 0 0
0 0 0
0 0 0
0 0 0
0 0 0
0 0 0
0 0 0
244 199 154
245 199 154
246 200 154
247 200 154
248 201 154
249 201 154
250 202 154
251 202 154
252 203 154
253 203 154
254 204 154
0 77 155
1 78 155
2 78 155
3 79 155
4 79 155
5 80 155
6 80 155
7 81 155
8 81 155
9 82 155
10 82 155
0 0 0
0 0 0
0 0 0
0 0 0
0 0 0
0 0 0
0 0 0
0 0 0
0 0 0
0 0 0
0 0 0
0 0 0
0 0 0
0 0 0
0 0 0
0 0 0
0 0 0
0 0 0
0 0 0
0 0 0
0 0 0
0 0 0
0 0 0
0 0 0
0 0 0
0 0 0
0 0 0
0 0 0
0 0 0
0 0 0
0 0 0
0 0 0
0 0 0
0 0 0
0 0 0
0 0 0
0 0 0
0 0 0
0 0 0
0 0 0
0 0 0
0 0 0
0 0 0
0 0 0
0 0 0
0 0 0
0 0 0
0 0 0
0 0 0
0 0 0
0 0 0
0 0 0
0 0 0
0 0 0
0 0 0
0 0 0
0 0 0
0 0 0
0 0 0
0 0 0
0 0 0
0 0 0
0 0 0
0 0 0
0 0 0
0 0 0
0 0 0
0 0 0
0 0 0
0 0 0
0 0 0
0 0 0
0 0 0
0 0 0
0 0 0
0 0 0
0 0 0
0 0 0
0 0 0
0 0 0
0 0 0
0 0 0
0 0 0
0 0 0
0 0 0
0 0 0
0 0 0
0 0 0
0 0 0
0 0 0
0 0 0
0 0 0
0 0 0
0 0 0
0 0 0
0 0 0
0 0 0
0 0 0
0 0 0
0 0 0
0 0 0
0 0 0
0 0 0
0 0 0
0 0 0
0 0 0
0 0 0
0 0 0
0 0 0
0 0 0
0 0 0
0 0 0
0 0 0
0 0 0
0 0 0
0 0 0
0 0 0
0 0 0
0 0 0
0 0 0
0 0 0
0 0 0
0 0 0
0 0 0
0 0 0
0 0 0
0 0 0
0 0 0
0 0 0
0 0 0
0 0 0
0 0 0
0 0 0
0 0 0
0 0 0
0 0 0
0 0 0
0 0 0
0 0 0
0 0 0
0 0 0
0 0 0
0 0 0
0 0 0
0 0 0
0 0 0
0 0 0
0 0 0
0 0 0
0 0 0
0 0 0
0 0 0
0 0 0
0 0 0
0 0 0
0 0 0
0 0 0
0 0 0
0 0 0
0 0 0
0 0 0
0 0 0
0 0 0
0 0 0
0 0 0
0 0 0
0 0 0
0 0 0
0 0 0
0 0 0
0 0 0
0 0 0
0 0 0
0 0 0
0 0 0
0 0 0
0 0 0
0 0 0
0 0 0
0 0 0
0 0 0
0 0 0
0 0 0
0 0 0
0 0 0
0 0 0
0 0 0
0 0 0
0 0 0
0 0 0
0 0 0
0 0 0
0 0 0
0 0 0
0 0 0
0 0 0
0 0 0
0 0 0
0 0 0
0 0 0
0 0 0
0 0 0
0 0 0
0 0 0
0 0 0
0 0 0
0 0 0
0 0 0
0 0 0
0 0 0
0 0 0
0 0 0
0 0 0
0 0 0
0 0 0
0 0 0
0 0 0
0 0 0
0 0 0
0 0 0
0 0 0
0 0 0
0 0 0
0 0 0
0 0 0
0 0 0
0 0 0
0 0 0
0 0 0
0 0 0
0 0 0
0 0 0
0 0 0
244 199 155
245 200 155
246 200 155
247 201 155
248 201 155
249 202 155
250 202 155
251 203 155
252 203 155
253 204 155
254 204 155
0 78 156
1 78 156
2 79 156
3 79 156
4 80 156
5 80 156
6 81 156
7 81 156
8 82 156
9 82 156
10 83 156
0 0 0
0 0 0
0 0 0
0 0 0
0 0 0
0 0 0
0 0 0
0 0 0
0 0 0
0 0 0
0 0 0
0 0 0
0 0 0
0 0 0
0 0 0
0 0 0
0 0 0
0 0 0
0 0 0
0 0 0
0 0 0
0 0 0
0 0 0
0 0 0
0 0 0
0 0 0
0 0 0
0 0 0
0 0 0
0 0 0
0 0 0
0 0 0
0 0 0
0 0 0
0 0 0
0 0 0
0 0 0
0 0 0
0 0 0
0 0 0
0 0 0
0 0 0
0 0 0
0 0 0
0 0 0
0 0 0
0 0 0
0 0 0
0 0 0
0 0 0
0 0 0
0 0 0
0 0 0
0 0 0
0 0 0
0 0 0
0 0 0
0 0 0
0 0 0
0 0 0
0 0 0
0 0 0
0 0 0
0 0 0
0 0 0
0 0 0
0 0 0
0 0 0
0 0 0
0 0 0
0 0 0
0 0 0
0 0 0
0 0 0
0 0 0
0 0 0
0 0 0
0 0 0
0 0 0
0 0 0
0 0 0
0 0 0
0 0 0
0 0 0
0 0 0
0 0 0
0 0 0
0 0 0
0 0 0
0 0 0
0 0 0
0 0 0
0 0 0
0 0 0
0 0 0
0 0 0
0 0 0
0 0 0
0 0 0
0 0 0
0 0 0
0 0 0
0 0 0
0 0 0
0 0 0
0 0 0
0 0 0
0 0 0
0 0 0
0 0 0
0 0 0
0 0 0
0 0 0
0 0 0
0 0 0
0 0 0
0 0 0
0 0 0
0 0 0
0 0 0
0 0 0
0 0 0
0 0 0
0 0 0
0 0 0
0 0 0
0 0 0
0 0 0
0 0 0
0 0 0
0 0 0
0 0 0
0 0 0
0 0 0
0 0 0
0 0 0
0 0 0
0 0 0
0 0 0
0 0 0
0 0 0
0 0 0
0 0 0
0 0 0
0 0 0
0 0 0
0 0 0
0 0 0
0 0 0
0 0 0
0 0 0
0 0 0
0 0 0
0 0 0
0 0 0
0 0 0
0 0 0
0 0 0
0 0 0
0 0 0
0 0 0
0 0 0
0 0 0
0 0 0
0 0 0
0 0 0
0 0 0
0 0 0
0 0 0
0 0 0
0 0 0
0 0 0
0 0 0
0 0 0
0 0 0
0 0 0
0 0 0
0 0 0
0 0 0
0 0 0
0 0 0
0 0 0
0 0 0
0 0 0
0 0 0
0 0 0
0 0 0
0 0 0
0 0 0
0 0 0
0 0 0
0 0 0
0 0 0
0 0 0
0 0 0
0 0 0
0 0 0
0 0 0
0 0 0
0 0 0
0 0 0
0 0 0
0 0 0
0 0 0
0 0 0
0 0 0
0 0 0
0 0 0
0 0 0
0 0 0
0 0 0
0 0 0
0 0 0
0 0 0
0 0 0
0 0 0
0 0 0
0 0 0
0 0 0
0 0 0
0 0 0
0 0 0
0 0 0
0 0 0
0 0 0
0 0 0
0 0 0
0 0 0
0 0 0
0 0 0
0 0 0
0 0 0
0 0 0
244 200 156
245 200 156
246 201 156
247 201 156
248 202 156
249 202 156
250 203 156
251 203 156
252 204 156
253 204 156
254 205 156
0 78 157
1 79 157
2 79 157
3 80 157
4 80 157
5 81 157
6 81 157
7 82 157
8 82 157
9 83 157
10 83 157
0 0 0
0 0 0
0 0 0
0 0 0
0 0 0
0 0 0
0 0 0
0 0 0
0 0 0
0 0 0
0 0 0
0 0 0
0 0 0
0 0 0
0 0 0
0 0 0
0 0 0
0 0 0
0 0 0
0 0 0
0 0 0
0 0 0
0 0 0
0 0 0
0 0 0
0 0 0
0 0 0
0 0 0
0 0 0
0 0 0
0 0 0
0 0 0
0 0 0
0 0 0
0 0 0
0 0 0
0 0 0
0 0 0
0 0 0
0 0 0
0 0 0
0 0 0
0 0 0
0 0 0
0 0 0
0 0 0
0 0 0
0 0 0
0 0 0
0 0 0
0 0 0
0 0 0
0 0 0
0 0 0
0 0 0
0 0 0
0 0 0
0 0 0
0 0 0
0 0 0
0 0 0
0 0 0
0 0 0
0 0 0
0 0 0
0 0 0
0 0 0
0 0 0
0 0 0
0 0 0
0 0 0
0 0 0
0 0 0
0 0 0
0 0 0
0 0 0
0 0 0
0 0 0
0 0 0
0 0 0
0 0 0
0 0 0
0 0 0
0 0 0
0 0 0
0 0 0
0 0 0
0 0 0
0 0 0
0 0 0
0 0 0
0 0 0
0 0 0
0 0 0
0 0 0
0 0 0
0 0 0
0 0 0
0 0 0
0 0 0
0 0 0
0 0 0
0 0 0
0 0 0
0 0 0
0 0 0
0 0 0
0 0 0
0 0 0
0 0 0
0 0 0
0 0 0
0 0 0
0 0 0
0 0 0
0 0 0
0 0 0
0 0 0
0 0 0
0 0 0
0 0 0
0 0 0
0 0 0
0 0 0
0 0 0
0 0 0
0 0 0
0 0 0
0 0 0
0 0 0
0 0 0
0 0 0
0 0 0
0 0 0
0 0 0
0 0 0
0 0 0
0 0 0
0 0 0
0 0 0
0 0 0
0 0 0
0 0 0
0 0 0
0 0 0
0 0 0
0 0 0
0 0 0
0 0 0
0 0 0
0 0 0
0 0 0
0 0 0
0 0 0
0 0 0
0 0 0
0 0 0
0 0 0
0 0 0
0 0 0
0 0 0
0 0 0
0 0 0
0 0 0
0 0 0
0 0 0
0 0 0
0 0 0
0 0 0
0 0 0
0 0 0
0 0 0
0 0 0
0 0 0
0 0 0
0 0 0
0 0 0
0 0 0
0 0 0
0 0 0
0 0 0
0 0 0
0 0 0
0 0 0
0 0 0
0 0 0
0 0 0
0 0 0
0 0 0
0 0 0
0 0 0
0 0 0
0 0 0
0 0 0
0 0 0
0 0 0
0 0 0
0 0 0
0 0 0
0 0 0
0 0 0
0 0 0
0 0 0
0 0 0
0 0 0
0 0 0
0 0 0
0 0 0
0 0 0
0 0 0
0 0 0
0 0 0
0 0 0
0 0 0
0 0 0
0 0 0
0 0 0
0 0 0
0 0 0
0 0 0
0 0 0
0 0 0
0 0 0
0 0 0
0 0 0
0 0 0
0 0 0
0 0 0
0 0 0
0 0 0
0 0 0
0 0 0
0 0 0
244 200 157
245 201 157
246 201 157
247 202 157
248 202 157
249 203 157
250 203 157
251 204 157
252 204 157
253 205 157
254 205 157
0 79 158
1 79 158
2 80 158
3 80 158
4 81 158
5 81 158
6 82 158
7 82 158
8 83 158
9 83 158
10 84 158
11 84 158
0 0 0
0 0 0
0 0 0
0 0 0
0 0 0
0 0 0
0 0 0
0 0 0
0 0 0
0 0 0
0 0 0
0 0 0
0 0 0
0 0 0
0 0 0
0 0 0
0 0 0
0 0 0
0 0 0
0 0 0
0 0 0
0 0 0
0 0 0
0 0 0
0 0 0
0 0 0
0 0 0
0 0 0
0 0 0
0 0 0
0 0 0
0 0 0
0 0 0
0 0 0
0 0 0
0 0 0
0 0 0
0 0 0
0 0 0
0 0 0
0 0 0
0 0 0
0 0 0
0 0 0
0 0 0
0 0 0
0 0 0
0 0 0
0 0 0
0 0 0
0 0 0
0 0 0
0 0 0
0 0 0
0 0 0
0 0 0
0 0 0
0 0 0
0 0 0
0 0 0
0 0 0
0 0 0
0 0 0
0 0 0
0 0 0
0 0 0
0 0 0
0 0 0
0 0 0
0 0 0
0 0 0
0 0 0
0 0 0
0 0 0
0 0 0
0 0 0
0 0 0
0 0 0
0 0 0
0 0 0
0 0 0
0 0 0
0 0 0
0 0 0
0 0 0
0 0 0
0 0 0
0 0 0
0 0 0
0 0 0
0 0 0
0 0 0
0 0 0
0 0 0
0 0 0
0 0 0
0 0 0
0 0 0
0 0 0
0 0 0
0 0 0
0 0 0
0 0 0
0 0 0
0 0 0
0 0 0
0 0 0
0 0 0
0 0 0
0 0 0
0 0 0
0 0 0
0 0 0
0 0 0
0 0 0
0 0 0
0 0 0
0 0 0
0 0 0
0 0 0
0 0 0
0 0 0
0 0 0
0 0 0
0 0 0
0 0 0
0 0 0
0 0 0
0 0 0
0 0 0
0 0 0
0 0 0
0 0 0
0 0 0
0 0 0
0 0 0
0 0 0
0 0 0
0 0 0
0 0 0
0 0 0
0 0 0
0 0 0
0 0 0
0 0 0
0 0 0
0 0 0
0 0 0
0 0 0
0 0 0
0 0 0
0 0 0
0 0 0
0 0 0
0 0 0
0 0 0
0 0 0
0 0 0
0 0 0
0 0 0
0 0 0
0 0 0
0 0 0
0 0 0
0 0 0
0 0 0
0 0 0
0 0 0
0 0 0
0 0 0
0 0 0
0 0 0
0 0 0
0 0 0
0 0 0
0 0 0
0 0 0
0 0 0
0 0 0
0 0 0
0 0 0
0 0 0
0 0 0
0 0 0
0 0 0
0 0 0
0 0 0
0 0 0
0 0 0
0 0 0
0 0 0
0 0 0
0 0 0
0 0 0
0 0 0
0 0 0
0 0 0
0 0 0
0 0 0
0 0 0
0 0 0
0 0 0
0 0 0
0 0 0
0 0 0
0 0 0
0 0 0
0 0 0
0 0 0
0 0 0
0 0 0
0 0 0
0 0 0
0 0 0
0 0 0
0 0 0
0 0 0
0 0 0
0 0 0
0 0 0
0 0 0
0 0 0
0 0 0
0 0 0
0 0 0
0 0 0
0 0 0
0 0 0
0 0 0
0 0 0
0 0 0
243 200 158
244 201 158
245 201 158
246 202 158
247 202 158
248 203 158
249 203 158
250 204 158
251 204 158
252 205 158
253 205 158
254 206 158
0 79 159
1 80 159
2 80 159
3 81 159
4 81 159
5 82 159
6 82 159
7 83 159
8 83 159
9 84 159
10 84 159
11 85 159
0 0 0
0 0 0
0 0 0
0 0 0
0 0 0
0 0 0
0 0 0
0 0 0
0 0 0
0 0 0
0 0 0
0 0 0
0 0 0
0 0 0
0 0 0
0 0 0
0 0 0
0 0 0
0 0 0
0 0 0
0 0 0
0 0 0
0 0 0
0 0 0
0 0 0
0 0 0
0 0 0
0 0 0
0 0 0
0 0 0
0 0 0
0 0 0
0 0 0
0 0 0
0 0 0
0 0 0
0 0 0
0 0 0
0 0 0
0 0 0
0 0 0
0 0 0
0 0 0
0 0 0
0 0 0
0 0 0
0 0 0
0 0 0
0 0 0
0 0 0
0 0 0
0 0 0
0 0 0
0 0 0
0 0 0
0 0 0
0 0 0
0 0 0
0 0 0
0 0 0
0 0 0
0 0 0
0 0 0
0 0 0
0 0 0
0 0 0
0 0 0
0 0 0
0 0 0
0 0 0
0 0 0
0 0 0
0 0 0
0 0 0
0 0 0
0 0 0
0 0 0
0 0 0
0 0 0
0 0 0
0 0 0
0 0 0
0 0 0
0 0 0
0 0 0
0 0 0
0 0 0
0 0 0
0 0 0
0 0 0
0 0 0
0 0 0
0 0 0
0 0 0
0 0 0
0 0 0
0 0 0
0 0 0
0 0 0
0 0 0
0 0 0
0 0 0
0 0 0
0 0 0
0 0 0
0 0 0
0 0 0
0 0 0
0 0 0
0 0 0
0 0 0
0 0 0
0 0 0
0 0 0
0 0 0
0 0 0
0 0 0
0 0 0
0 0 0
0 0 0
0 0 0
0 0 0
0 0 0
0 0 0
0 0 0
0 0 0
0 0 0
0 0 0
0 0 0
0 0 0
0 0 0
0 0 0
0 0 0
0 0 0
0 0 0
0 0 0
0 0 0
0 0 0
0 0 0
0 0 0
0 0 0
0 0 0
0 0 0
0 0 0
0 0 0
0 0 0
0 0 0
0 0 0
0 0 0
0 0 0
0 0 0
0 0 0
0 0 0
0 0 0
0 0 0
0 0 0
0 0 0
0 0 0
0 0 0
0 0 0
0 0 0
0 0 0
0 0 0
0 0 0
0 0 0
0 0 0
0 0 0
0 0 0
0 0 0
0 0 0
0 0 0
0 0 0
0 0 0
0 0 0
0 0 0
0 0 0
0 0 0
0 0 0
0 0 0
0 0 0
0 0 0
0 0 0
0 0 0
0 0 0
0 0 0
0 0 0
0 0 0
0 0 0
0 0 0
0 0 0
0 0 0
0 0 0
0 0 0
0 0 0
0 0 0
0 0 0
0 0 0
0 0 0
0 0 0
0 0 0
0 0 0
0 0 0
0 0 0
0 0 0
0 0 0
0 0 0
0 0 0
0 0 0
0 0 0
0 0 0
0 0 0
0 0 0
0 0 0
0 0 0
0 0 0
0 0 0
0 0 0
0 0 0
0 0 0
0 0 0
0 0 0
0 0 0
0 0 0
0 0 0
0 0 0
0 0 0
0 0 0
0 0 0
0 0 0
0 0 0
0 0 0
243 201 159
244 201 159
245 202 159
246 202 159
247 203 159
248 203 159
249 204 159
250 204 159
251 205 159
252 205 159
253 206 159
254 206 159
0 80 160
1 80 160
2 81 160
3 81 160
4 82 160
5 82 160
6 83 160
7 83 160
8 84 160
9 84 160
10 85 160
11 85 160
0 0 0
0 0 0
0 0 0
0 0 0
0 0 0
0 0 0
0 0 0
0 0 0
0 0 0
0 0 0
0 0 0
0 0 0
0 0 0
0 0 0
0 0 0
0 0 0
0 0 0
0 0 0
0 0 0
0 0 0
0 0 0
0 0 0
0 0 0
0 0 0
0 0 0
0 0 0
0 0 0
0 0 0
0 0 0
0 0 0
0 0 0
0 0 0
0 0 0
0 0 0
0 0 0
0 0 0
0 0 0
0 0 0
0 0 0
0 0 0
0 0 0
0 0 0
0 0 0
0 0 0
0 0 0
0 0 0
0 0 0
0 0 0
0 0 0
0 0 0
0 0 0
0 0 0
0 0 0
0 0 0
0 0 0
0 0 0
0 0 0
0 0 0
0 0 0
0 0 0
0 0 0
0 0 0
0 0 0
0 0 0
0 0 0
0 0 0
0 0 0
0 0 0
0 0 0
0 0 0
0 0 0
0 0 0
0 0 0
0 0 0
0 0 0
0 0 0
0 0 0
0 0 0
0 0 0
0 0 0
0 0 0
0 0 0
0 0 0
0 0 0
0 0 0
0 0 0
0 0 0
0 0 0
0 0 0
0 0 0
0 0 0
0 0 0
0 0 0
0 0 0
0 0 0
0 0 0
0 0 0
0 0 0
0 0 0
0 0 0
0 0 0
0 0 0
0 0 0
0 0 0
0 0 0
0 0 0
0 0 0
0 0 0
0 0 0
0 0 0
0 0 0
0 0 0
0 0 0
0 0 0
0 0 0
0 0 0
0 0 0
0 0 0
0 0 0
0 0 0
0 0 0
0 0 0
0 0 0
0 0 0
0 0 0
0 0 0
0 0 0
0 0 0
0 0 0
0 0 0
0 0 0
0 0 0
0 0 0
0 0 0
0 0 0
0 0 0
0 0 0
0 0 0
0 0 0
0 0 0
0 0 0
0 0 0
0 0 0
0 0 0
0 0 0
0 0 0
0 0 0
0 0 0
0 0 0
0 0 0
0 0 0
0 0 0
0 0 0
0 0 0
0 0 0
0 0 0
0 0 0
0 0 0
0 0 0
0 0 0
0 0 0
0 0 0
0 0 0
0 0 0
0 0 0
0 0 0
0 0 0
0 0 0
0 0 0
0 0 0
0 0 0
0 0 0
0 0 0
0 0 0
0 0 0
0 0 0
0 0 0
0 0 0
0 0 0
0 0 0
0 0 0
0 0 0
0 0 0
0 0 0
0 0 0
0 0 0
0 0 0
0 0 0
0 0 0
0 0 0
0 0 0
0 0 0
0 0 0
0 0 0
0 0 0
0 0 0
0 0 0
0 0 0
0 0 0
0 0 0
0 0 0
0 0 0
0 0 0
0 0 0
0 0 0
0 0 0
0 0 0
0 0 0
0 0 0
0 0 0
0 0 0
0 0 0
0 0 0
0 0 0
0 0 0
0 0 0
0 0 0
0 0 0
0 0 0
0 0 0
0 0 0
0 0 0
0 0 0
0 0 0
0 0 0
0 0 0
0 0 0
0 0 0
0 0 0
0 0 0
0 0 0
243 201 160
244 202 160
245 202 160
246 203 160
247 203 160
248 204 160
249 204 160
250 205 160
251 205 160
252 206 160
253 206 160
254 207 160
0 80 161
1 81 161
2 81 161
3 82 161
4 82 161
5 83 161
6 83 161
7 84 161
8 84 161
9 85 161
10 85 161
11 86 161
0 0 0
0 0 0
0 0 0
0 0 0
0 0 0
0 0 0
0 0 0
0 0 0
0 0 0
0 0 0
0 0 0
0 0 0
0 0 0
0 0 0
0 0 0
0 0 0
0 0 0
0 0 0
0 0 0
0 0 0
0 0 0
0 0 0
0 0 0
0 0 0
0 0 0
0 0 0
0 0 0
0 0 0
0 0 0
0 0 0
0 0 0
0 0 0
0 0 0
0 0 0
0 0 0
0 0 0
0 0 0
0 0 0
0 0 0
0 0 0
0 0 0
0 0 0
0 0 0
0 0 0
0 0 0
0 0 0
0 0 0
0 0 0
0 0 0
0 0 0
0 0 0
0 0 0
0 0 0
0 0 0
0 0 0
0 0 0
0 0 0
0 0 0
0 0 0
0 0 0
0 0 0
0 0 0
0 0 0
0 0 0
0 0 0
0 0 0
0 0 0
0 0 0
0 0 0
0 0 0
0 0 0
0 0 0
0 0 0
0 0 0
0 0 0
0 0 0
0 0 0
0 0 0
0 0 0
0 0 0
0 0 0
0 0 0
0 0 0
0 0 0
0 0 0
0 0 0
0 0 0
0 0 0
0 0 0
0 0 0
0 0 0
0 0 0
0 0 0
0 0 0
0 0 0
0 0 0
0 0 0
0 0 0
0 0 0
0 0 0
0 0 0
0 0 0
0 0 0
0 0 0
0 0 0
0 0 0
0 0 0
0 0 0
0 0 0
0 0 0
0 0 0
0 0 0
0 0 0
0 0 0
0 0 0
0 0 0
0 0 0
0 0 0
0 0 0
0 0 0
0 0 0
0 0 0
0 0 0
0 0 0
0 0 0
0 0 0
0 0 0
0 0 0
0 0 0
0 0 0
0 0 0
0 0 0
0 0 0
0 0 0
0 0 0
0 0 0
0 0 0
0 0 0
0 0 0
0 0 0
0 0 0
0 0 0
0 0 0
0 0 0
0 0 0
0 0 0
0 0 0
0 0 0
0 0 0
0 0 0
0 0 0
0 0 0
0 0 0
0 0 0
0 0 0
0 0 0
0 0 0
0 0 0
0 0 0
0 0 0
0 0 0
0 0 0
0 0 0
0 0 0
0 0 0
0 0 0
0 0 0
0 0 0
0 0 0
0 0 0
0 0 0
0 0 0
0 0 0
0 0 0
0 0 0
0 0 0
0 0 0
0 0 0
0 0 0
0 0 0
0 0 0
0 0 0
0 0 0
0 0 0
0 0 0
0 0 0
0 0 0
0 0 0
0 0 0
0 0 0
0 0 0
0 0 0
0 0 0
0 0 0
0 0 0
0 0 0
0 0 0
0 0 0
0 0 0
0 0 0
0 0 0
0 0 0
0 0 0
0 0 0
0 0 0
0 0 0
0 0 0
0 0 0
0 0 0
0 0 0
0 0 0
0 0 0
0 0 0
0 0 0
0 0 0
0 0 0
0 0 0
0 0 0
0 0 0
0 0 0
0 0 0
0 0 0
0 0 0
0 0 0
0 0 0
0 0 0
0 0 0
0 0 0
0 0 0
0 0 0
0 0 0
243 202 161
244 202 161
245 203 161
246 203 161
247 204 161
248 204 161
249 205 161
250 205 161
251 206 161
252 206 161
253 207 161
254 207 161
0 81 162
1 81 162
2 82 162
3 82 162
4 83 162
5 83 162
6 84 162
7 84 162
8 85 162
9 85 162
10 86 162
11 86 162
12 87 162
0 0 0
0 0 0
0 0 0
0 0 0
0 0 0
0 0 0
0 0 0
0 0 0
0 0 0
0 0 0
0 0 0
0 0 0
0 0 0
0 0 0
0 0 0
0 0 0
0 0 0
0 0 0
0 0 0
0 0 0
0 0 0
0 0 0
0 0 0
0 0 0
0 0 0
0 0 0
0 0 0
0 0 0
0 0 0
0 0 0
0 0 0
0 0 0
0 0 0
0 0 0
0 0 0
0 0 0
0 0 0
0 0 0
0 0 0
0 0 0
0 0 0
0 0 0
0 0 0
0 0 0
0 0 0
0 0 0
0 0 0
0 0 0
0 0 0
0 0 0
0 0 0
0 0 0
0 0 0
0 0 0
0 0 0
0 0 0
0 0 0
0 0 0
0 0 0
0 0 0
0 0 0
0 0 0
0 0 0
0 0 0
0 0 0
0 0 0
0 0 0
0 0 0
0 0 0
0 0 0
0 0 0
0 0 0
0 0 0
0 0 0
0 0 0
0 0 0
0 0 0
0 0 0
0 0 0
0 0 0
0 0 0
0 0 0
0 0 0
0 0 0
0 0 0
0 0 0
0 0 0
0 0 0
0 0 0
0 0 0
0 0 0
0 0 0
0 0 0
0 0 0
0 0 0
0 0 0
0 0 0
0 0 0
0 0 0
0 0 0
0 0 0
0 0 0
0 0 0
0 0 0
0 0 0
0 0 0
0 0 0
0 0 0
0 0 0
0 0 0
0 0 0
0 0 0
0 0 0
0 0 0
0 0 0
0 0 0
0 0 0
0 0 0
0 0 0
0 0 0
0 0 0
0 0 0
0 0 0
0 0 0
0 0 0
0 0 0
0 0 0
0 0 0
0 0 0
0 0 0
0 0 0
0 0 0
0 0 0
0 0 0
0 0 0
0 0 0
0 0 0
0 0 0
0 0 0
0 0 0
0 0 0
0 0 0
0 0 0
0 0 0
0 0 0
0 0 0
0 0 0
0 0 0
0 0 0
0 0 0
0 0 0
0 0 0
0 0 0
0 0 0
0 0 0
0 0 0
0 0 0
0 0 0
0 0 0
0 0 0
0 0 0
0 0 0
0 0 0
0 0 0
0 0 0
0 0 0
0 0 0
0 0 0
0 0 0
0 0 0
0 0 0
0 0 0
0 0 0
0 0 0
0 0 0
0 0 0
0 0 0
0 0 0
0 0 0
0 0 0
0 0 0
0 0 0
0 0 0
0 0 0
0 0 0
0 0 0
0 0 0
0 0 0
0 0 0
0 0 0
0 0 0
0 0 0
0 0 0
0 0 0
0 0 0
0 0 0
0 0 0
0 0 0
0 0 0
0 0 0
0 0 0
0 0 0
0 0 0
0 0 0
0 0 0
0 0 0
0 0 0
0 0 0
0 0 0
0 0 0
0 0 0
0 0 0
0 0 0
0 0 0
0 0 0
0 0 0
0 0 0
0 0 0
0 0 0
0 0 0
0 0 0
0 0 0
0 0 0
0 0 0
0 0 0
0 0 0
0 0 0
0 0 0
0 0 0
242 202 162
243 202 162
244 203 162
245 203 162
246 204 162
247 204 162
248 205 162
249 205 162
250 206 162
251 206 162
252 207 162
253 207 162
254 208 162
0 81 163
1 82 163
2 82 163
3 83 163
4 83 163
5 84 163
6 84 163
7 85 163
8 85 163
9 86 163
10 86 163
11 87 163
12 87 163
0 0 0
0 0 0
0 0 0
0 0 0
0 0 0
0 0 0
0 0 0
0 0 0
0 0 0
0 0 0
0 0 0
0 0 0
0 0 0
0 0 0
0 0 0
0 0 0
0 0 0
0 0 0
0 0 0
0 0 0
0 0 0
0 0 0
0 0 0
0 0 0
0 0 0
0 0 0
0 0 0
0 0 0
0 0 0
0 0 0
0 0 0
0 0 0
0 0 0
0 0 0
0 0 0
0 0 0
0 0 0
0 0 0
0 0 0
0 0 0
0 0 0
0 0 0
0 0 0
0 0 0
0 0 0
0 0 0
0 0 0
0 0 0
0 0 0
0 0 0
0 0 0
0 0 0
0 0 0
0 0 0
0 0 0
0 0 0
0 0 0
0 0 0
0 0 0
0 0 0
0 0 0
0 0 0
0 0 0
0 0 0
0 0 0
0 0 0
0 0 0
0 0 0
0 0 0
0 0 0
0 0 0
0 0 0
0 0 0
0 0 0
0 0 0
0 0 0
0 0 0
0 0 0
0 0 0
0 0 0
0 0 0
0 0 0
0 0 0
0 0 0
0 0 0
0 0 0
0 0 0
0 0 0
0 0 0
0 0 0
0 0 0
0 0 0
0 0 0
0 0 0
0 0 0
0 0 0
0 0 0
0 0 0
0 0 0
0 0 0
0 0 0
0 0 0
0 0 0
0 0 0
0 0 0
0 0 0
0 0 0
0 0 0
0 0 0
0 0 0
0 0 0
0 0 0
0 0 0
0 0 0
0 0 0
0 0 0
0 0 0
0 0 0
0 0 0
0 0 0
0 0 0
0 0 0
0 0 0
0 0 0
0 0 0
0 0 0
0 0 0
0 0 0
0 0 0
0 0 0
0 0 0
0 0 0
0 0 0
0 0 0
0 0 0
0 0 0
0 0 0
0 0 0
0 0 0
0 0 0
0 0 0
0 0 0
0 0 0
0 0 0
0 0 0
0 0 0
0 0 0
0 0 0
0 0 0
0 0 0
0 0 0
0 0 0
0 0 0
0 0 0
0 0 0
0 0 0
0 0 0
0 0 0
0 0 0
0 0 0
0 0 0
0 0 0
0 0 0
0 0 0
0 0 0
0 0 0
0 0 0
0 0 0
0 0 0
0 0 0
0 0 0
0 0 0
0 0 0
0 0 0
0 0 0
0 0 0
0 0 0
0 0 0
0 0 0
0 0 0
0 0 0
0 0 0
0 0 0
0 0 0
0 0 0
0 0 0
0 0 0
0 0 0
0 0 0
0 0 0
0 0 0
0 0 0
0 0 0
0 0 0
0 0 0
0 0 0
0 0 0
0 0 0
0 0 0
0 0 0
0 0 0
0 0 0
0 0 0
0 0 0
0 0 0
0 0 0
0 0 0
0 0 0
0 0 0
0 0 0
0 0 0
0 0 0
0 0 0
0 0 0
0 0 0
0 0 0
0 0 0
0 0 0
0 0 0
0 0 0
0 0 0
0 0 0
0 0 0
0 0 0
0 0 0
0 0 0
0 0 0
0 0 0
0 0 0
242 202 163
243 203 163
244 203 163
245 204 163
246 204 163
247 205 163
248 205 163
249 206 163
250 206 163
251 207 163
252 207 163
253 208 163
254 208 163
0 82 164
1 82 164
2 83 164
3 83 164
4 84 164
5 84 164
6 85 164
7 85 164
8 86 164
9 86 164
10 87 164
11 87 164
12 88 164
0 0 0
0 0 0
0 0 0
0 0 0
0 0 0
0 0 0
0 0 0
0 0 0
0 0 0
0 0 0
0 0 0
0 0 0
0 0 0
0 0 0
0 0 0
0 0 0
0 0 0
0 0 0
0 0 0
0 0 0
0 0 0
0 0 0
0 0 0
0 0 0
0 0 0
0 0 0
0 0 0
0 0 0
0 0 0
0 0 0
0 0 0
0 0 0
0 0 0
0 0 0
0 0 0
0 0 0
0 0 0
0 0 0
0 0 0
0 0 0
0 0 0
0 0 0
0 0 0
0 0 0
0 0 0
0 0 0
0 0 0
0 0 0
0 0 0
0 0 0
0 0 0
0 0 0
0 0 0
0 0 0
0 0 0
0 0 0
0 0 0
0 0 0
0 0 0
0 0 0
0 0 0
0 0 0
0 0 0
0 0 0
0 0 0
0 0 0
0 0 0
0 0 0
0 0 0
0 0 0
0 0 0
0 0 0
0 0 0
0 0 0
0 0 0
0 0 0
0 0 0
0 0 0
0 0 0
0 0 0
0 0 0
0 0 0
0 0 0
0 0 0
0 0 0
0 0 0
0 0 0
0 0 0
0 0 0
0 0 0
0 0 0
0 0 0
0 0 0
0 0 0
0 0 0
0 0 0
0 0 0
0 0 0
0 0 0
0 0 0
0 0 0
0 0 0
0 0 0
0 0 0
0 0 0
0 0 0
0 0 0
0 0 0
0 0 0
0 0 0
0 0 0
0 0 0
0 0 0
0 0 0
0 0 0
0 0 0
0 0 0
0 0 0
0 0 0
0 0 0
0 0 0
0 0 0
0 0 0
0 0 0
0 0 0
0 0 0
0 0 0
0 0 0
0 0 0
0 0 0
0 0 0
0 0 0
0 0 0
0 0 0
0 0 0
0 0 0
0 0 0
0 0 0
0 0 0
0 0 0
0 0 0
0 0 0
0 0 0
0 0 0
0 0 0
0 0 0
0 0 0
0 0 0
0 0 0
0 0 0
0 0 0
0 0 0
0 0 0
0 0 0
0 0 0
0 0 0
0 0 0
0 0 0
0 0 0
0 0 0
0 0 0
0 0 0
0 0 0
0 0 0
0 0 0
0 0 0
0 0 0
0 0 0
0 0 0
0 0 0
0 0 0
0 0 0
0 0 0
0 0 0
0 0 0
0 0 0
0 0 0
0 0 0
0 0 0
0 0 0
0 0 0
0 0 0
0 0 0
0 0 0
0 0 0
0 0 0
0 0 0
0 0 0
0 0 0
0 0 0
0 0 0
0 0 0
0 0 0
0 0 0
0 0 0
0 0 0
0 0 0
0 0 0
0 0 0
0 0 0
0 0 0
0 0 0
0 0 0
0 0 0
0 0 0
0 0 0
0 0 0
0 0 0
0 0 0
0 0 0
0 0 0
0 0 0
0 0 0
0 0 0
0 0 0
0 0 0
0 0 0
0 0 0
0 0 0
0 0 0
0 0 0
0 0 0
0 0 0
0 0 0
0 0 0
0 0 0
0 0 0
0 0 0
0 0 0
242 203 164
243 203 164
244 204 164
245 204 164
246 205 164
247 205 164
248 206 164
249 206 164
250 207 164
251 207 164
252 208 164
253 208 164
254 209 164
0 82 165
1 83 165
2 83 165
3 84 165
4 84 165
5 85 165
6 85 165
7 86 165
8 86 165
9 87 165
10 87 165
11 88 165
12 88 165
13 89 165
0 0 0
0 0 0
0 0 0
0 0 0
0 0 0
0 0 0
0 0 0
0 0 0
0 0 0
0 0 0
0 0 0
0 0 0
0 0 0
0 0 0
0 0 0
0 0 0
0 0 0
0 0 0
0 0 0
0 0 0
0 0 0
0 0 0
0 0 0
0 0 0
0 0 0
0 0 0
0 0 0
0 0 0
0 0 0
0 0 0
0 0 0
0 0 0
0 0 0
0 0 0
0 0 0
0 0 0
0 0 0
0 0 0
0 0 0
0 0 0
0 0 0
0 0 0
0 0 0
0 0 0
0 0 0
0 0 0
0 0 0
0 0 0
0 0 0
0 0 0
0 0 0
0 0 0
0 0 0
0 0 0
0 0 0
0 0 0
0 0 0
0 0 0
0 0 0
0 0 0
0 0 0
0 0 0
0 0 0
0 0 0
0 0 0
0 0 0
0 0 0
0 0 0
0 0 0
0 0 0
0 0 0
0 0 0
0 0 0
0 0 0
0 0 0
0 0 0
0 0 0
0 0 0
0 0 0
0 0 0
0 0 0
0 0 0
0 0 0
0 0 0
0 0 0
0 0 0
0 0 0
0 0 0
0 0 0
0 0 0
0 0 0
0 0 0
0 0 0
0 0 0
0 0 0
0 0 0
0 0 0
0 0 0
0 0 0
0 0 0
0 0 0
0 0 0
0 0 0
0 0 0
0 0 0
0 0 0
0 0 0
0 0 0
0 0 0
0 0 0
0 0 0
0 0 0
0 0 0
0 0 0
0 0 0
0 0 0
0 0 0
0 0 0
0 0 0
0 0 0
0 0 0
0 0 0
0 0 0
0 0 0
0 0 0
0 0 0
0 0 0
0 0 0
0 0 0
0 0 0
0 0 0
0 0 0
0 0 0
0 0 0
0 0 0
0 0 0
0 0 0
0 0 0
0 0 0
0 0 0
0 0 0
0 0 0
0 0 0
0 0 0
0 0 0
0 0 0
0 0 0
0 0 0
0 0 0
0 0 0
0 0 0
0 0 0
0 0 0
0 0 0
0 0 0
0 0 0
0 0 0
0 0 0
0 0 0
0 0 0
0 0 0
0 0 0
0 0 0
0 0 0
0 0 0
0 0 0
0 0 0
0 0 0
0 0 0
0 0 0
0 0 0
0 0 0
0 0 0
0 0 0
0 0 0
0 0 0
0 0 0
0 0 0
0 0 0
0 0 0
0 0 0
0 0 0
0 0 0
0 0 0
0 0 0
0 0 0
0 0 0
0 0 0
0 0 0
0 0 0
0 0 0
0 0 0
0 0 0
0 0 0
0 0 0
0 0 0
0 0 0
0 0 0
0 0 0
0 0 0
0 0 0
0 0 0
0 0 0
0 0 0
0 0 0
0 0 0
0 0 0
0 0 0
0 0 0
0 0 0
0 0 0
0 0 0
0 0 0
0 0 0
0 0 0
0 0 0
0 0 0
0 0 0
0 0 0
0 0 0
0 0 0
0 0 0
0 0 0
0 0 0
0 0 0
0 0 0
0 0 0
241 203 165
242 203 165
243 204 165
244 204 165
245 205 165
246 205 165
247 206 165
248 206 165
249 207 165
250 207 165
251 208 165
252 208 165
253 209 165
254 209 165
0 83 166
1 83 166
2 84 166
3 84 166
4 85 166
5 85 166
6 86 166
7 86 166
8 87 166
9 87 166
10 88 166
11 88 166
12 89 166
13 89 166
0 0 0
0 0 0
0 0 0
0 0 0
0 0 0
0 0 0
0 0 0
0 0 0
0 0 0
0 0 0
0 0 0
0 0 0
0 0 0
0 0 0
0 0 0
0 0 0
0 0 0
0 0 0
0 0 0
0 0 0
0 0 0
0 0 0
0 0 0
0 0 0
0 0 0
0 0 0
0 0 0
0 0 0
0 0 0
0 0 0
0 0 0
0 0 0
0 0 0
0 0 0
0 0 0
0 0 0
0 0 0
0 0 0
0 0 0
0 0 0
0 0 0
0 0 0
0 0 0
0 0 0
0 0 0
0 0 0
0 0 0
0 0 0
0 0 0
0 0 0
0 0 0
0 0 0
0 0 0
0 0 0
0 0 0
0 0 0
0 0 0
0 0 0
0 0 0
0 0 0
0 0 0
0 0 0
0 0 0
0 0 0
0 0 0
0 0 0
0 0 0
0 0 0
0 0 0
0 0 0
0 0 0
0 0 0
0 0 0
0 0 0
0 0 0
0 0 0
0 0 0
0 0 0
0 0 0
0 0 0
0 0 0
0 0 0
0 0 0
0 0 0
0 0 0
0 0 0
0 0 0
0 0 0
0 0 0
0 0 0
0 0 0
0 0 0
0 0 0
0 0 0
0 0 0
0 0 0
0 0 0
0 0 0
0 0 0
0 0 0
0 0 0
0 0 0
0 0 0
0 0 0
0 0 0
0 0 0
0 0 0
0 0 0
0 0 0
0 0 0
0 0 0
0 0 0
0 0 0
0 0 0
0 0 0
0 0 0
0 0 0
0 0 0
0 0 0
0 0 0
0 0 0
0 0 0
0 0 0
0 0 0
0 0 0
0 0 0
0 0 0
0 0 0
0 0 0
0 0 0
0 0 0
0 0 0
0 0 0
0 0 0
0 0 0
0 0 0
0 0 0
0 0 0
0 0 0
0 0 0
0 0 0
0 0 0
0 0 0
0 0 0
0 0 0
0 0 0
0 0 0
0 0 0
0 0 0
0 0 0
0 0 0
0 0 0
0 0 0
0 0 0
0 0 0
0 0 0
0 0 0
0 0 0
0 0 0
0 0 0
0 0 0
0 0 0
0 0 0
0 0 0
0 0 0
0 0 0
0 0 0
0 0 0
0 0 0
0 0 0
0 0 0
0 0 0
0 0 0
0 0 0
0 0 0
0 0 0
0 0 0
0 0 0
0 0 0
0 0 0
0 0 0
0 0 0
0 0 0
0 0 0
0 0 0
0 0 0
0 0 0
0 0 0
0 0 0
0 0 0
0 0 0
0 0 0
0 0 0
0 0 0
0 0 0
0 0 0
0 0 0
0 0 0
0 0 0
0 0 0
0 0 0
0 0 0
0 0 0
0 0 0
0 0 0
0 0 0
0 0 0
0 0 0
0 0 0
0 0 0
0 0 0
0 0 0
0 0 0
0 0 0
0 0 0
0 0 0
0 0 0
0 0 0
0 0 0
0 0 0
0 0 0
0 0 0
0 0 0
0 0 0
0 0 0
0 0 0
0 0 0
241 203 166
242 204 166
243 204 166
244 205 166
245 205 166
246 206 166
247 206 166
248 207 166
249 207 166
250 208 166
251 208 166
252 209 166
253 209 166
254 210 166
0 83 167
1 84 167
2 84 167
3 85 167
4 85 167
5 86 167
6 86 167
7 87 167
8 87 167
9 88 167
10 88 167
11 89 167
12 89 167
13 90 167
0 0 0
0 0 0
0 0 0
0 0 0
0 0 0
0 0 0
0 0 0
0 0 0
0 0 0
0 0 0
0 0 0
0 0 0
0 0 0
0 0 0
0 0 0
0 0 0
0 0 0
0 0 0
0 0 0
0 0 0
0 0 0
0 0 0
0 0 0
0 0 0
0 0 0
0 0 0
0 0 0
0 0 0
0 0 0
0 0 0
0 0 0
0 0 0
0 0 0
0 0 0
0 0 0
0 0 0
0 0 0
0 0 0
0 0 0
0 0 0
0 0 0
0 0 0
0 0 0
0 0 0
0 0 0
0 0 0
0 0 0
0 0 0
0 0 0
0 0 0
0 0 0
0 0 0
0 0 0
0 0 0
0 0 0
0 0 0
0 0 0
0 0 0
0 0 0
0 0 0
0 0 0
0 0 0
0 0 0
0 0 0
0 0 0
0 0 0
0 0 0
0 0 0
0 0 0
0 0 0
0 0 0
0 0 0
0 0 0
0 0 0
0 0 0
0 0 0
0 0 0
0 0 0
0 0 0
0 0 0
0 0 0
0 0 0
0 0 0
0 0 0
0 0 0
0 0 0
0 0 0
0 0 0
0 0 0
0 0 0
0 0 0
0 0 0
0 0 0
0 0 0
0 0 0
0 0 0
0 0 0
0 0 0
0 0 0
0 0 0
0 0 0
0 0 0
0 0 0
0 0 0
0 0 0
0 0 0
0 0 0
0 0 0
0 0 0
0 0 0
0 0 0
0 0 0
0 0 0
0 0 0
0 0 0
0 0 0
0 0 0
0 0 0
0 0 0
0 0 0
0 0 0
0 0 0
0 0 0
0 0 0
0 0 0
0 0 0
0 0 0
0 0 0
0 0 0
0 0 0
0 0 0
0 0 0
0 0 0
0 0 0
0 0 0
0 0 0
0 0 0
0 0 0
0 0 0
0 0 0
0 0 0
0 0 0
0 0 0
0 0 0
0 0 0
0 0 0
0 0 0
0 0 0
0 0 0
0 0 0
0 0 0
0 0 0
0 0 0
0 0 0
0 0 0
0 0 0
0 0 0
0 0 0
0 0 0
0 0 0
0 0 0
0 0 0
0 0 0
0 0 0
0 0 0
0 0 0
0 0 0
0 0 0
0 0 0
0 0 0
0 0 0
0 0 0
0 0 0
0 0 0
0 0 0
0 0 0
0 0 0
0 0 0
0 0 0
0 0 0
0 0 0
0 0 0
0 0 0
0 0 0
0 0 0
0 0 0
0 0 0
0 0 0
0 0 0
0 0 0
0 0 0
0 0 0
0 0 0
0 0 0
0 0 0
0 0 0
0 0 0
0 0 0
0 0 0
0 0 0
0 0 0
0 0 0
0 0 0
0 0 0
0 0 0
0 0 0
0 0 0
0 0 0
0 0 0
0 0 0
0 0 0
0 0 0
0 0 0
0 0 0
0 0 0
0 0 0
0 0 0
0 0 0
0 0 0
0 0 0
0 0 0
0 0 0
0 0 0
0 0 0
0 0 0
0 0 0
0 0 0
241 204 167
242 204 167
243 205 167
244 205 167
245 206 167
246 206 167
247 207 167
248 207 167
249 208 167
250 208 167
251 209 167
252 209 167
253 210 167
254 210 167
0 84 168
1 84 168
2 85 168
3 85 168
4 86 168
5 86 168
6 87 168
7 87 168
8 88 168
9 88 168
10 89 168
11 89 168
12 90 168
13 90 168
14 91 168
0 0 0
0 0 0
0 0 0
0 0 0
0 0 0
0 0 0
0 0 0
0 0 0
0 0 0
0 0 0
0 0 0
0 0 0
0 0 0
0 0 0
0 0 0
0 0 0
0 0 0
0 0 0
0 0 0
0 0 0
0 0 0
0 0 0
0 0 0
0 0 0
0 0 0
0 0 0
0 0 0
0 0 0
0 0 0
0 0 0
0 0 0
0 0 0
0 0 0
0 0 0
0 0 0
0 0 0
0 0 0
0 0 0
0 0 0
0 0 0
0 0 0
0 0 0
0 0 0
0 0 0
0 0 0
0 0 0
0 0 0
0 0 0
0 0 0
0 0 0
0 0 0
0 0 0
0 0 0
0 0 0
0 0 0
0 0 0
0 0 0
0 0 0
0 0 0
0 0 0
0 0 0
0 0 0
0 0 0
0 0 0
0 0 0
0 0 0
0 0 0
0 0 0
0 0 0
0 0 0
0 0 0
0 0 0
0 0 0
0 0 0
0 0 0
0 0 0
0 0 0
0 0 0
0 0 0
0 0 0
0 0 0
0 0 0
0 0 0
0 0 0
0 0 0
0 0 0
0 0 0
0 0 0
0 0 0
0 0 0
0 0 0
0 0 0
0 0 0
0 0 0
0 0 0
0 0 0
0 0 0
0 0 0
0 0 0
0 0 0
0 0 0
0 0 0
0 0 0
0 0 0
0 0 0
0 0 0
0 0 0
0 0 0
0 0 0
0 0 0
0 0 0
0 0 0
0 0 0
0 0 0
0 0 0
0 0 0
0 0 0
0 0 0
0 0 0
0 0 0
0 0 0
0 0 0
0 0 0
0 0 0
0 0 0
0 0 0
0 0 0
0 0 0
0 0 0
0 0 0
0 0 0
0 0 0
0 0 0
0 0 0
0 0 0
0 0 0
0 0 0
0 0 0
0 0 0
0 0 0
0 0 0
0 0 0
0 0 0
0 0 0
0 0 0
0 0 0
0 0 0
0 0 0
0 0 0
0 0 0
0 0 0
0 0 0
0 0 0
0 0 0
0 0 0
0 0 0
0 0 0
0 0 0
0 0 0
0 0 0
0 0 0
0 0 0
0 0 0
0 0 0
0 0 0
0 0 0
0 0 0
0 0 0
0 0 0
0 0 0
0 0 0
0 0 0
0 0 0
0 0 0
0 0 0
0 0 0
0 0 0
0 0 0
0 0 0
0 0 0
0 0 0
0 0 0
0 0 0
0 0 0
0 0 0
0 0 0
0 0 0
0 0 0
0 0 0
0 0 0
0 0 0
0 0 0
0 0 0
0 0 0
0 0 0
0 0 0
0 0 0
0 0 0
0 0 0
0 0 0
0 0 0
0 0 0
0 0 0
0 0 0
0 0 0
0 0 0
0 0 0
0 0 0
0 0 0
0 0 0
0 0 0
0 0 0
0 0 0
0 0 0
0 0 0
0 0 0
0 0 0
0 0 0
0 0 0
0 0 0
0 0 0
0 0 0
0 0 0
0 0 0
0 0 0
240 204 168
241 204 168
242 205 168
243 205 168
244 206 168
245 206 168
246 207 168
247 207 168
248 208 168
249 208 168
250 209 168
251 209 168
252 210 168
253 210 168
254 211 168
0 84 169
1 85 169
2 85 169
3 86 169
4 86 169
5 87 169
6 87 169
7 88 169
8 88 169
9 89 169
10 89 169
11 90 169
12 90 169
13 91 169
14 91 169
0 0 0
0 0 0
0 0 0
0 0 0
0 0 0
0 0 0
0 0 0
0 0 0
0 0 0
0 0 0
0 0 0
0 0 0
0 0 0
0 0 0
0 0 0
0 0 0
0 0 0
0 0 0
0 0 0
0 0 0
0 0 0
0 0 0
0 0 0
0 0 0
0 0 0
0 0 0
0 0 0
0 0 0
0 0 0
0 0 0
0 0 0
0 0 0
0 0 0
0 0 0
0 0 0
0 0 0
0 0 0
0 0 0
0 0 0
0 0 0
0 0 0
0 0 0
0 0 0
0 0 0
0 0 0
0 0 0
0 0 0
0 0 0
0 0 0
0 0 0
0 0 0
0 0 0
0 0 0
0 0 0
0 0 0
0 0 0
0 0 0
0 0 0
0 0 0
0 0 0
0 0 0
0 0 0
0 0 0
0 0 0
0 0 0
0 0 0
0 0 0
0 0 0
0 0 0
0 0 0
0 0 0
0 0 0
0 0 0
0 0 0
0 0 0
0 0 0
0 0 0
0 0 0
0 0 0
0 0 0
0 0 0
0 0 0
0 0 0
0 0 0
0 0 0
0 0 0
0 0 0
0 0 0
0 0 0
0 0 0
0 0 0
0 0 0
0 0 0
0 0 0
0 0 0
0 0 0
0 0 0
0 0 0
0 0 0
0 0 0
0 0 0
0 0 0
0 0 0
0 0 0
0 0 0
0 0 0
0 0 0
0 0 0
0 0 0
0 0 0
0 0 0
0 0 0
0 0 0
0 0 0
0 0 0
0 0 0
0 0 0
0 0 0
0 0 0
0 0 0
0 0 0
0 0 0
0 0 0
0 0 0
0 0 0
0 0 0
0 0 0
0 0 0
0 0 0
0 0 0
0 0 0
0 0 0
0 0 0
0 0 0
0 0 0
0 0 0
0 0 0
0 0 0
0 0 0
0 0 0
0 0 0
0 0 0
0 0 0
0 0 0
0 0 0
0 0 0
0 0 0
0 0 0
0 0 0
0 0 0
0 0 0
0 0 0
0 0 0
0 0 0
0 0 0
0 0 0
0 0 0
0 0 0
0 0 0
0 0 0
0 0 0
0 0 0
0 0 0
0 0 0
0 0 0
0 0 0
0 0 0
0 0 0
0 0 0
0 0 0
0 0 0
0 0 0
0 0 0
0 0 0
0 0 0
0 0 0
0 0 0
0 0 0
0 0 0
0 0 0
0 0 0
0 0 0
0 0 0
0 0 0
0 0 0
0 0 0
0 0 0
0 0 0
0 0 0
0 0 0
0 0 0
0 0 0
0 0 0
0 0 0
0 0 0
0 0 0
0 0 0
0 0 0
0 0 0
0 0 0
0 0 0
0 0 0
0 0 0
0 0 0
0 0 0
0 0 0
0 0 0
0 0 0
0 0 0
0 0 0
0 0 0
0 0 0
0 0 0
0 0 0
0 0 0
0 0 0
0 0 0
0 0 0
0 0 0
0 0 0
0 0 0
0 0 0
0 0 0
0 0 0
0 0 0
240 204 169
241 205 169
242 205 169
243 206 169
244 206 169
245 207 169
246 207 169
247 208 169
248 208 169
249 209 169
250 209 169
251 210 169
252 210 169
253 211 169
254 211 169
0 85 170
1 85 170
2 86 170
3 86 170
4 87 170
5 87 170
6 88 170
7 88 170
8 89 170
9 89 170
10 90 170
11 90 170
12 91 170
13 91 170
14 92 170
0 0 0
0 0 0
0 0 0
0 0 0
0 0 0
0 0 0
0 0 0
0 0 0
0 0 0
0 0 0
0 0 0
0 0 0
0 0 0
0 0 0
0 0 0
0 0 0
0 0 0
0 0 0
0 0 0
0 0 0
0 0 0
0 0 0
0 0 0
0 0 0
0 0 0
0 0 0
0 0 0
0 0 0
0 0 0
0 0 0
0 0 0
0 0 0
0 0 0
0 0 0
0 0 0
0 0 0
0 0 0
0 0 0
0 0 0
0 0 0
0 0 0
0 0 0
0 0 0
0 0 0
0 0 0
0 0 0
0 0 0
0 0 0
0 0 0
0 0 0
0 0 0
0 0 0
0 0 0
0 0 0
0 0 0
0 0 0
0 0 0
0 0 0
0 0 0
0 0 0
0 0 0
0 0 0
0 0 0
0 0 0
0 0 0
0 0 0
0 0 0
0 0 0
0 0 0
0 0 0
0 0 0
0 0 0
0 0 0
0 0 0
0 0 0
0 0 0
0 0 0
0 0 0
0 0 0
0 0 0
0 0 0
0 0 0
0 0 0
0 0 0
0 0 0
0 0 0
0 0 0
0 0 0
0 0 0
0 0 0
0 0 0
0 0 0
0 0 0
0 0 0
0 0 0
0 0 0
0 0 0
0 0 0
0 0 0
0 0 0
0 0 0
0 0 0
0 0 0
0 0 0
0 0 0
0 0 0
0 0 0
0 0 0
0 0 0
0 0 0
0 0 0
0 0 0
0 0 0
0 0 0
0 0 0
0 0 0
0 0 0
0 0 0
0 0 0
0 0 0
0 0 0
0 0 0
0 0 0
0 0 0
0 0 0
0 0 0
0 0 0
0 0 0
0 0 0
0 0 0
0 0 0
0 0 0
0 0 0
0 0 0
0 0 0
0 0 0
0 0 0
0 0 0
0 0 0
0 0 0
0 0 0
0 0 0
0 0 0
0 0 0
0 0 0
0 0 0
0 0 0
0 0 0
0 0 0
0 0 0
0 0 0
0 0 0
0 0 0
0 0 0
0 0 0
0 0 0
0 0 0
0 0 0
0 0 0
0 0 0
0 0 0
0 0 0
0 0 0
0 0 0
0 0 0
0 0 0
0 0 0
0 0 0
0 0 0
0 0 0
0 0 0
0 0 0
0 0 0
0 0 0
0 0 0
0 0 0
0 0 0
0 0 0
0 0 0
0 0 0
0 0 0
0 0 0
0 0 0
0 0 0
0 0 0
0 0 0
0 0 0
0 0 0
0 0 0
0 0 0
0 0 0
0 0 0
0 0 0
0 0 0
0 0 0
0 0 0
0 0 0
0 0 0
0 0 0
0 0 0
0 0 0
0 0 0
0 0 0
0 0 0
0 0 0
0 0 0
0 0 0
0 0 0
0 0 0
0 0 0
0 0 0
0 0 0
0 0 0
0 0 0
0 0 0
0 0 0
0 0 0
0 0 0
0 0 0
0 0 0
0 0 0
0 0 0
0 0 0
0 0 0
0 0 0
240 205 170
241 205 170
242 206 170
243 206 170
244 207 170
245 207 170
246 208 170
247 208 170
248 209 170
249 209 170
250 210 170
251 210 170
252 211 170
253 211 170
254 212 170
0 85 171
1 86 171
2 86 171
3 87 171
4 87 171
5 88 171
6 88 171
7 89 171
8 89 171
9 90 171
10 90 171
11 91 171
12 91 171
13 92 171
14 92 171
15 93 171
0 0 0
0 0 0
0 0 0
0 0 0
0 0 0
0 0 0
0 0 0
0 0 0
0 0 0
0 0 0
0 0 0
0 0 0
0 0 0
0 0 0
0 0 0
0 0 0
0 0 0
0 0 0
0 0 0
0 0 0
0 0 0
0 0 0
0 0 0
0 0 0
0 0 0
0 0 0
0 0 0
0 0 0
0 0 0
0 0 0
0 0 0
0 0 0
0 0 0
0 0 0
0 0 0
0 0 0
0 0 0
0 0 0
0 0 0
0 0 0
0 0 0
0 0 0
0 0 0
0 0 0
0 0 0
0 0 0
0 0 0
0 0 0
0 0 0
0 0 0
0 0 0
0 0 0
0 0 0
0 0 0
0 0 0
0 0 0
0 0 0
0 0 0
0 0 0
0 0 0
0 0 0
0 0 0
0 0 0
0 0 0
0 0 0
0 0 0
0 0 0
0 0 0
0 0 0
0 0 0
0 0 0
0 0 0
0 0 0
0 0 0
0 0 0
0 0 0
0 0 0
0 0 0
0 0 0
0 0 0
0 0 0
0 0 0
0 0 0
0 0 0
0 0 0
0 0 0
0 0 0
0 0 0
0 0 0
0 0 0
0 0 0
0 0 0
0 0 0
0 0 0
0 0 0
0 0 0
0 0 0
0 0 0
0 0 0
0 0 0
0 0 0
0 0 0
0 0 0
0 0 0
0 0 0
0 0 0
0 0 0
0 0 0
0 0 0
0 0 0
0 0 0
0 0 0
0 0 0
0 0 0
0 0 0
0 0 0
0 0 0
0 0 0
0 0 0
0 0 0
0 0 0
0 0 0
0 0 0
0 0 0
0 0 0
0 0 0
0 0 0
0 0 0
0 0 0
0 0 0
0 0 0
0 0 0
0 0 0
0 0 0
0 0 0
0 0 0
0 0 0
0 0 0
0 0 0
0 0 0
0 0 0
0 0 0
0 0 0
0 0 0
0 0 0
0 0 0
0 0 0
0 0 0
0 0 0
0 0 0
0 0 0
0 0 0
0 0 0
0 0 0
0 0 0
0 0 0
0 0 0
0 0 0
0 0 0
0 0 0
0 0 0
0 0 0
0 0 0
0 0 0
0 0 0
0 0 0
0 0 0
0 0 0
0 0 0
0 0 0
0 0 0
0 0 0
0 0 0
0 0 0
0 0 0
0 0 0
0 0 0
0 0 0
0 0 0
0 0 0
0 0 0
0 0 0
0 0 0
0 0 0
0 0 0
0 0 0
0 0 0
0 0 0
0 0 0
0 0 0
0 0 0
0 0 0
0 0 0
0 0 0
0 0 0
0 0 0
0 0 0
0 0 0
0 0 0
0 0 0
0 0 0
0 0 0
0 0 0
0 0 0
0 0 0
0 0 0
0 0 0
0 0 0
0 0 0
0 0 0
0 0 0
0 0 0
0 0 0
0 0 0
0 0 0
0 0 0
0 0 0
0 0 0
0 0 0
0 0 0
0 0 0
0 0 0
0 0 0
239 205 171
240 205 171
241 206 171
242 206 171
243 207 171
244 207 171
245 208 171
246 208 171
247 209 171
248 209 171
249 210 171
250 210 171
251 211 171
252 211 171
253 212 171
254 212 171
0 86 172
1 86 172
2 87 172
3 87 172
4 88 172
5 88 172
6 89 172
7 89 172
8 90 172
9 90 172
10 91 172
11 91 172
12 92 172
13 92 172
14 93 172
15 93 172
0 0 0
0 0 0
0 0 0
0 0 0
0 0 0
0 0 0
0 0 0
0 0 0
0 0 0
0 0 0
0 0 0
0 0 0
0 0 0
0 0 0
0 0 0
0 0 0
0 0 0
0 0 0
0 0 0
0 0 0
0 0 0
0 0 0
0 0 0
0 0 0
0 0 0
0 0 0
0 0 0
0 0 0
0 0 0
0 0 0
0 0 0
0 0 0
0 0 0
0 0 0
0 0 0
0 0 0
0 0 0
0 0 0
0 0 0
0 0 0
0 0 0
0 0 0
0 0 0
0 0 0
0 0 0
0 0 0
0 0 0
0 0 0
0 0 0
0 0 0
0 0 0
0 0 0
0 0 0
0 0 0
0 0 0
0 0 0
0 0 0
0 0 0
0 0 0
0 0 0
0 0 0
0 0 0
0 0 0
0 0 0
0 0 0
0 0 0
0 0 0
0 0 0
0 0 0
0 0 0
0 0 0
0 0 0
0 0 0
0 0 0
0 0 0
0 0 0
0 0 0
0 0 0
0 0 0
0 0 0
0 0 0
0 0 0
0 0 0
0 0 0
0 0 0
0 0 0
0 0 0
0 0 0
0 0 0
0 0 0
0 0 0
0 0 0
0 0 0
0 0 0
0 0 0
0 0 0
0 0 0
0 0 0
0 0 0
0 0 0
0 0 0
0 0 0
0 0 0
0 0 0
0 0 0
0 0 0
0 0 0
0 0 0
0 0 0
0 0 0
0 0 0
0 0 0
0 0 0
0 0 0
0 0 0
0 0 0
0 0 0
0 0 0
0 0 0
0 0 0
0 0 0
0 0 0
0 0 0
0 0 0
0 0 0
0 0 0
0 0 0
0 0 0
0 0 0
0 0 0
0 0 0
0 0 0
0 0 0
0 0 0
0 0 0
0 0 0
0 0 0
0 0 0
0 0 0
0 0 0
0 0 0
0 0 0
0 0 0
0 0 0
0 0 0
0 0 0
0 0 0
0 0 0
0 0 0
0 0 0
0 0 0
0 0 0
0 0 0
0 0 0
0 0 0
0 0 0
0 0 0
0 0 0
0 0 0
0 0 0
0 0 0
0 0 0
0 0 0
0 0 0
0 0 0
0 0 0
0 0 0
0 0 0
0 0 0
0 0 0
0 0 0
0 0 0
0 0 0
0 0 0
0 0 0
0 0 0
0 0 0
0 0 0
0 0 0
0 0 0
0 0 0
0 0 0
0 0 0
0 0 0
0 0 0
0 0 0
0 0 0
0 0 0
0 0 0
0 0 0
0 0 0
0 0 0
0 0 0
0 0 0
0 0 0
0 0 0
0 0 0
0 0 0
0 0 0
0 0 0
0 0 0
0 0 0
0 0 0
0 0 0
0 0 0
0 0 0
0 0 0
0 0 0
0 0 0
0 0 0
0 0 0
0 0 0
0 0 0
0 0 0
0 0 0
0 0 0
0 0 0
0 0 0
0 0 0
0 0 0
0 0 0
0 0 0
0 0 0
239 205 172
240 206 172
241 206 172
242 207 172
243 207 172
244 208 172
245 208 172
246 209 172
247 209 172
248 210 172
249 210 172
250 211 172
251 211 172
252 212 172
253 212 172
254 213 172
0 86 173
1 87 173
2 87 173
3 88 173
4 88 173
5 89 173
6 89 173
7 90 173
8 90 173
9 91 173
10 91 173
11 92 173
12 92 173
13 93 173
14 93 173
15 94 173
16 94 173
0 0 0
0 0 0
0 0 0
0 0 0
0 0 0
0 0 0
0 0 0
0 0 0
0 0 0
0 0 0
0 0 0
0 0 0
0 0 0
0 0 0
0 0 0
0 0 0
0 0 0
0 0 0
0 0 0
0 0 0
0 0 0
0 0 0
0 0 0
0 0 0
0 0 0
0 0 0
0 0 0
0 0 0
0 0 0
0 0 0
0 0 0
0 0 0
0 0 0
0 0 0
0 0 0
0 0 0
0 0 0
0 0 0
0 0 0
0 0 0
0 0 0
0 0 0
0 0 0
0 0 0
0 0 0
0 0 0
0 0 0
0 0 0
0 0 0
0 0 0
0 0 0
0 0 0
0 0 0
0 0 0
0 0 0
0 0 0
0 0 0
0 0 0
0 0 0
0 0 0
0 0 0
0 0 0
0 0 0
0 0 0
0 0 0
0 0 0
0 0 0
0 0 0
0 0 0
0 0 0
0 0 0
0 0 0
0 0 0
0 0 0
0 0 0
0 0 0
0 0 0
0 0 0
0 0 0
0 0 0
0 0 0
0 0 0
0 0 0
0 0 0
0 0 0
0 0 0
0 0 0
0 0 0
0 0 0
0 0 0
0 0 0
0 0 0
0 0 0
0 0 0
0 0 0
0 0 0
0 0 0
0 0 0
0 0 0
0 0 0
0 0 0
0 0 0
0 0 0
0 0 0
0 0 0
0 0 0
0 0 0
0 0 0
0 0 0
0 0 0
0 0 0
0 0 0
0 0 0
0 0 0
0 0 0
0 0 0
0 0 0
0 0 0
0 0 0
0 0 0
0 0 0
0 0 0
0 0 0
0 0 0
0 0 0
0 0 0
0 0 0
0 0 0
0 0 0
0 0 0
0 0 0
0 0 0
0 0 0
0 0 0
0 0 0
0 0 0
0 0 0
0 0 0
0 0 0
0 0 0
0 0 0
0 0 0
0 0 0
0 0 0
0 0 0
0 0 0
0 0 0
0 0 0
0 0 0
0 0 0
0 0 0
0 0 0
0 0 0
0 0 0
0 0 0
0 0 0
0 0 0
0 0 0
0 0 0
0 0 0
0 0 0
0 0 0
0 0 0
0 0 0
0 0 0
0 0 0
0 0 0
0 0 0
0 0 0
0 0 0
0 0 0
0 0 0
0 0 0
0 0 0
0 0 0
0 0 0
0 0 0
0 0 0
0 0 0
0 0 0
0 0 0
0 0 0
0 0 0
0 0 0
0 0 0
0 0 0
0 0 0
0 0 0
0 0 0
0 0 0
0 0 0
0 0 0
0 0 0
0 0 0
0 0 0
0 0 0
0 0 0
0 0 0
0 0 0
0 0 0
0 0 0
0 0 0
0 0 0
0 0 0
0 0 0
0 0 0
0 0 0
0 0 0
0 0 0
0 0 0
0 0 0
0 0 0
0 0 0
0 0 0
0 0 0
0 0 0
0 0 0
0 0 0
0 0 0
0 0 0
0 0 0
238 205 173
239 206 173
240 206 173
241 207 173
242 207 173
243 208 173
244 208 173
245 209 173
246 209 173
247 210 173
248 210 173
249 211 173
250 211 173
251 212 173
252 212 173
253 213 173
254 213 173
0 87 174
1 87 174
2 88 174
3 88 174
4 89 174
5 89 174
6 90 174
7 90 174
8 91 174
9 91 174
10 92 174
11 92 174
12 93 174
13 93 174
14 94 174
15 94 174
16 95 174
0 0 0
0 0 0
0 0 0
0 0 0
0 0 0
0 0 0
0 0 0
0 0 0
0 0 0
0 0 0
0 0 0
0 0 0
0 0 0
0 0 0
0 0 0
0 0 0
0 0 0
0 0 0
0 0 0
0 0 0
0 0 0
0 0 0
0 0 0
0 0 0
0 0 0
0 0 0
0 0 0
0 0 0
0 0 0
0 0 0
0 0 0
0 0 0
0 0 0
0 0 0
0 0 0
0 0 0
0 0 0
0 0 0
0 0 0
0 0 0
0 0 0
0 0 0
0 0 0
0 0 0
0 0 0
0 0 0
0 0 0
0 0 0
0 0 0
0 0 0
0 0 0
0 0 0
0 0 0
0 0 0
0 0 0
0 0 0
0 0 0
0 0 0
0 0 0
0 0 0
0 0 0
0 0 0
0 0 0
0 0 0
0 0 0
0 0 0
0 0 0
0 0 0
0 0 0
0 0 0
0 0 0
0 0 0
0 0 0
0 0 0
0 0 0
0 0 0
0 0 0
0 0 0
0 0 0
0 0 0
0 0 0
0 0 0
0 0 0
0 0 0
0 0 0
0 0 0
0 0 0
0 0 0
0 0 0
0 0 0
0 0 0
0 0 0
0 0 0
0 0 0
0 0 0
0 0 0
0 0 0
0 0 0
0 0 0
0 0 0
0 0 0
0 0 0
0 0 0
0 0 0
0 0 0
0 0 0
0 0 0
0 0 0
0 0 0
0 0 0
0 0 0
0 0 0
0 0 0
0 0 0
0 0 0
0 0 0
0 0 0
0 0 0
0 0 0
0 0 0
0 0 0
0 0 0
0 0 0
0 0 0
0 0 0
0 0 0
0 0 0
0 0 0
0 0 0
0 0 0
0 0 0
0 0 0
0 0 0
0 0 0
0 0 0
0 0 0
0 0 0
0 0 0
0 0 0
0 0 0
0 0 0
0 0 0
0 0 0
0 0 0
0 0 0
0 0 0
0 0 0
0 0 0
0 0 0
0 0 0
0 0 0
0 0 0
0 0 0
0 0 0
0 0 0
0 0 0
0 0 0
0 0 0
0 0 0
0 0 0
0 0 0
0 0 0
0 0 0
0 0 0
0 0 0
0 0 0
0 0 0
0 0 0
0 0 0
0 0 0
0 0 0
0 0 0
0 0 0
0 0 0
0 0 0
0 0 0
0 0 0
0 0 0
0 0 0
0 0 0
0 0 0
0 0 0
0 0 0
0 0 0
0 0 0
0 0 0
0 0 0
0 0 0
0 0 0
0 0 0
0 0 0
0 0 0
0 0 0
0 0 0
0 0 0
0 0 0
0 0 0
0 0 0
0 0 0
0 0 0
0 0 0
0 0 0
0 0 0
0 0 0
0 0 0
0 0 0
0 0 0
0 0 0
0 0 0
0 0 0
0 0 0
0 0 0
0 0 0
0 0 0
0 0 0
0 0 0
0 0 0
0 0 0
0 0 0
0 0 0
0 0 0
238 206 174
239 206 174
240 207 174
241 207 174
242 208 174
243 208 174
244 209 174
245 209 174
246 210 174
247 210 174
248 211 174
249 211 174
250 212 174
251 212 174
252 213 174
253 213 174
254 214 174
0 87 175
1 88 175
2 88 175
3 89 175
4 89 175
5 90 175
6 90 175
7 91 175
8 91 175
9 92 175
10 92 175
11 93 175
12 93 175
13 94 175
14 94 175
15 95 175
16 95 175
17 96 175
0 0 0
0 0 0
0 0 0
0 0 0
0 0 0
0 0 0
0 0 0
0 0 0
0 0 0
0 0 0
0 0 0
0 0 0
0 0 0
0 0 0
0 0 0
0 0 0
0 0 0
0 0 0
0 0 0
0 0 0
0 0 0
0 0 0
0 0 0
0 0 0
0 0 0
0 0 0
0 0 0
0 0 0
0 0 0
0 0 0
0 0 0
0 0 0
0 0 0
0 0 0
0 0 0
0 0 0
0 0 0
0 0 0
0 0 0
0 0 0
0 0 0
0 0 0
0 0 0
0 0 0
0 0 0
0 0 0
0 0 0
0 0 0
0 0 0
0 0 0
0 0 0
0 0 0
0 0 0
0 0 0
0 0 0
0 0 0
0 0 0
0 0 0
0 0 0
0 0 0
0 0 0
0 0 0
0 0 0
0 0 0
0 0 0
0 0 0
0 0 0
0 0 0
0 0 0
0 0 0
0 0 0
0 0 0
0 0 0
0 0 0
0 0 0
0 0 0
0 0 0
0 0 0
0 0 0
0 0 0
0 0 0
0 0 0
0 0 0
0 0 0
0 0 0
0 0 0
0 0 0
0 0 0
0 0 0
0 0 0
0 0 0
0 0 0
0 0 0
0 0 0
0 0 0
0 0 0
0 0 0
0 0 0
0 0 0
0 0 0
0 0 0
0 0 0
0 0 0
0 0 0
0 0 0
0 0 0
0 0 0
0 0 0
0 0 0
0 0 0
0 0 0
0 0 0
0 0 0
0 0 0
0 0 0
0 0 0
0 0 0
0 0 0
0 0 0
0 0 0
0 0 0
0 0 0
0 0 0
0 0 0
0 0 0
0 0 0
0 0 0
0 0 0
0 0 0
0 0 0
0 0 0
0 0 0
0 0 0
0 0 0
0 0 0
0 0 0
0 0 0
0 0 0
0 0 0
0 0 0
0 0 0
0 0 0
0 0 0
0 0 0
0 0 0
0 0 0
0 0 0
0 0 0
0 0 0
0 0 0
0 0 0
0 0 0
0 0 0
0 0 0
0 0 0
0 0 0
0 0 0
0 0 0
0 0 0
0 0 0
0 0 0
0 0 0
0 0 0
0 0 0
0 0 0
0 0 0
0 0 0
0 0 0
0 0 0
0 0 0
0 0 0
0 0 0
0 0 0
0 0 0
0 0 0
0 0 0
0 0 0
0 0 0
0 0 0
0 0 0
0 0 0
0 0 0
0 0 0
0 0 0
0 0 0
0 0 0
0 0 0
0 0 0
0 0 0
0 0 0
0 0 0
0 0 0
0 0 0
0 0 0
0 0 0
0 0 0
0 0 0
0 0 0
0 0 0
0 0 0
0 0 0
0 0 0
0 0 0
0 0 0
0 0 0
0 0 0
0 0 0
0 0 0
0 0 0
0 0 0
0 0 0
0 0 0
0 0 0
0 0 0
0 0 0
0 0 0
0 0 0
0 0 0
0 0 0
237 206 175
238 206 175
239 207 175
240 207 175
241 208 175
242 208 175
243 209 175
244 209 175
245 210 175
246 210 175
247 211 175
248 211 175
249 212 175
250 212 175
251 213 175
252 213 175
253 214 175
254 214 175
0 88 176
1 88 176
2 89 176
3 89 176
4 90 176
5 90 176
6 91 176
7 91 176
8 92 176
9 92 176
10 93 176
11 93 176
12 94 176
13 94 176
14 95 176
15 95 176
16 96 176
17 96 176
0 0 0
0 0 0
0 0 0
0 0 0
0 0 0
0 0 0
0 0 0
0 0 0
0 0 0
0 0 0
0 0 0
0 0 0
0 0 0
0 0 0
0 0 0
0 0 0
0 0 0
0 0 0
0 0 0
0 0 0
0 0 0
0 0 0
0 0 0
0 0 0
0 0 0
0 0 0
0 0 0
0 0 0
0 0 0
0 0 0
0 0 0
0 0 0
0 0 0
0 0 0
0 0 0
0 0 0
0 0 0
0 0 0
0 0 0
0 0 0
0 0 0
0 0 0
0 0 0
0 0 0
0 0 0
0 0 0
0 0 0
0 0 0
0 0 0
0 0 0
0 0 0
0 0 0
0 0 0
0 0 0
0 0 0
0 0 0
0 0 0
0 0 0
0 0 0
0 0 0
0 0 0
0 0 0
0 0 0
0 0 0
0 0 0
0 0 0
0 0 0
0 0 0
0 0 0
0 0 0
0 0 0
0 0 0
0 0 0
0 0 0
0 0 0
0 0 0
0 0 0
0 0 0
0 0 0
0 0 0
0 0 0
0 0 0
0 0 0
0 0 0
0 0 0
0 0 0
0 0 0
0 0 0
0 0 0
0 0 0
0 0 0
0 0 0
0 0 0
0 0 0
0 0 0
0 0 0
0 0 0
0 0 0
0 0 0
0 0 0
0 0 0
0 0 0
0 0 0
0 0 0
0 0 0
0 0 0
0 0 0
0 0 0
0 0 0
0 0 0
0 0 0
0 0 0
0 0 0
0 0 0
0 0 0
0 0 0
0 0 0
0 0 0
0 0 0
0 0 0
0 0 0
0 0 0
0 0 0
0 0 0
0 0 0
0 0 0
0 0 0
0 0 0
0 0 0
0 0 0
0 0 0
0 0 0
0 0 0
0 0 0
0 0 0
0 0 0
0 0 0
0 0 0
0 0 0
0 0 0
0 0 0
0 0 0
0 0 0
0 0 0
0 0 0
0 0 0
0 0 0
0 0 0
0 0 0
0 0 0
0 0 0
0 0 0
0 0 0
0 0 0
0 0 0
0 0 0
0 0 0
0 0 0
0 0 0
0 0 0
0 0 0
0 0 0
0 0 0
0 0 0
0 0 0
0 0 0
0 0 0
0 0 0
0 0 0
0 0 0
0 0 0
0 0 0
0 0 0
0 0 0
0 0 0
0 0 0
0 0 0
0 0 0
0 0 0
0 0 0
0 0 0
0 0 0
0 0 0
0 0 0
0 0 0
0 0 0
0 0 0
0 0 0
0 0 0
0 0 0
0 0 0
0 0 0
0 0 0
0 0 0
0 0 0
0 0 0
0 0 0
0 0 0
0 0 0
0 0 0
0 0 0
0 0 0
0 0 0
0 0 0
0 0 0
0 0 0
0 0 0
0 0 0
0 0 0
0 0 0
0 0 0
0 0 0
0 0 0
0 0 0
0 0 0
0 0 0
0 0 0
0 0 0
0 0 0
237 206 176
238 207 176
239 207 176
240 208 176
241 208 176
242 209 176
243 209 176
244 210 176
245 210 176
246 211 176
247 211 176
248 212 176
249 212 176
250 213 176
251 213 176
252 214 176
253 214 176
254 215 176
0 88 177
1 89 177
2 89 177
3 90 177
4 90 177
5 91 177
6 91 177
7 92 177
8 92 177
9 93 177
10 93 177
11 94 177
12 94 177
13 95 177
14 95 177
15 96 177
16 96 177
17 97 177
0 0 0
0 0 0
0 0 0
0 0 0
0 0 0
0 0 0
0 0 0
0 0 0
0 0 0
0 0 0
0 0 0
0 0 0
0 0 0
0 0 0
0 0 0
0 0 0
0 0 0
0 0 0
0 0 0
0 0 0
0 0 0
0 0 0
0 0 0
0 0 0
0 0 0
0 0 0
0 0 0
0 0 0
0 0 0
0 0 0
0 0 0
0 0 0
0 0 0
0 0 0
0 0 0
0 0 0
0 0 0
0 0 0
0 0 0
0 0 0
0 0 0
0 0 0
0 0 0
0 0 0
0 0 0
0 0 0
0 0 0
0 0 0
0 0 0
0 0 0
0 0 0
0 0 0
0 0 0
0 0 0
0 0 0
0 0 0
0 0 0
0 0 0
0 0 0
0 0 0
0 0 0
0 0 0
0 0 0
0 0 0
0 0 0
0 0 0
0 0 0
0 0 0
0 0 0
0 0 0
0 0 0
0 0 0
0 0 0
0 0 0
0 0 0
0 0 0
0 0 0
0 0 0
0 0 0
0 0 0
0 0 0
0 0 0
0 0 0
0 0 0
0 0 0
0 0 0
0 0 0
0 0 0
0 0 0
0 0 0
0 0 0
0 0 0
0 0 0
0 0 0
0 0 0
0 0 0
0 0 0
0 0 0
0 0 0
0 0 0
0 0 0
0 0 0
0 0 0
0 0 0
0 0 0
0 0 0
0 0 0
0 0 0
0 0 0
0 0 0
0 0 0
0 0 0
0 0 0
0 0 0
0 0 0
0 0 0
0 0 0
0 0 0
0 0 0
0 0 0
0 0 0
0 0 0
0 0 0
0 0 0
0 0 0
0 0 0
0 0 0
0 0 0
0 0 0
0 0 0
0 0 0
0 0 0
0 0 0
0 0 0
0 0 0
0 0 0
0 0 0
0 0 0
0 0 0
0 0 0
0 0 0
0 0 0
0 0 0
0 0 0
0 0 0
0 0 0
0 0 0
0 0 0
0 0 0
0 0 0
0 0 0
0 0 0
0 0 0
0 0 0
0 0 0
0 0 0
0 0 0
0 0 0
0 0 0
0 0 0
0 0 0
0 0 0
0 0 0
0 0 0
0 0 0
0 0 0
0 0 0
0 0 0
0 0 0
0 0 0
0 0 0
0 0 0
0 0 0
0 0 0
0 0 0
0 0 0
0 0 0
0 0 0
0 0 0
0 0 0
0 0 0
0 0 0
0 0 0
0 0 0
0 0 0
0 0 0
0 0 0
0 0 0
0 0 0
0 0 0
0 0 0
0 0 0
0 0 0
0 0 0
0 0 0
0 0 0
0 0 0
0 0 0
0 0 0
0 0 0
0 0 0
0 0 0
0 0 0
0 0 0
0 0 0
0 0 0
0 0 0
0 0 0
0 0 0
0 0 0
0 0 0
0 0 0
0 0 0
0 0 0
0 0 0
0 0 0
0 0 0
0 0 0
0 0 0
237 207 177
238 207 177
239 208 177
240 208 177
241 209 177
242 209 177
243 210 177
244 210 177
245 211 177
246 211 177
247 212 177
248 212 177
249 213 177
250 213 177
251 214 177
252 214 177
253 215 177
254 215 177
0 89 178
1 89 178
2 90 178
3 90 178
4 91 178
5 91 178
6 92 178
7 92 178
8 93 178
9 93 178
10 94 178
11 94 178
12 95 178
13 95 178
14 96 178
15 96 178
16 97 178
17 97 178
18 98 178
0 0 0
0 0 0
0 0 0
0 0 0
0 0 0
0 0 0
0 0 0
0 0 0
0 0 0
0 0 0
0 0 0
0 0 0
0 0 0
0 0 0
0 0 0
0 0 0
0 0 0
0 0 0
0 0 0
0 0 0
0 0 0
0 0 0
0 0 0
0 0 0
0 0 0
0 0 0
0 0 0
0 0 0
0 0 0
0 0 0
0 0 0
0 0 0
0 0 0
0 0 0
0 0 0
0 0 0
0 0 0
0 0 0
0 0 0
0 0 0
0 0 0
0 0 0
0 0 0
0 0 0
0 0 0
0 0 0
0 0 0
0 0 0
0 0 0
0 0 0
0 0 0
0 0 0
0 0 0
0 0 0
0 0 0
0 0 0
0 0 0
0 0 0
0 0 0
0 0 0
0 0 0
0 0 0
0 0 0
0 0 0
0 0 0
0 0 0
0 0 0
0 0 0
0 0 0
0 0 0
0 0 0
0 0 0
0 0 0
0 0 0
0 0 0
0 0 0
0 0 0
0 0 0
0 0 0
0 0 0
0 0 0
0 0 0
0 0 0
0 0 0
0 0 0
0 0 0
0 0 0
0 0 0
0 0 0
0 0 0
0 0 0
0 0 0
0 0 0
0 0 0
0 0 0
0 0 0
0 0 0
0 0 0
0 0 0
0 0 0
0 0 0
0 0 0
0 0 0
0 0 0
0 0 0
0 0 0
0 0 0
0 0 0
0 0 0
0 0 0
0 0 0
0 0 0
0 0 0
0 0 0
0 0 0
0 0 0
0 0 0
0 0 0
0 0 0
0 0 0
0 0 0
0 0 0
0 0 0
0 0 0
0 0 0
0 0 0
0 0 0
0 0 0
0 0 0
0 0 0
0 0 0
0 0 0
0 0 0
0 0 0
0 0 0
0 0 0
0 0 0
0 0 0
0 0 0
0 0 0
0 0 0
0 0 0
0 0 0
0 0 0
0 0 0
0 0 0
0 0 0
0 0 0
0 0 0
0 0 0
0 0 0
0 0 0
0 0 0
0 0 0
0 0 0
0 0 0
0 0 0
0 0 0
0 0 0
0 0 0
0 0 0
0 0 0
0 0 0
0 0 0
0 0 0
0 0 0
0 0 0
0 0 0
0 0 0
0 0 0
0 0 0
0 0 0
0 0 0
0 0 0
0 0 0
0 0 0
0 0 0
0 0 0
0 0 0
0 0 0
0 0 0
0 0 0
0 0 0
0 0 0
0 0 0
0 0 0
0 0 0
0 0 0
0 0 0
0 0 0
0 0 0
0 0 0
0 0 0
0 0 0
0 0 0
0 0 0
0 0 0
0 0 0
0 0 0
0 0 0
0 0 0
0 0 0
0 0 0
0 0 0
0 0 0
0 0 0
0 0 0
0 0 0
0 0 0
0 0 0
0 0 0
0 0 0
0 0 0
0 0 0
0 0 0
0 0 0
0 0 0
236 207 178
237 207 178
238 208 178
239 208 178
240 209 178
241 209 178
242 210 178
243 210 178
244 211 178
245 211 178
246 212 178
247 212 178
248 213 178
249 213 178
250 214 178
251 214 178
252 215 178
253 215 178
254 216 178
0 89 179
1 90 179
2 90 179
3 91 179
4 91 179
5 92 179
6 92 179
7 93 179
8 93 179
9 94 179
10 94 179
11 95 179
12 95 179
13 96 179
14 96 179
15 97 179
16 97 179
17 98 179
18 98 179
0 0 0
0 0 0
0 0 0
0 0 0
0 0 0
0 0 0
0 0 0
0 0 0
0 0 0
0 0 0
0 0 0
0 0 0
0 0 0
0 0 0
0 0 0
0 0 0
0 0 0
0 0 0
0 0 0
0 0 0
0 0 0
0 0 0
0 0 0
0 0 0
0 0 0
0 0 0
0 0 0
0 0 0
0 0 0
0 0 0
0 0 0
0 0 0
0 0 0
0 0 0
0 0 0
0 0 0
0 0 0
0 0 0
0 0 0
0 0 0
0 0 0
0 0 0
0 0 0
0 0 0
0 0 0
0 0 0
0 0 0
0 0 0
0 0 0
0 0 0
0 0 0
0 0 0
0 0 0
0 0 0
0 0 0
0 0 0
0 0 0
0 0 0
0 0 0
0 0 0
0 0 0
0 0 0
0 0 0
0 0 0
0 0 0
0 0 0
0 0 0
0 0 0
0 0 0
0 0 0
0 0 0
0 0 0
0 0 0
0 0 0
0 0 0
0 0 0
0 0 0
0 0 0
0 0 0
0 0 0
0 0 0
0 0 0
0 0 0
0 0 0
0 0 0
0 0 0
0 0 0
0 0 0
0 0 0
0 0 0
0 0 0
0 0 0
0 0 0
0 0 0
0 0 0
0 0 0
0 0 0
0 0 0
0 0 0
0 0 0
0 0 0
0 0 0
0 0 0
0 0 0
0 0 0
0 0 0
0 0 0
0 0 0
0 0 0
0 0 0
0 0 0
0 0 0
0 0 0
0 0 0
0 0 0
0 0 0
0 0 0
0 0 0
0 0 0
0 0 0
0 0 0
0 0 0
0 0 0
0 0 0
0 0 0
0 0 0
0 0 0
0 0 0
0 0 0
0 0 0
0 0 0
0 0 0
0 0 0
0 0 0
0 0 0
0 0 0
0 0 0
0 0 0
0 0 0
0 0 0
0 0 0
0 0 0
0 0 0
0 0 0
0 0 0
0 0 0
0 0 0
0 0 0
0 0 0
0 0 0
0 0 0
0 0 0
0 0 0
0 0 0
0 0 0
0 0 0
0 0 0
0 0 0
0 0 0
0 0 0
0 0 0
0 0 0
0 0 0
0 0 0
0 0 0
0 0 0
0 0 0
0 0 0
0 0 0
0 0 0
0 0 0
0 0 0
0 0 0
0 0 0
0 0 0
0 0 0
0 0 0
0 0 0
0 0 0
0 0 0
0 0 0
0 0 0
0 0 0
0 0 0
0 0 0
0 0 0
0 0 0
0 0 0
0 0 0
0 0 0
0 0 0
0 0 0
0 0 0
0 0 0
0 0 0
0 0 0
0 0 0
0 0 0
0 0 0
0 0 0
0 0 0
0 0 0
0 0 0
0 0 0
0 0 0
0 0 0
0 0 0
0 0 0
0 0 0
0 0 0
0 0 0
0 0 0
0 0 0
0 0 0
0 0 0
0 0 0
0 0 0
236 207 179
237 208 179
238 208 179
239 209 179
240 209 179
241 210 179
242 210 179
243 211 179
244 211 179
245 212 179
246 212 179
247 213 179
248 213 179
249 214 179
250 214 179
251 215 179
252 215 179
253 216 179
254 216 179
0 90 180
1 90 180
2 91 180
3 91 180
4 92 180
5 92 180
6 93 180
7 93 180
8 94 180
9 94 180
10 95 180
11 95 180
12 96 180
13 96 180
14 97 180
15 97 180
16 98 180
17 98 180
18 99 180
19 99 180
0 0 0
0 0 0
0 0 0
0 0 0
0 0 0
0 0 0
0 0 0
0 0 0
0 0 0
0 0 0
0 0 0
0 0 0
0 0 0
0 0 0
0 0 0
0 0 0
0 0 0
0 0 0
0 0 0
0 0 0
0 0 0
0 0 0
0 0 0
0 0 0
0 0 0
0 0 0
0 0 0
0 0 0
0 0 0
0 0 0
0 0 0
0 0 0
0 0 0
0 0 0
0 0 0
0 0 0
0 0 0
0 0 0
0 0 0
0 0 0
0 0 0
0 0 0
0 0 0
0 0 0
0 0 0
0 0 0
0 0 0
0 0 0
0 0 0
0 0 0
0 0 0
0 0 0
0 0 0
0 0 0
0 0 0
0 0 0
0 0 0
0 0 0
0 0 0
0 0 0
0 0 0
0 0 0
0 0 0
0 0 0
0 0 0
0 0 0
0 0 0
0 0 0
0 0 0
0 0 0
0 0 0
0 0 0
0 0 0
0 0 0
0 0 0
0 0 0
0 0 0
0 0 0
0 0 0
0 0 0
0 0 0
0 0 0
0 0 0
0 0 0
0 0 0
0 0 0
0 0 0
0 0 0
0 0 0
0 0 0
0 0 0
0 0 0
0 0 0
0 0 0
0 0 0
0 0 0
0 0 0
0 0 0
0 0 0
0 0 0
0 0 0
0 0 0
0 0 0
0 0 0
0 0 0
0 0 0
0 0 0
0 0 0
0 0 0
0 0 0
0 0 0
0 0 0
0 0 0
0 0 0
0 0 0
0 0 0
0 0 0
0 0 0
0 0 0
0 0 0
0 0 0
0 0 0
0 0 0
0 0 0
0 0 0
0 0 0
0 0 0
0 0 0
0 0 0
0 0 0
0 0 0
0 0 0
0 0 0
0 0 0
0 0 0
0 0 0
0 0 0
0 0 0
0 0 0
0 0 0
0 0 0
0 0 0
0 0 0
0 0 0
0 0 0
0 0 0
0 0 0
0 0 0
0 0 0
0 0 0
0 0 0
0 0 0
0 0 0
0 0 0
0 0 0
0 0 0
0 0 0
0 0 0
0 0 0
0 0 0
0 0 0
0 0 0
0 0 0
0 0 0
0 0 0
0 0 0
0 0 0
0 0 0
0 0 0
0 0 0
0 0 0
0 0 0
0 0 0
0 0 0
0 0 0
0 0 0
0 0 0
0 0 0
0 0 0
0 0 0
0 0 0
0 0 0
0 0 0
0 0 0
0 0 0
0 0 0
0 0 0
0 0 0
0 0 0
0 0 0
0 0 0
0 0 0
0 0 0
0 0 0
0 0 0
0 0 0
0 0 0
0 0 0
0 0 0
0 0 0
0 0 0
0 0 0
0 0 0
0 0 0
0 0 0
0 0 0
0 0 0
0 0 0
0 0 0
0 0 0
0 0 0
0 0 0
0 0 0
0 0 0
0 0 0
235 207 180
236 208 180
237 208 180
238 209 180
239 209 180
240 210 180
241 210 180
242 211 180
243 211 180
244 212 180
245 212 180
246 213 180
247 213 180
248 214 180
249 214 180
250 215 180
251 215 180
252 216 180
253 216 180
254 217 180
0 90 181
1 91 181
2 91 181
3 92 181
4 92 181
5 93 181
6 93 181
7 94 181
8 94 181
9 95 181
10 95 181
11 96 181
12 96 181
13 97 181
14 97 181
15 98 181
16 98 181
17 99 181
18 99 181
19 100 181
0 0 0
0 0 0
0 0 0
0 0 0
0 0 0
0 0 0
0 0 0
0 0 0
0 0 0
0 0 0
0 0 0
0 0 0
0 0 0
0 0 0
0 0 0
0 0 0
0 0 0
0 0 0
0 0 0
0 0 0
0 0 0
0 0 0
0 0 0
0 0 0
0 0 0
0 0 0
0 0 0
0 0 0
0 0 0
0 0 0
0 0 0
0 0 0
0 0 0
0 0 0
0 0 0
0 0 0
0 0 0
0 0 0
0 0 0
0 0 0
0 0 0
0 0 0
0 0 0
0 0 0
0 0 0
0 0 0
0 0 0
0 0 0
0 0 0
0 0 0
0 0 0
0 0 0
0 0 0
0 0 0
0 0 0
0 0 0
0 0 0
0 0 0
0 0 0
0 0 0
0 0 0
0 0 0
0 0 0
0 0 0
0 0 0
0 0 0
0 0 0
0 0 0
0 0 0
0 0 0
0 0 0
0 0 0
0 0 0
0 0 0
0 0 0
0 0 0
0 0 0
0 0 0
0 0 0
0 0 0
0 0 0
0 0 0
0 0 0
0 0 0
0 0 0
0 0 0
0 0 0
0 0 0
0 0 0
0 0 0
0 0 0
0 0 0
0 0 0
0 0 0
0 0 0
0 0 0
0 0 0
0 0 0
0 0 0
0 0 0
0 0 0
0 0 0
0 0 0
0 0 0
0 0 0
0 0 0
0 0 0
0 0 0
0 0 0
0 0 0
0 0 0
0 0 0
0 0 0
0 0 0
0 0 0
0 0 0
0 0 0
0 0 0
0 0 0
0 0 0
0 0 0
0 0 0
0 0 0
0 0 0
0 0 0
0 0 0
0 0 0
0 0 0
0 0 0
0 0 0
0 0 0
0 0 0
0 0 0
0 0 0
0 0 0
0 0 0
0 0 0
0 0 0
0 0 0
0 0 0
0 0 0
0 0 0
0 0 0
0 0 0
0 0 0
0 0 0
0 0 0
0 0 0
0 0 0
0 0 0
0 0 0
0 0 0
0 0 0
0 0 0
0 0 0
0 0 0
0 0 0
0 0 0
0 0 0
0 0 0
0 0 0
0 0 0
0 0 0
0 0 0
0 0 0
0 0 0
0 0 0
0 0 0
0 0 0
0 0 0
0 0 0
0 0 0
0 0 0
0 0 0
0 0 0
0 0 0
0 0 0
0 0 0
0 0 0
0 0 0
0 0 0
0 0 0
0 0 0
0 0 0
0 0 0
0 0 0
0 0 0
0 0 0
0 0 0
0 0 0
0 0 0
0 0 0
0 0 0
0 0 0
0 0 0
0 0 0
0 0 0
0 0 0
0 0 0
0 0 0
0 0 0
0 0 0
0 0 0
0 0 0
0 0 0
0 0 0
0 0 0
0 0 0
0 0 0
0 0 0
0 0 0
0 0 0
0 0 0
0 0 0
0 0 0
235 208 181
236 208 181
237 209 181
238 209 181
239 210 181
240 210 181
241 211 181
242 211 181
243 212 181
244 212 181
245 213 181
246 213 181
247 214 181
248 214 181
249 215 181
250 215 181
251 216 181
252 216 181
253 217 181
254 217 181
0 91 182
1 91 182
2 92 182
3 92 182
4 93 182
5 93 182
6 94 182
7 94 182
8 95 182
9 95 182
10 96 182
11 96 182
12 97 182
13 97 182
14 98 182
15 98 182
16 99 182
17 99 182
18 100 182
19 100 182
20 101 182
0 0 0
0 0 0
0 0 0
0 0 0
0 0 0
0 0 0
0 0 0
0 0 0
0 0 0
0 0 0
0 0 0
0 0 0
0 0 0
0 0 0
0 0 0
0 0 0
0 0 0
0 0 0
0 0 0
0 0 0
0 0 0
0 0 0
0 0 0
0 0 0
0 0 0
0 0 0
0 0 0
0 0 0
0 0 0
0 0 0
0 0 0
0 0 0
0 0 0
0 0 0
0 0 0
0 0 0
0 0 0
0 0 0
0 0 0
0 0 0
0 0 0
0 0 0
0 0 0
0 0 0
0 0 0
0 0 0
0 0 0
0 0 0
0 0 0
0 0 0
0 0 0
0 0 0
0 0 0
0 0 0
0 0 0
0 0 0
0 0 0
0 0 0
0 0 0
0 0 0
0 0 0
0 0 0
0 0 0
0 0 0
0 0 0
0 0 0
0 0 0
0 0 0
0 0 0
0 0 0
0 0 0
0 0 0
0 0 0
0 0 0
0 0 0
0 0 0
0 0 0
0 0 0
0 0 0
0 0 0
0 0 0
0 0 0
0 0 0
0 0 0
0 0 0
0 0 0
0 0 0
0 0 0
0 0 0
0 0 0
0 0 0
0 0 0
0 0 0
0 0 0
0 0 0
0 0 0
0 0 0
0 0 0
0 0 0
0 0 0
0 0 0
0 0 0
0 0 0
0 0 0
0 0 0
0 0 0
0 0 0
0 0 0
0 0 0
0 0 0
0 0 0
0 0 0
0 0 0
0 0 0
0 0 0
0 0 0
0 0 0
0 0 0
0 0 0
0 0 0
0 0 0
0 0 0
0 0 0
0 0 0
0 0 0
0 0 0
0 0 0
0 0 0
0 0 0
0 0 0
0 0 0
0 0 0
0 0 0
0 0 0
0 0 0
0 0 0
0 0 0
0 0 0
0 0 0
0 0 0
0 0 0
0 0 0
0 0 0
0 0 0
0 0 0
0 0 0
0 0 0
0 0 0
0 0 0
0 0 0
0 0 0
0 0 0
0 0 0
0 0 0
0 0 0
0 0 0
0 0 0
0 0 0
0 0 0
0 0 0
0 0 0
0 0 0
0 0 0
0 0 0
0 0 0
0 0 0
0 0 0
0 0 0
0 0 0
0 0 0
0 0 0
0 0 0
0 0 0
0 0 0
0 0 0
0 0 0
0 0 0
0 0 0
0 0 0
0 0 0
0 0 0
0 0 0
0 0 0
0 0 0
0 0 0
0 0 0
0 0 0
0 0 0
0 0 0
0 0 0
0 0 0
0 0 0
0 0 0
0 0 0
0 0 0
0 0 0
0 0 0
0 0 0
0 0 0
0 0 0
0 0 0
0 0 0
0 0 0
0 0 0
0 0 0
0 0 0
0 0 0
0 0 0
0 0 0
0 0 0
0 0 0
0 0 0
0 0 0
234 208 182
235 208 182
236 209 182
237 209 182
238 210 182
239 210 182
240 211 182
241 211 182
242 212 182
243 212 182
244 213 182
245 213 182
246 214 182
247 214 182
248 215 182
249 215 182
250 216 182
251 216 182
252 217 182
253 217 182
254 218 182
0 91 183
1 92 183
2 92 183
3 93 183
4 93 183
5 94 183
6 94 183
7 95 183
8 95 183
9 96 183
10 96 183
11 97 183
12 97 183
13 98 183
14 98 183
15 99 183
16 99 183
17 100 183
18 100 183
19 101 183
20 101 183
0 0 0
0 0 0
0 0 0
0 0 0
0 0 0
0 0 0
0 0 0
0 0 0
0 0 0
0 0 0
0 0 0
0 0 0
0 0 0
0 0 0
0 0 0
0 0 0
0 0 0
0 0 0
0 0 0
0 0 0
0 0 0
0 0 0
0 0 0
0 0 0
0 0 0
0 0 0
0 0 0
0 0 0
0 0 0
0 0 0
0 0 0
0 0 0
0 0 0
0 0 0
0 0 0
0 0 0
0 0 0
0 0 0
0 0 0
0 0 0
0 0 0
0 0 0
0 0 0
0 0 0
0 0 0
0 0 0
0 0 0
0 0 0
0 0 0
0 0 0
0 0 0
0 0 0
0 0 0
0 0 0
0 0 0
0 0 0
0 0 0
0 0 0
0 0 0
0 0 0
0 0 0
0 0 0
0 0 0
0 0 0
0 0 0
0 0 0
0 0 0
0 0 0
0 0 0
0 0 0
0 0 0
0 0 0
0 0 0
0 0 0
0 0 0
0 0 0
0 0 0
0 0 0
0 0 0
0 0 0
0 0 0
0 0 0
0 0 0
0 0 0
0 0 0
0 0 0
0 0 0
0 0 0
0 0 0
0 0 0
0 0 0
0 0 0
0 0 0
0 0 0
0 0 0
0 0 0
0 0 0
0 0 0
0 0 0
0 0 0
0 0 0
0 0 0
0 0 0
0 0 0
0 0 0
0 0 0
0 0 0
0 0 0
0 0 0
0 0 0
0 0 0
0 0 0
0 0 0
0 0 0
0 0 0
0 0 0
0 0 0
0 0 0
0 0 0
0 0 0
0 0 0
0 0 0
0 0 0
0 0 0
0 0 0
0 0 0
0 0 0
0 0 0
0 0 0
0 0 0
0 0 0
0 0 0
0 0 0
0 0 0
0 0 0
0 0 0
0 0 0
0 0 0
0 0 0
0 0 0
0 0 0
0 0 0
0 0 0
0 0 0
0 0 0
0 0 0
0 0 0
0 0 0
0 0 0
0 0 0
0 0 0
0 0 0
0 0 0
0 0 0
0 0 0
0 0 0
0 0 0
0 0 0
0 0 0
0 0 0
0 0 0
0 0 0
0 0 0
0 0 0
0 0 0
0 0 0
0 0 0
0 0 0
0 0 0
0 0 0
0 0 0
0 0 0
0 0 0
0 0 0
0 0 0
0 0 0
0 0 0
0 0 0
0 0 0
0 0 0
0 0 0
0 0 0
0 0 0
0 0 0
0 0 0
0 0 0
0 0 0
0 0 0
0 0 0
0 0 0
0 0 0
0 0 0
0 0 0
0 0 0
0 0 0
0 0 0
0 0 0
0 0 0
0 0 0
0 0 0
0 0 0
0 0 0
0 0 0
0 0 0
0 0 0
0 0 0
0 0 0
0 0 0
0 0 0
0 0 0
0 0 0
0 0 0
0 0 0
234 208 183
235 209 183
236 209 183
237 210 183
238 210 183
239 211 183
240 211 183
241 212 183
242 212 183
243 213 183
244 213 183
245 214 183
246 214 183
247 215 183
248 215 183
249 216 183
250 216 183
251 217 183
252 217 183
253 218 183
254 218 183
0 92 184
1 92 184
2 93 184
3 93 184
4 94 184
5 94 184
6 95 184
7 95 184
8 96 184
9 96 184
10 97 184
11 97 184
12 98 184
13 98 184
14 99 184
15 99 184
16 100 184
17 100 184
18 101 184
19 101 184
20 102 184
21 102 184
0 0 0
0 0 0
0 0 0
0 0 0
0 0 0
0 0 0
0 0 0
0 0 0
0 0 0
0 0 0
0 0 0
0 0 0
0 0 0
0 0 0
0 0 0
0 0 0
0 0 0
0 0 0
0 0 0
0 0 0
0 0 0
0 0 0
0 0 0
0 0 0
0 0 0
0 0 0
0 0 0
0 0 0
0 0 0
0 0 0
0 0 0
0 0 0
0 0 0
0 0 0
0 0 0
0 0 0
0 0 0
0 0 0
0 0 0
0 0 0
0 0 0
0 0 0
0 0 0
0 0 0
0 0 0
0 0 0
0 0 0
0 0 0
0 0 0
0 0 0
0 0 0
0 0 0
0 0 0
0 0 0
0 0 0
0 0 0
0 0 0
0 0 0
0 0 0
0 0 0
0 0 0
0 0 0
0 0 0
0 0 0
0 0 0
0 0 0
0 0 0
0 0 0
0 0 0
0 0 0
0 0 0
0 0 0
0 0 0
0 0 0
0 0 0
0 0 0
0 0 0
0 0 0
0 0 0
0 0 0
0 0 0
0 0 0
0 0 0
0 0 0
0 0 0
0 0 0
0 0 0
0 0 0
0 0 0
0 0 0
0 0 0
0 0 0
0 0 0
0 0 0
0 0 0
0 0 0
0 0 0
0 0 0
0 0 0
0 0 0
0 0 0
0 0 0
0 0 0
0 0 0
0 0 0
0 0 0
0 0 0
0 0 0
0 0 0
0 0 0
0 0 0
0 0 0
0 0 0
0 0 0
0 0 0
0 0 0
0 0 0
0 0 0
0 0 0
0 0 0
0 0 0
0 0 0
0 0 0
0 0 0
0 0 0
0 0 0
0 0 0
0 0 0
0 0 0
0 0 0
0 0 0
0 0 0
0 0 0
0 0 0
0 0 0
0 0 0
0 0 0
0 0 0
0 0 0
0 0 0
0 0 0
0 0 0
0 0 0
0 0 0
0 0 0
0 0 0
0 0 0
0 0 0
0 0 0
0 0 0
0 0 0
0 0 0
0 0 0
0 0 0
0 0 0
0 0 0
0 0 0
0 0 0
0 0 0
0 0 0
0 0 0
0 0 0
0 0 0
0 0 0
0 0 0
0 0 0
0 0 0
0 0 0
0 0 0
0 0 0
0 0 0
0 0 0
0 0 0
0 0 0
0 0 0
0 0 0
0 0 0
0 0 0
0 0 0
0 0 0
0 0 0
0 0 0
0 0 0
0 0 0
0 0 0
0 0 0
0 0 0
0 0 0
0 0 0
0 0 0
0 0 0
0 0 0
0 0 0
0 0 0
0 0 0
0 0 0
0 0 0
0 0 0
0 0 0
0 0 0
0 0 0
0 0 0
0 0 0
0 0 0
0 0 0
0 0 0
0 0 0
0 0 0
0 0 0
0 0 0
0 0 0
233 208 184
234 209 184
235 209 184
236 210 184
237 210 184
238 211 184
239 211 184
240 212 184
241 212 184
242 213 184
243 213 184
244 214 184
245 214 184
246 215 184
247 215 184
248 216 184
249 216 184
250 217 184
251 217 184
252 218 184
253 218 184
254 219 184
0 92 185
1 93 185
2 93 185
3 94 185
4 94 185
5 95 185
6 95 185
7 96 185
8 96 185
9 97 185
10 97 185
11 98 185
12 98 185
13 99 185
14 99 185
15 100 185
16 100 185
17 101 185
18 101 185
19 102 185
20 102 185
21 103 185
0 0 0
0 0 0
0 0 0
0 0 0
0 0 0
0 0 0
0 0 0
0 0 0
0 0 0
0 0 0
0 0 0
0 0 0
0 0 0
0 0 0
0 0 0
0 0 0
0 0 0
0 0 0
0 0 0
0 0 0
0 0 0
0 0 0
0 0 0
0 0 0
0 0 0
0 0 0
0 0 0
0 0 0
0 0 0
0 0 0
0 0 0
0 0 0
0 0 0
0 0 0
0 0 0
0 0 0
0 0 0
0 0 0
0 0 0
0 0 0
0 0 0
0 0 0
0 0 0
0 0 0
0 0 0
0 0 0
0 0 0
0 0 0
0 0 0
0 0 0
0 0 0
0 0 0
0 0 0
0 0 0
0 0 0
0 0 0
0 0 0
0 0 0
0 0 0
0 0 0
0 0 0
0 0 0
0 0 0
0 0 0
0 0 0
0 0 0
0 0 0
0 0 0
0 0 0
0 0 0
0 0 0
0 0 0
0 0 0
0 0 0
0 0 0
0 0 0
0 0 0
0 0 0
0 0 0
0 0 0
0 0 0
0 0 0
0 0 0
0 0 0
0 0 0
0 0 0
0 0 0
0 0 0
0 0 0
0 0 0
0 0 0
0 0 0
0 0 0
0 0 0
0 0 0
0 0 0
0 0 0
0 0 0
0 0 0
0 0 0
0 0 0
0 0 0
0 0 0
0 0 0
0 0 0
0 0 0
0 0 0
0 0 0
0 0 0
0 0 0
0 0 0
0 0 0
0 0 0
0 0 0
0 0 0
0 0 0
0 0 0
0 0 0
0 0 0
0 0 0
0 0 0
0 0 0
0 0 0
0 0 0
0 0 0
0 0 0
0 0 0
0 0 0
0 0 0
0 0 0
0 0 0
0 0 0
0 0 0
0 0 0
0 0 0
0 0 0
0 0 0
0 0 0
0 0 0
0 0 0
0 0 0
0 0 0
0 0 0
0 0 0
0 0 0
0 0 0
0 0 0
0 0 0
0 0 0
0 0 0
0 0 0
0 0 0
0 0 0
0 0 0
0 0 0
0 0 0
0 0 0
0 0 0
0 0 0
0 0 0
0 0 0
0 0 0
0 0 0
0 0 0
0 0 0
0 0 0
0 0 0
0 0 0
0 0 0
0 0 0
0 0 0
0 0 0
0 0 0
0 0 0
0 0 0
0 0 0
0 0 0
0 0 0
0 0 0
0 0 0
0 0 0
0 0 0
0 0 0
0 0 0
0 0 0
0 0 0
0 0 0
0 0 0
0 0 0
0 0 0
0 0 0
0 0 0
0 0 0
0 0 0
0 0 0
0 0 0
0 0 0
0 0 0
0 0 0
0 0 0
0 0 0
0 0 0
0 0 0
0 0 0
0 0 0
0 0 0
0 0 0
0 0 0
0 0 0
0 0 0
0 0 0
233 209 185
234 209 185
235 210 185
236 210 185
237 211 185
238 211 185
239 212 185
240 212 185
241 213 185
242 213 185
243 214 185
244 214 185
245 215 185
246 215 185
247 216 185
248 216 185
249 217 185
250 217 185
251 218 185
252 218 185
253 219 185
254 219 185
0 93 186
1 93 186
2 94 186
3 94 186
4 95 186
5 95 186
6 96 186
7 96 186
8 97 186
9 97 186
10 98 186
11 98 186
12 99 186
13 99 186
14 100 186
15 100 186
16 101 186
17 101 186
18 102 186
19 102 186
20 103 186
21 103 186
22 104 186
0 0 0
0 0 0
0 0 0
0 0 0
0 0 0
0 0 0
0 0 0
0 0 0
0 0 0
0 0 0
0 0 0
0 0 0
0 0 0
0 0 0
0 0 0
0 0 0
0 0 0
0 0 0
0 0 0
0 0 0
0 0 0
0 0 0
0 0 0
0 0 0
0 0 0
0 0 0
0 0 0
0 0 0
0 0 0
0 0 0
0 0 0
0 0 0
0 0 0
0 0 0
0 0 0
0 0 0
0 0 0
0 0 0
0 0 0
0 0 0
0 0 0
0 0 0
0 0 0
0 0 0
0 0 0
0 0 0
0 0 0
0 0 0
0 0 0
0 0 0
0 0 0
0 0 0
0 0 0
0 0 0
0 0 0
0 0 0
0 0 0
0 0 0
0 0 0
0 0 0
0 0 0
0 0 0
0 0 0
0 0 0
0 0 0
0 0 0
0 0 0
0 0 0
0 0 0
0 0 0
0 0 0
0 0 0
0 0 0
0 0 0
0 0 0
0 0 0
0 0 0
0 0 0
0 0 0
0 0 0
0 0 0
0 0 0
0 0 0
0 0 0
0 0 0
0 0 0
0 0 0
0 0 0
0 0 0
0 0 0
0 0 0
0 0 0
0 0 0
0 0 0
0 0 0
0 0 0
0 0 0
0 0 0
0 0 0
0 0 0
0 0 0
0 0 0
0 0 0
0 0 0
0 0 0
0 0 0
0 0 0
0 0 0
0 0 0
0 0 0
0 0 0
0 0 0
0 0 0
0 0 0
0 0 0
0 0 0
0 0 0
0 0 0
0 0 0
0 0 0
0 0 0
0 0 0
0 0 0
0 0 0
0 0 0
0 0 0
0 0 0
0 0 0
0 0 0
0 0 0
0 0 0
0 0 0
0 0 0
0 0 0
0 0 0
0 0 0
0 0 0
0 0 0
0 0 0
0 0 0
0 0 0
0 0 0
0 0 0
0 0 0
0 0 0
0 0 0
0 0 0
0 0 0
0 0 0
0 0 0
0 0 0
0 0 0
0 0 0
0 0 0
0 0 0
0 0 0
0 0 0
0 0 0
0 0 0
0 0 0
0 0 0
0 0 0
0 0 0
0 0 0
0 0 0
0 0 0
0 0 0
0 0 0
0 0 0
0 0 0
0 0 0
0 0 0
0 0 0
0 0 0
0 0 0
0 0 0
0 0 0
0 0 0
0 0 0
0 0 0
0 0 0
0 0 0
0 0 0
0 0 0
0 0 0
0 0 0
0 0 0
0 0 0
0 0 0
0 0 0
0 0 0
0 0 0
0 0 0
0 0 0
0 0 0
0 0 0
0 0 0
0 0 0
0 0 0
0 0 0
0 0 0
0 0 0
0 0 0
0 0 0
0 0 0
0 0 0
0 0 0
0 0 0
0 0 0
232 209 186
233 209 186
234 210 186
235 210 186
236 211 186
237 211 186
238 212 186
239 212 186
240 213 186
241 213 186
242 214 186
243 214 186
244 215 186
245 215 186
246 216 186
247 216 186
248 217 186
249 217 186
250 218 186
251 218 186
252 219 186
253 219 186
254 220 186
0 93 187
1 94 187
2 94 187
3 95 187
4 95 187
5 96 187
6 96 187
7 97 187
8 97 187
9 98 187
10 98 187
11 99 187
12 99 187
13 100 187
14 100 187
15 101 187
16 101 187
17 102 187
18 102 187
19 103 187
20 103 187
21 104 187
22 104 187
23 105 187
0 0 0
0 0 0
0 0 0
0 0 0
0 0 0
0 0 0
0 0 0
0 0 0
0 0 0
0 0 0
0 0 0
0 0 0
0 0 0
0 0 0
0 0 0
0 0 0
0 0 0
0 0 0
0 0 0
0 0 0
0 0 0
0 0 0
0 0 0
0 0 0
0 0 0
0 0 0
0 0 0
0 0 0
0 0 0
0 0 0
0 0 0
0 0 0
0 0 0
0 0 0
0 0 0
0 0 0
0 0 0
0 0 0
0 0 0
0 0 0
0 0 0
0 0 0
0 0 0
0 0 0
0 0 0
0 0 0
0 0 0
0 0 0
0 0 0
0 0 0
0 0 0
0 0 0
0 0 0
0 0 0
0 0 0
0 0 0
0 0 0
0 0 0
0 0 0
0 0 0
0 0 0
0 0 0
0 0 0
0 0 0
0 0 0
0 0 0
0 0 0
0 0 0
0 0 0
0 0 0
0 0 0
0 0 0
0 0 0
0 0 0
0 0 0
0 0 0
0 0 0
0 0 0
0 0 0
0 0 0
0 0 0
0 0 0
0 0 0
0 0 0
0 0 0
0 0 0
0 0 0
0 0 0
0 0 0
0 0 0
0 0 0
0 0 0
0 0 0
0 0 0
0 0 0
0 0 0
0 0 0
0 0 0
0 0 0
0 0 0
0 0 0
0 0 0
0 0 0
0 0 0
0 0 0
0 0 0
0 0 0
0 0 0
0 0 0
0 0 0
0 0 0
0 0 0
0 0 0
0 0 0
0 0 0
0 0 0
0 0 0
0 0 0
0 0 0
0 0 0
0 0 0
0 0 0
0 0 0
0 0 0
0 0 0
0 0 0
0 0 0
0 0 0
0 0 0
0 0 0
0 0 0
0 0 0
0 0 0
0 0 0
0 0 0
0 0 0
0 0 0
0 0 0
0 0 0
0 0 0
0 0 0
0 0 0
0 0 0
0 0 0
0 0 0
0 0 0
0 0 0
0 0 0
0 0 0
0 0 0
0 0 0
0 0 0
0 0 0
0 0 0
0 0 0
0 0 0
0 0 0
0 0 0
0 0 0
0 0 0
0 0 0
0 0 0
0 0 0
0 0 0
0 0 0
0 0 0
0 0 0
0 0 0
0 0 0
0 0 0
0 0 0
0 0 0
0 0 0
0 0 0
0 0 0
0 0 0
0 0 0
0 0 0
0 0 0
0 0 0
0 0 0
0 0 0
0 0 0
0 0 0
0 0 0
0 0 0
0 0 0
0 0 0
0 0 0
0 0 0
0 0 0
0 0 0
0 0 0
0 0 0
0 0 0
0 0 0
0 0 0
0 0 0
0 0 0
0 0 0
0 0 0
0 0 0
0 0 0
0 0 0
0 0 0
0 0 0
0 0 0
231 209 187
232 209 187
233 210 187
234 210 187
235 211 187
236 211 187
237 212 187
238 212 187
239 213 187
240 213 187
241 214 187
242 214 187
243 215 187
244 215 187
245 216 187
246 216 187
247 217 187
248 217 187
249 218 187
250 218 187
251 219 187
252 219 187
253 220 187
254 220 187
0 94 188
1 94 188
2 95 188
3 95 188
4 96 188
5 96 188
6 97 188
7 97 188
8 98 188
9 98 188
10 99 188
11 99 188
12 100 188
13 100 188
14 101 188
15 101 188
16 102 188
17 102 188
18 103 188
19 103 188
20 104 188
21 104 188
22 105 188
23 105 188
0 0 0
0 0 0
0 0 0
0 0 0
0 0 0
0 0 0
0 0 0
0 0 0
0 0 0
0 0 0
0 0 0
0 0 0
0 0 0
0 0 0
0 0 0
0 0 0
0 0 0
0 0 0
0 0 0
0 0 0
0 0 0
0 0 0
0 0 0
0 0 0
0 0 0
0 0 0
0 0 0
0 0 0
0 0 0
0 0 0
0 0 0
0 0 0
0 0 0
0 0 0
0 0 0
0 0 0
0 0 0
0 0 0
0 0 0
0 0 0
0 0 0
0 0 0
0 0 0
0 0 0
0 0 0
0 0 0
0 0 0
0 0 0
0 0 0
0 0 0
0 0 0
0 0 0
0 0 0
0 0 0
0 0 0
0 0 0
0 0 0
0 0 0
0 0 0
0 0 0
0 0 0
0 0 0
0 0 0
0 0 0
0 0 0
0 0 0
0 0 0
0 0 0
0 0 0
0 0 0
0 0 0
0 0 0
0 0 0
0 0 0
0 0 0
0 0 0
0 0 0
0 0 0
0 0 0
0 0 0
0 0 0
0 0 0
0 0 0
0 0 0
0 0 0
0 0 0
0 0 0
0 0 0
0 0 0
0 0 0
0 0 0
0 0 0
0 0 0
0 0 0
0 0 0
0 0 0
0 0 0
0 0 0
0 0 0
0 0 0
0 0 0
0 0 0
0 0 0
0 0 0
0 0 0
0 0 0
0 0 0
0 0 0
0 0 0
0 0 0
0 0 0
0 0 0
0 0 0
0 0 0
0 0 0
0 0 0
0 0 0
0 0 0
0 0 0
0 0 0
0 0 0
0 0 0
0 0 0
0 0 0
0 0 0
0 0 0
0 0 0
0 0 0
0 0 0
0 0 0
0 0 0
0 0 0
0 0 0
0 0 0
0 0 0
0 0 0
0 0 0
0 0 0
0 0 0
0 0 0
0 0 0
0 0 0
0 0 0
0 0 0
0 0 0
0 0 0
0 0 0
0 0 0
0 0 0
0 0 0
0 0 0
0 0 0
0 0 0
0 0 0
0 0 0
0 0 0
0 0 0
0 0 0
0 0 0
0 0 0
0 0 0
0 0 0
0 0 0
0 0 0
0 0 0
0 0 0
0 0 0
0 0 0
0 0 0
0 0 0
0 0 0
0 0 0
0 0 0
0 0 0
0 0 0
0 0 0
0 0 0
0 0 0
0 0 0
0 0 0
0 0 0
0 0 0
0 0 0
0 0 0
0 0 0
0 0 0
0 0 0
0 0 0
0 0 0
0 0 0
0 0 0
0 0 0
0 0 0
0 0 0
0 0 0
0 0 0
0 0 0
0 0 0
0 0 0
0 0 0
0 0 0
0 0 0
0 0 0
0 0 0
0 0 0
0 0 0
0 0 0
231 209 188
232 210 188
233 210 188
234 211 188
235 211 188
236 212 188
237 212 188
238 213 188
239 213 188
240 214 188
241 214 188
242 215 188
243 215 188
244 216 188
245 216 188
246 217 188
247 217 188
248 218 188
249 218 188
250 219 188
251 219 188
252 220 188
253 220 188
254 221 188
0 94 189
1 95 189
2 95 189
3 96 189
4 96 189
5 97 189
6 97 189
7 98 189
8 98 189
9 99 189
10 99 189
11 100 189
12 100 189
13 101 189
14 101 189
15 102 189
16 102 189
17 103 189
18 103 189
19 104 189
20 104 189
21 105 189
22 105 189
23 106 189
24 106 189
0 0 0
0 0 0
0 0 0
0 0 0
0 0 0
0 0 0
0 0 0
0 0 0
0 0 0
0 0 0
0 0 0
0 0 0
0 0 0
0 0 0
0 0 0
0 0 0
0 0 0
0 0 0
0 0 0
0 0 0
0 0 0
0 0 0
0 0 0
0 0 0
0 0 0
0 0 0
0 0 0
0 0 0
0 0 0
0 0 0
0 0 0
0 0 0
0 0 0
0 0 0
0 0 0
0 0 0
0 0 0
0 0 0
0 0 0
0 0 0
0 0 0
0 0 0
0 0 0
0 0 0
0 0 0
0 0 0
0 0 0
0 0 0
0 0 0
0 0 0
0 0 0
0 0 0
0 0 0
0 0 0
0 0 0
0 0 0
0 0 0
0 0 0
0 0 0
0 0 0
0 0 0
0 0 0
0 0 0
0 0 0
0 0 0
0 0 0
0 0 0
0 0 0
0 0 0
0 0 0
0 0 0
0 0 0
0 0 0
0 0 0
0 0 0
0 0 0
0 0 0
0 0 0
0 0 0
0 0 0
0 0 0
0 0 0
0 0 0
0 0 0
0 0 0
0 0 0
0 0 0
0 0 0
0 0 0
0 0 0
0 0 0
0 0 0
0 0 0
0 0 0
0 0 0
0 0 0
0 0 0
0 0 0
0 0 0
0 0 0
0 0 0
0 0 0
0 0 0
0 0 0
0 0 0
0 0 0
0 0 0
0 0 0
0 0 0
0 0 0
0 0 0
0 0 0
0 0 0
0 0 0
0 0 0
0 0 0
0 0 0
0 0 0
0 0 0
0 0 0
0 0 0
0 0 0
0 0 0
0 0 0
0 0 0
0 0 0
0 0 0
0 0 0
0 0 0
0 0 0
0 0 0
0 0 0
0 0 0
0 0 0
0 0 0
0 0 0
0 0 0
0 0 0
0 0 0
0 0 0
0 0 0
0 0 0
0 0 0
0 0 0
0 0 0
0 0 0
0 0 0
0 0 0
0 0 0
0 0 0
0 0 0
0 0 0
0 0 0
0 0 0
0 0 0
0 0 0
0 0 0
0 0 0
0 0 0
0 0 0
0 0 0
0 0 0
0 0 0
0 0 0
0 0 0
0 0 0
0 0 0
0 0 0
0 0 0
0 0 0
0 0 0
0 0 0
0 0 0
0 0 0
0 0 0
0 0 0
0 0 0
0 0 0
0 0 0
0 0 0
0 0 0
0 0 0
0 0 0
0 0 0
0 0 0
0 0 0
0 0 0
0 0 0
0 0 0
0 0 0
0 0 0
0 0 0
0 0 0
0 0 0
0 0 0
0 0 0
0 0 0
0 0 0
0 0 0
0 0 0
0 0 0
0 0 0
0 0 0
0 0 0
0 0 0
230 209 189
231 210 189
232 210 189
233 211 189
234 211 189
235 212 189
236 212 189
237 213 189
238 213 189
239 214 189
240 214 189
241 215 189
242 215 189
243 216 189
244 216 189
245 217 189
246 217 189
247 218 189
248 218 189
249 219 189
250 219 189
251 220 189
252 220 189
253 221 189
254 221 189
0 95 190
1 95 190
2 96 190
3 96 190
4 97 190
5 97 190
6 98 190
7 98 190
8 99 190
9 99 190
10 100 190
11 100 190
12 101 190
13 101 190
14 102 190
15 102 190
16 103 190
17 103 190
18 104 190
19 104 190
20 105 190
21 105 190
22 106 190
23 106 190
24 107 190
0 0 0
0 0 0
0 0 0
0 0 0
0 0 0
0 0 0
0 0 0
0 0 0
0 0 0
0 0 0
0 0 0
0 0 0
0 0 0
0 0 0
0 0 0
0 0 0
0 0 0
0 0 0
0 0 0
0 0 0
0 0 0
0 0 0
0 0 0
0 0 0
0 0 0
0 0 0
0 0 0
0 0 0
0 0 0
0 0 0
0 0 0
0 0 0
0 0 0
0 0 0
0 0 0
0 0 0
0 0 0
0 0 0
0 0 0
0 0 0
0 0 0
0 0 0
0 0 0
0 0 0
0 0 0
0 0 0
0 0 0
0 0 0
0 0 0
0 0 0
0 0 0
0 0 0
0 0 0
0 0 0
0 0 0
0 0 0
0 0 0
0 0 0
0 0 0
0 0 0
0 0 0
0 0 0
0 0 0
0 0 0
0 0 0
0 0 0
0 0 0
0 0 0
0 0 0
0 0 0
0 0 0
0 0 0
0 0 0
0 0 0
0 0 0
0 0 0
0 0 0
0 0 0
0 0 0
0 0 0
0 0 0
0 0 0
0 0 0
0 0 0
0 0 0
0 0 0
0 0 0
0 0 0
0 0 0
0 0 0
0 0 0
0 0 0
0 0 0
0 0 0
0 0 0
0 0 0
0 0 0
0 0 0
0 0 0
0 0 0
0 0 0
0 0 0
0 0 0
0 0 0
0 0 0
0 0 0
0 0 0
0 0 0
0 0 0
0 0 0
0 0 0
0 0 0
0 0 0
0 0 0
0 0 0
0 0 0
0 0 0
0 0 0
0 0 0
0 0 0
0 0 0
0 0 0
0 0 0
0 0 0
0 0 0
0 0 0
0 0 0
0 0 0
0 0 0
0 0 0
0 0 0
0 0 0
0 0 0
0 0 0
0 0 0
0 0 0
0 0 0
0 0 0
0 0 0
0 0 0
0 0 0
0 0 0
0 0 0
0 0 0
0 0 0
0 0 0
0 0 0
0 0 0
0 0 0
0 0 0
0 0 0
0 0 0
0 0 0
0 0 0
0 0 0
0 0 0
0 0 0
0 0 0
0 0 0
0 0 0
0 0 0
0 0 0
0 0 0
0 0 0
0 0 0
0 0 0
0 0 0
0 0 0
0 0 0
0 0 0
0 0 0
0 0 0
0 0 0
0 0 0
0 0 0
0 0 0
0 0 0
0 0 0
0 0 0
0 0 0
0 0 0
0 0 0
0 0 0
0 0 0
0 0 0
0 0 0
0 0 0
0 0 0
0 0 0
0 0 0
0 0 0
0 0 0
0 0 0
0 0 0
0 0 0
0 0 0
0 0 0
0 0 0
0 0 0
0 0 0
0 0 0
0 0 0
0 0 0
0 0 0
0 0 0
230 210 190
231 210 190
232 211 190
233 211 190
234 212 190
235 212 190
236 213 190
237 213 190
238 214 190
239 214 190
240 215 190
241 215 190
242 216 190
243 216 190
244 217 190
245 217 190
246 218 190
247 218 190
248 219 190
249 219 190
250 220 190
251 220 190
252 221 190
253 221 190
254 222 190
0 95 191
1 96 191
2 96 191
3 97 191
4 97 191
5 98 191
6 98 191
7 99 191
8 99 191
9 100 191
10 100 191
11 101 191
12 101 191
13 102 191
14 102 191
15 103 191
16 103 191
17 104 191
18 104 191
19 105 191
20 105 191
21 106 191
22 106 191
23 107 191
24 107 191
25 108 191
0 0 0
0 0 0
0 0 0
0 0 0
0 0 0
0 0 0
0 0 0
0 0 0
0 0 0
0 0 0
0 0 0
0 0 0
0 0 0
0 0 0
0 0 0
0 0 0
0 0 0
0 0 0
0 0 0
0 0 0
0 0 0
0 0 0
0 0 0
0 0 0
0 0 0
0 0 0
0 0 0
0 0 0
0 0 0
0 0 0
0 0 0
0 0 0
0 0 0
0 0 0
0 0 0
0 0 0
0 0 0
0 0 0
0 0 0
0 0 0
0 0 0
0 0 0
0 0 0
0 0 0
0 0 0
0 0 0
0 0 0
0 0 0
0 0 0
0 0 0
0 0 0
0 0 0
0 0 0
0 0 0
0 0 0
0 0 0
0 0 0
0 0 0
0 0 0
0 0 0
0 0 0
0 0 0
0 0 0
0 0 0
0 0 0
0 0 0
0 0 0
0 0 0
0 0 0
0 0 0
0 0 0
0 0 0
0 0 0
0 0 0
0 0 0
0 0 0
0 0 0
0 0 0
0 0 0
0 0 0
0 0 0
0 0 0
0 0 0
0 0 0
0 0 0
0 0 0
0 0 0
0 0 0
0 0 0
0 0 0
0 0 0
0 0 0
0 0 0
0 0 0
0 0 0
0 0 0
0 0 0
0 0 0
0 0 0
0 0 0
0 0 0
0 0 0
0 0 0
0 0 0
0 0 0
0 0 0
0 0 0
0 0 0
0 0 0
0 0 0
0 0 0
0 0 0
0 0 0
0 0 0
0 0 0
0 0 0
0 0 0
0 0 0
0 0 0
0 0 0
0 0 0
0 0 0
0 0 0
0 0 0
0 0 0
0 0 0
0 0 0
0 0 0
0 0 0
0 0 0
0 0 0
0 0 0
0 0 0
0 0 0
0 0 0
0 0 0
0 0 0
0 0 0
0 0 0
0 0 0
0 0 0
0 0 0
0 0 0
0 0 0
0 0 0
0 0 0
0 0 0
0 0 0
0 0 0
0 0 0
0 0 0
0 0 0
0 0 0
0 0 0
0 0 0
0 0 0
0 0 0
0 0 0
0 0 0
0 0 0
0 0 0
0 0 0
0 0 0
0 0 0
0 0 0
0 0 0
0 0 0
0 0 0
0 0 0
0 0 0
0 0 0
0 0 0
0 0 0
0 0 0
0 0 0
0 0 0
0 0 0
0 0 0
0 0 0
0 0 0
0 0 0
0 0 0
0 0 0
0 0 0
0 0 0
0 0 0
0 0 0
0 0 0
0 0 0
0 0 0
0 0 0
0 0 0
0 0 0
0 0 0
0 0 0
0 0 0
0 0 0
0 0 0
0 0 0
0 0 0
0 0 0
0 0 0
0 0 0
229 210 191
230 210 191
231 211 191
232 211 191
233 212 191
234 212 191
235 213 191
236 213 191
237 214 191
238 214 191
239 215 191
240 215 191
241 216 191
242 216 191
243 217 191
244 217 191
245 218 191
246 218 191
247 219 191
248 219 191
249 220 191
250 220 191
251 221 191
252 221 191
253 222 191
254 222 191
0 96 192
1 96 192
2 97 192
3 97 192
4 98 192
5 98 192
6 99 192
7 99 192
8 100 192
9 100 192
10 101 192
11 101 192
12 102 192
13 102 192
14 103 192
15 103 192
16 104 192
17 104 192
18 105 192
19 105 192
20 106 192
21 106 192
22 107 192
23 107 192
24 108 192
25 108 192
26 109 192
0 0 0
0 0 0
0 0 0
0 0 0
0 0 0
0 0 0
0 0 0
0 0 0
0 0 0
0 0 0
0 0 0
0 0 0
0 0 0
0 0 0
0 0 0
0 0 0
0 0 0
0 0 0
0 0 0
0 0 0
0 0 0
0 0 0
0 0 0
0 0 0
0 0 0
0 0 0
0 0 0
0 0 0
0 0 0
0 0 0
0 0 0
0 0 0
0 0 0
0 0 0
0 0 0
0 0 0
0 0 0
0 0 0
0 0 0
0 0 0
0 0 0
0 0 0
0 0 0
0 0 0
0 0 0
0 0 0
0 0 0
0 0 0
0 0 0
0 0 0
0 0 0
0 0 0
0 0 0
0 0 0
0 0 0
0 0 0
0 0 0
0 0 0
0 0 0
0 0 0
0 0 0
0 0 0
0 0 0
0 0 0
0 0 0
0 0 0
0 0 0
0 0 0
0 0 0
0 0 0
0 0 0
0 0 0
0 0 0
0 0 0
0 0 0
0 0 0
0 0 0
0 0 0
0 0 0
0 0 0
0 0 0
0 0 0
0 0 0
0 0 0
0 0 0
0 0 0
0 0 0
0 0 0
0 0 0
0 0 0
0 0 0
0 0 0
0 0 0
0 0 0
0 0 0
0 0 0
0 0 0
0 0 0
0 0 0
0 0 0
0 0 0
0 0 0
0 0 0
0 0 0
0 0 0
0 0 0
0 0 0
0 0 0
0 0 0
0 0 0
0 0 0
0 0 0
0 0 0
0 0 0
0 0 0
0 0 0
0 0 0
0 0 0
0 0 0
0 0 0
0 0 0
0 0 0
0 0 0
0 0 0
0 0 0
0 0 0
0 0 0
0 0 0
0 0 0
0 0 0
0 0 0
0 0 0
0 0 0
0 0 0
0 0 0
0 0 0
0 0 0
0 0 0
0 0 0
0 0 0
0 0 0
0 0 0
0 0 0
0 0 0
0 0 0
0 0 0
0 0 0
0 0 0
0 0 0
0 0 0
0 0 0
0 0 0
0 0 0
0 0 0
0 0 0
0 0 0
0 0 0
0 0 0
0 0 0
0 0 0
0 0 0
0 0 0
0 0 0
0 0 0
0 0 0
0 0 0
0 0 0
0 0 0
0 0 0
0 0 0
0 0 0
0 0 0
0 0 0
0 0 0
0 0 0
0 0 0
0 0 0
0 0 0
0 0 0
0 0 0
0 0 0
0 0 0
0 0 0
0 0 0
0 0 0
0 0 0
0 0 0
0 0 0
0 0 0
0 0 0
0 0 0
0 0 0
0 0 0
0 0 0
0 0 0
0 0 0
0 0 0
0 0 0
0 0 0
0 0 0
0 0 0
228 210 192
229 210 192
230 211 192
231 211 192
232 212 192
233 212 192
234 213 192
235 213 192
236 214 192
237 214 192
238 215 192
239 215 192
240 216 192
241 216 192
242 217 192
243 217 192
244 218 192
245 218 192
246 219 192
247 219 192
248 220 192
249 220 192
250 221 192
251 221 192
252 222 192
253 222 192
254 223 192
0 96 193
1 97 193
2 97 193
3 98 193
4 98 193
5 99 193
6 99 193
7 100 193
8 100 193
9 101 193
10 101 193
11 102 193
12 102 193
13 103 193
14 103 193
15 104 193
16 104 193
17 105 193
18 105 193
19 106 193
20 106 193
21 107 193
22 107 193
23 108 193
24 108 193
25 109 193
26 109 193
0 0 0
0 0 0
0 0 0
0 0 0
0 0 0
0 0 0
0 0 0
0 0 0
0 0 0
0 0 0
0 0 0
0 0 0
0 0 0
0 0 0
0 0 0
0 0 0
0 0 0
0 0 0
0 0 0
0 0 0
0 0 0
0 0 0
0 0 0
0 0 0
0 0 0
0 0 0
0 0 0
0 0 0
0 0 0
0 0 0
0 0 0
0 0 0
0 0 0
0 0 0
0 0 0
0 0 0
0 0 0
0 0 0
0 0 0
0 0 0
0 0 0
0 0 0
0 0 0
0 0 0
0 0 0
0 0 0
0 0 0
0 0 0
0 0 0
0 0 0
0 0 0
0 0 0
0 0 0
0 0 0
0 0 0
0 0 0
0 0 0
0 0 0
0 0 0
0 0 0
0 0 0
0 0 0
0 0 0
0 0 0
0 0 0
0 0 0
0 0 0
0 0 0
0 0 0
0 0 0
0 0 0
0 0 0
0 0 0
0 0 0
0 0 0
0 0 0
0 0 0
0 0 0
0 0 0
0 0 0
0 0 0
0 0 0
0 0 0
0 0 0
0 0 0
0 0 0
0 0 0
0 0 0
0 0 0
0 0 0
0 0 0
0 0 0
0 0 0
0 0 0
0 0 0
0 0 0
0 0 0
0 0 0
0 0 0
0 0 0
0 0 0
0 0 0
0 0 0
0 0 0
0 0 0
0 0 0
0 0 0
0 0 0
0 0 0
0 0 0
0 0 0
0 0 0
0 0 0
0 0 0
0 0 0
0 0 0
0 0 0
0 0 0
0 0 0
0 0 0
0 0 0
0 0 0
0 0 0
0 0 0
0 0 0
0 0 0
0 0 0
0 0 0
0 0 0
0 0 0
0 0 0
0 0 0
0 0 0
0 0 0
0 0 0
0 0 0
0 0 0
0 0 0
0 0 0
0 0 0
0 0 0
0 0 0
0 0 0
0 0 0
0 0 0
0 0 0
0 0 0
0 0 0
0 0 0
0 0 0
0 0 0
0 0 0
0 0 0
0 0 0
0 0 0
0 0 0
0 0 0
0 0 0
0 0 0
0 0 0
0 0 0
0 0 0
0 0 0
0 0 0
0 0 0
0 0 0
0 0 0
0 0 0
0 0 0
0 0 0
0 0 0
0 0 0
0 0 0
0 0 0
0 0 0
0 0 0
0 0 0
0 0 0
0 0 0
0 0 0
0 0 0
0 0 0
0 0 0
0 0 0
0 0 0
0 0 0
0 0 0
0 0 0
0 0 0
0 0 0
0 0 0
0 0 0
0 0 0
0 0 0
0 0 0
0 0 0
0 0 0
0 0 0
0 0 0
0 0 0
0 0 0
228 210 193
229 211 193
230 211 193
231 212 193
232 212 193
233 213 193
234 213 193
235 214 193
236 214 193
237 215 193
238 215 193
239 216 193
240 216 193
241 217 193
242 217 193
243 218 193
244 218 193
245 219 193
246 219 193
247 220 193
248 220 193
249 221 193
250 221 193
251 222 193
252 222 193
253 223 193
254 223 193
0 97 194
1 97 194
2 98 194
3 98 194
4 99 194
5 99 194
6 100 194
7 100 194
8 101 194
9 101 194
10 102 194
11 102 194
12 103 194
13 103 194
14 104 194
15 104 194
16 105 194
17 105 194
18 106 194
19 106 194
20 107 194
21 107 194
22 108 194
23 108 194
24 109 194
25 109 194
26 110 194
27 110 194
0 0 0
0 0 0
0 0 0
0 0 0
0 0 0
0 0 0
0 0 0
0 0 0
0 0 0
0 0 0
0 0 0
0 0 0
0 0 0
0 0 0
0 0 0
0 0 0
0 0 0
0 0 0
0 0 0
0 0 0
0 0 0
0 0 0
0 0 0
0 0 0
0 0 0
0 0 0
0 0 0
0 0 0
0 0 0
0 0 0
0 0 0
0 0 0
0 0 0
0 0 0
0 0 0
0 0 0
0 0 0
0 0 0
0 0 0
0 0 0
0 0 0
0 0 0
0 0 0
0 0 0
0 0 0
0 0 0
0 0 0
0 0 0
0 0 0
0 0 0
0 0 0
0 0 0
0 0 0
0 0 0
0 0 0
0 0 0
0 0 0
0 0 0
0 0 0
0 0 0
0 0 0
0 0 0
0 0 0
0 0 0
0 0 0
0 0 0
0 0 0
0 0 0
0 0 0
0 0 0
0 0 0
0 0 0
0 0 0
0 0 0
0 0 0
0 0 0
0 0 0
0 0 0
0 0 0
0 0 0
0 0 0
0 0 0
0 0 0
0 0 0
0 0 0
0 0 0
0 0 0
0 0 0
0 0 0
0 0 0
0 0 0
0 0 0
0 0 0
0 0 0
0 0 0
0 0 0
0 0 0
0 0 0
0 0 0
0 0 0
0 0 0
0 0 0
0 0 0
0 0 0
0 0 0
0 0 0
0 0 0
0 0 0
0 0 0
0 0 0
0 0 0
0 0 0
0 0 0
0 0 0
0 0 0
0 0 0
0 0 0
0 0 0
0 0 0
0 0 0
0 0 0
0 0 0
0 0 0
0 0 0
0 0 0
0 0 0
0 0 0
0 0 0
0 0 0
0 0 0
0 0 0
0 0 0
0 0 0
0 0 0
0 0 0
0 0 0
0 0 0
0 0 0
0 0 0
0 0 0
0 0 0
0 0 0
0 0 0
0 0 0
0 0 0
0 0 0
0 0 0
0 0 0
0 0 0
0 0 0
0 0 0
0 0 0
0 0 0
0 0 0
0 0 0
0 0 0
0 0 0
0 0 0
0 0 0
0 0 0
0 0 0
0 0 0
0 0 0
0 0 0
0 0 0
0 0 0
0 0 0
0 0 0
0 0 0
0 0 0
0 0 0
0 0 0
0 0 0
0 0 0
0 0 0
0 0 0
0 0 0
0 0 0
0 0 0
0 0 0
0 0 0
0 0 0
0 0 0
0 0 0
0 0 0
0 0 0
0 0 0
0 0 0
0 0 0
0 0 0
0 0 0
0 0 0
0 0 0
0 0 0
0 0 0
0 0 0
0 0 0
0 0 0
0 0 0
227 210 194
228 211 194
229 211 194
230 212 194
231 212 194
232 213 194
233 213 194
234 214 194
235 214 194
236 215 194
237 215 194
238 216 194
239 216 194
240 217 194
241 217 194
242 218 194
243 218 194
244 219 194
245 219 194
246 220 194
247 220 194
248 221 194
249 221 194
250 222 194
251 222 194
252 223 194
253 223 194
254 224 194
0 97 195
1 98 195
2 98 195
3 99 195
4 99 195
5 100 195
6 100 195
7 101 195
8 101 195
9 102 195
10 102 195
11 103 195
12 103 195
13 104 195
14 104 195
15 105 195
16 105 195
17 106 195
18 106 195
19 107 195
20 107 195
21 108 195
22 108 195
23 109 195
24 109 195
25 110 195
26 110 195
27 111 195
28 111 195
0 0 0
0 0 0
0 0 0
0 0 0
0 0 0
0 0 0
0 0 0
0 0 0
0 0 0
0 0 0
0 0 0
0 0 0
0 0 0
0 0 0
0 0 0
0 0 0
0 0 0
0 0 0
0 0 0
0 0 0
0 0 0
0 0 0
0 0 0
0 0 0
0 0 0
0 0 0
0 0 0
0 0 0
0 0 0
0 0 0
0 0 0
0 0 0
0 0 0
0 0 0
0 0 0
0 0 0
0 0 0
0 0 0
0 0 0
0 0 0
0 0 0
0 0 0
0 0 0
0 0 0
0 0 0
0 0 0
0 0 0
0 0 0
0 0 0
0 0 0
0 0 0
0 0 0
0 0 0
0 0 0
0 0 0
0 0 0
0 0 0
0 0 0
0 0 0
0 0 0
0 0 0
0 0 0
0 0 0
0 0 0
0 0 0
0 0 0
0 0 0
0 0 0
0 0 0
0 0 0
0 0 0
0 0 0
0 0 0
0 0 0
0 0 0
0 0 0
0 0 0
0 0 0
0 0 0
0 0 0
0 0 0
0 0 0
0 0 0
0 0 0
0 0 0
0 0 0
0 0 0
0 0 0
0 0 0
0 0 0
0 0 0
0 0 0
0 0 0
0 0 0
0 0 0
0 0 0
0 0 0
0 0 0
0 0 0
0 0 0
0 0 0
0 0 0
0 0 0
0 0 0
0 0 0
0 0 0
0 0 0
0 0 0
0 0 0
0 0 0
0 0 0
0 0 0
0 0 0
0 0 0
0 0 0
0 0 0
0 0 0
0 0 0
0 0 0
0 0 0
0 0 0
0 0 0
0 0 0
0 0 0
0 0 0
0 0 0
0 0 0
0 0 0
0 0 0
0 0 0
0 0 0
0 0 0
0 0 0
0 0 0
0 0 0
0 0 0
0 0 0
0 0 0
0 0 0
0 0 0
0 0 0
0 0 0
0 0 0
0 0 0
0 0 0
0 0 0
0 0 0
0 0 0
0 0 0
0 0 0
0 0 0
0 0 0
0 0 0
0 0 0
0 0 0
0 0 0
0 0 0
0 0 0
0 0 0
0 0 0
0 0 0
0 0 0
0 0 0
0 0 0
0 0 0
0 0 0
0 0 0
0 0 0
0 0 0
0 0 0
0 0 0
0 0 0
0 0 0
0 0 0
0 0 0
0 0 0
0 0 0
0 0 0
0 0 0
0 0 0
0 0 0
0 0 0
0 0 0
0 0 0
0 0 0
0 0 0
0 0 0
0 0 0
0 0 0
0 0 0
0 0 0
0 0 0
0 0 0
0 0 0
0 0 0
0 0 0
0 0 0
226 210 195
227 211 195
228 211 195
229 212 195
230 212 195
231 213 195
232 213 195
233 214 195
234 214 195
235 215 195
236 215 195
237 216 195
238 216 195
239 217 195
240 217 195
241 218 195
242 218 195
243 219 195
244 219 195
245 220 195
246 220 195
247 221 195
248 221 195
249 222 195
250 222 195
251 223 195
252 223 195
253 224 195
254 224 195
0 98 196
1 98 196
2 99 196
3 99 196
4 100 196
5 100 196
6 101 196
7 101 196
8 102 196
9 102 196
10 103 196
11 103 196
12 104 196
13 104 196
14 105 196
15 105 196
16 106 196
17 106 196
18 107 196
19 107 196
20 108 196
21 108 196
22 109 196
23 109 196
24 110 196
25 110 196
26 111 196
27 111 196
28 112 196
0 0 0
0 0 0
0 0 0
0 0 0
0 0 0
0 0 0
0 0 0
0 0 0
0 0 0
0 0 0
0 0 0
0 0 0
0 0 0
0 0 0
0 0 0
0 0 0
0 0 0
0 0 0
0 0 0
0 0 0
0 0 0
0 0 0
0 0 0
0 0 0
0 0 0
0 0 0
0 0 0
0 0 0
0 0 0
0 0 0
0 0 0
0 0 0
0 0 0
0 0 0
0 0 0
0 0 0
0 0 0
0 0 0
0 0 0
0 0 0
0 0 0
0 0 0
0 0 0
0 0 0
0 0 0
0 0 0
0 0 0
0 0 0
0 0 0
0 0 0
0 0 0
0 0 0
0 0 0
0 0 0
0 0 0
0 0 0
0 0 0
0 0 0
0 0 0
0 0 0
0 0 0
0 0 0
0 0 0
0 0 0
0 0 0
0 0 0
0 0 0
0 0 0
0 0 0
0 0 0
0 0 0
0 0 0
0 0 0
0 0 0
0 0 0
0 0 0
0 0 0
0 0 0
0 0 0
0 0 0
0 0 0
0 0 0
0 0 0
0 0 0
0 0 0
0 0 0
0 0 0
0 0 0
0 0 0
0 0 0
0 0 0
0 0 0
0 0 0
0 0 0
0 0 0
0 0 0
0 0 0
0 0 0
0 0 0
0 0 0
0 0 0
0 0 0
0 0 0
0 0 0
0 0 0
0 0 0
0 0 0
0 0 0
0 0 0
0 0 0
0 0 0
0 0 0
0 0 0
0 0 0
0 0 0
0 0 0
0 0 0
0 0 0
0 0 0
0 0 0
0 0 0
0 0 0
0 0 0
0 0 0
0 0 0
0 0 0
0 0 0
0 0 0
0 0 0
0 0 0
0 0 0
0 0 0
0 0 0
0 0 0
0 0 0
0 0 0
0 0 0
0 0 0
0 0 0
0 0 0
0 0 0
0 0 0
0 0 0
0 0 0
0 0 0
0 0 0
0 0 0
0 0 0
0 0 0
0 0 0
0 0 0
0 0 0
0 0 0
0 0 0
0 0 0
0 0 0
0 0 0
0 0 0
0 0 0
0 0 0
0 0 0
0 0 0
0 0 0
0 0 0
0 0 0
0 0 0
0 0 0
0 0 0
0 0 0
0 0 0
0 0 0
0 0 0
0 0 0
0 0 0
0 0 0
0 0 0
0 0 0
0 0 0
0 0 0
0 0 0
0 0 0
0 0 0
0 0 0
0 0 0
0 0 0
0 0 0
0 0 0
0 0 0
0 0 0
0 0 0
0 0 0
0 0 0
0 0 0
0 0 0
0 0 0
0 0 0
0 0 0
226 211 196
227 211 196
228 212 196
229 212 196
230 213 196
231 213 196
232 214 196
233 214 196
234 215 196
235 215 196
236 216 196
237 216 196
238 217 196
239 217 196
240 218 196
241 218 196
242 219 196
243 219 196
244 220 196
245 220 196
246 221 196
247 221 196
248 222 196
249 222 196
250 223 196
251 223 196
252 224 196
253 224 196
254 225 196
0 98 197
1 99 197
2 99 197
3 100 197
4 100 197
5 101 197
6 101 197
7 102 197
8 102 197
9 103 197
10 103 197
11 104 197
12 104 197
13 105 197
14 105 197
15 106 197
16 106 197
17 107 197
18 107 197
19 108 197
20 108 197
21 109 197
22 109 197
23 110 197
24 110 197
25 111 197
26 111 197
27 112 197
28 112 197
29 113 197
0 0 0
0 0 0
0 0 0
0 0 0
0 0 0
0 0 0
0 0 0
0 0 0
0 0 0
0 0 0
0 0 0
0 0 0
0 0 0
0 0 0
0 0 0
0 0 0
0 0 0
0 0 0
0 0 0
0 0 0
0 0 0
0 0 0
0 0 0
0 0 0
0 0 0
0 0 0
0 0 0
0 0 0
0 0 0
0 0 0
0 0 0
0 0 0
0 0 0
0 0 0
0 0 0
0 0 0
0 0 0
0 0 0
0 0 0
0 0 0
0 0 0
0 0 0
0 0 0
0 0 0
0 0 0
0 0 0
0 0 0
0 0 0
0 0 0
0 0 0
0 0 0
0 0 0
0 0 0
0 0 0
0 0 0
0 0 0
0 0 0
0 0 0
0 0 0
0 0 0
0 0 0
0 0 0
0 0 0
0 0 0
0 0 0
0 0 0
0 0 0
0 0 0
0 0 0
0 0 0
0 0 0
0 0 0
0 0 0
0 0 0
0 0 0
0 0 0
0 0 0
0 0 0
0 0 0
0 0 0
0 0 0
0 0 0
0 0 0
0 0 0
0 0 0
0 0 0
0 0 0
0 0 0
0 0 0
0 0 0
0 0 0
0 0 0
0 0 0
0 0 0
0 0 0
0 0 0
0 0 0
0 0 0
0 0 0
0 0 0
0 0 0
0 0 0
0 0 0
0 0 0
0 0 0
0 0 0
0 0 0
0 0 0
0 0 0
0 0 0
0 0 0
0 0 0
0 0 0
0 0 0
0 0 0
0 0 0
0 0 0
0 0 0
0 0 0
0 0 0
0 0 0
0 0 0
0 0 0
0 0 0
0 0 0
0 0 0
0 0 0
0 0 0
0 0 0
0 0 0
0 0 0
0 0 0
0 0 0
0 0 0
0 0 0
0 0 0
0 0 0
0 0 0
0 0 0
0 0 0
0 0 0
0 0 0
0 0 0
0 0 0
0 0 0
0 0 0
0 0 0
0 0 0
0 0 0
0 0 0
0 0 0
0 0 0
0 0 0
0 0 0
0 0 0
0 0 0
0 0 0
0 0 0
0 0 0
0 0 0
0 0 0
0 0 0
0 0 0
0 0 0
0 0 0
0 0 0
0 0 0
0 0 0
0 0 0
0 0 0
0 0 0
0 0 0
0 0 0
0 0 0
0 0 0
0 0 0
0 0 0
0 0 0
0 0 0
0 0 0
0 0 0
0 0 0
0 0 0
0 0 0
0 0 0
0 0 0
0 0 0
0 0 0
0 0 0
0 0 0
0 0 0
0 0 0
0 0 0
0 0 0
0 0 0
225 211 197
226 211 197
227 212 197
228 212 197
229 213 197
230 213 197
231 214 197
232 214 197
233 215 197
234 215 197
235 216 197
236 216 197
237 217 197
238 217 197
239 218 197
240 218 197
241 219 197
242 219 197
243 220 197
244 220 197
245 221 197
246 221 197
247 222 197
248 222 197
249 223 197
250 223 197
251 224 197
252 224 197
253 225 197
254 225 197
0 99 198
1 99 198
2 100 198
3 100 198
4 101 198
5 101 198
6 102 198
7 102 198
8 103 198
9 103 198
10 104 198
11 104 198
12 105 198
13 105 198
14 106 198
15 106 198
16 107 198
17 107 198
18 108 198
19 108 198
20 109 198
21 109 198
22 110 198
23 110 198
24 111 198
25 111 198
26 112 198
27 112 198
28 113 198
29 113 198
30 114 198
0 0 0
0 0 0
0 0 0
0 0 0
0 0 0
0 0 0
0 0 0
0 0 0
0 0 0
0 0 0
0 0 0
0 0 0
0 0 0
0 0 0
0 0 0
0 0 0
0 0 0
0 0 0
0 0 0
0 0 0
0 0 0
0 0 0
0 0 0
0 0 0
0 0 0
0 0 0
0 0 0
0 0 0
0 0 0
0 0 0
0 0 0
0 0 0
0 0 0
0 0 0
0 0 0
0 0 0
0 0 0
0 0 0
0 0 0
0 0 0
0 0 0
0 0 0
0 0 0
0 0 0
0 0 0
0 0 0
0 0 0
0 0 0
0 0 0
0 0 0
0 0 0
0 0 0
0 0 0
0 0 0
0 0 0
0 0 0
0 0 0
0 0 0
0 0 0
0 0 0
0 0 0
0 0 0
0 0 0
0 0 0
0 0 0
0 0 0
0 0 0
0 0 0
0 0 0
0 0 0
0 0 0
0 0 0
0 0 0
0 0 0
0 0 0
0 0 0
0 0 0
0 0 0
0 0 0
0 0 0
0 0 0
0 0 0
0 0 0
0 0 0
0 0 0
0 0 0
0 0 0
0 0 0
0 0 0
0 0 0
0 0 0
0 0 0
0 0 0
0 0 0
0 0 0
0 0 0
0 0 0
0 0 0
0 0 0
0 0 0
0 0 0
0 0 0
0 0 0
0 0 0
0 0 0
0 0 0
0 0 0
0 0 0
0 0 0
0 0 0
0 0 0
0 0 0
0 0 0
0 0 0
0 0 0
0 0 0
0 0 0
0 0 0
0 0 0
0 0 0
0 0 0
0 0 0
0 0 0
0 0 0
0 0 0
0 0 0
0 0 0
0 0 0
0 0 0
0 0 0
0 0 0
0 0 0
0 0 0
0 0 0
0 0 0
0 0 0
0 0 0
0 0 0
0 0 0
0 0 0
0 0 0
0 0 0
0 0 0
0 0 0
0 0 0
0 0 0
0 0 0
0 0 0
0 0 0
0 0 0
0 0 0
0 0 0
0 0 0
0 0 0
0 0 0
0 0 0
0 0 0
0 0 0
0 0 0
0 0 0
0 0 0
0 0 0
0 0 0
0 0 0
0 0 0
0 0 0
0 0 0
0 0 0
0 0 0
0 0 0
0 0 0
0 0 0
0 0 0
0 0 0
0 0 0
0 0 0
0 0 0
0 0 0
0 0 0
0 0 0
0 0 0
0 0 0
0 0 0
0 0 0
0 0 0
0 0 0
0 0 0
0 0 0
0 0 0
0 0 0
0 0 0
0 0 0
0 0 0
224 211 198
225 211 198
226 212 198
227 212 198
228 213 198
229 213 198
230 214 198
231 214 198
232 215 198
233 215 198
234 216 198
235 216 198
236 217 198
237 217 198
238 218 198
239 218 198
240 219 198
241 219 198
242 220 198
243 220 198
244 221 198
245 221 198
246 222 198
247 222 198
248 223 198
249 223 198
250 224 198
251 224 198
252 225 198
253 225 198
254 226 198
0 99 199
1 100 199
2 100 199
3 101 199
4 101 199
5 102 199
6 102 199
7 103 199
8 103 199
9 104 199
10 104 199
11 105 199
12 105 199
13 106 199
14 106 199
15 107 199
16 107 199
17 108 199
18 108 199
19 109 199
20 109 199
21 110 199
22 110 199
23 111 199
24 111 199
25 112 199
26 112 199
27 113 199
28 113 199
29 114 199
30 114 199
31 115 199
0 0 0
0 0 0
0 0 0
0 0 0
0 0 0
0 0 0
0 0 0
0 0 0
0 0 0
0 0 0
0 0 0
0 0 0
0 0 0
0 0 0
0 0 0
0 0 0
0 0 0
0 0 0
0 0 0
0 0 0
0 0 0
0 0 0
0 0 0
0 0 0
0 0 0
0 0 0
0 0 0
0 0 0
0 0 0
0 0 0
0 0 0
0 0 0
0 0 0
0 0 0
0 0 0
0 0 0
0 0 0
0 0 0
0 0 0
0 0 0
0 0 0
0 0 0
0 0 0
0 0 0
0 0 0
0 0 0
0 0 0
0 0 0
0 0 0
0 0 0
0 0 0
0 0 0
0 0 0
0 0 0
0 0 0
0 0 0
0 0 0
0 0 0
0 0 0
0 0 0
0 0 0
0 0 0
0 0 0
0 0 0
0 0 0
0 0 0
0 0 0
0 0 0
0 0 0
0 0 0
0 0 0
0 0 0
0 0 0
0 0 0
0 0 0
0 0 0
0 0 0
0 0 0
0 0 0
0 0 0
0 0 0
0 0 0
0 0 0
0 0 0
0 0 0
0 0 0
0 0 0
0 0 0
0 0 0
0 0 0
0 0 0
0 0 0
0 0 0
0 0 0
0 0 0
0 0 0
0 0 0
0 0 0
0 0 0
0 0 0
0 0 0
0 0 0
0 0 0
0 0 0
0 0 0
0 0 0
0 0 0
0 0 0
0 0 0
0 0 0
0 0 0
0 0 0
0 0 0
0 0 0
0 0 0
0 0 0
0 0 0
0 0 0
0 0 0
0 0 0
0 0 0
0 0 0
0 0 0
0 0 0
0 0 0
0 0 0
0 0 0
0 0 0
0 0 0
0 0 0
0 0 0
0 0 0
0 0 0
0 0 0
0 0 0
0 0 0
0 0 0
0 0 0
0 0 0
0 0 0
0 0 0
0 0 0
0 0 0
0 0 0
0 0 0
0 0 0
0 0 0
0 0 0
0 0 0
0 0 0
0 0 0
0 0 0
0 0 0
0 0 0
0 0 0
0 0 0
0 0 0
0 0 0
0 0 0
0 0 0
0 0 0
0 0 0
0 0 0
0 0 0
0 0 0
0 0 0
0 0 0
0 0 0
0 0 0
0 0 0
0 0 0
0 0 0
0 0 0
0 0 0
0 0 0
0 0 0
0 0 0
0 0 0
0 0 0
0 0 0
0 0 0
0 0 0
0 0 0
0 0 0
0 0 0
0 0 0
0 0 0
0 0 0
0 0 0
0 0 0
0 0 0
223 211 199
224 211 199
225 212 199
226 212 199
227 213 199
228 213 199
229 214 199
230 214 199
231 215 199
232 215 199
233 216 199
234 216 199
235 217 199
236 217 199
237 218 199
238 218 199
239 219 199
240 219 199
241 220 199
242 220 199
243 221 199
244 221 199
245 222 199
246 222 199
247 223 199
248 223 199
249 224 199
250 224 199
251 225 199
252 225 199
253 226 199
254 226 199
0 100 200
1 100 200
2 101 200
3 101 200
4 102 200
5 102 200
6 103 200
7 103 200
8 104 200
9 104 200
10 105 200
11 105 200
12 106 200
13 106 200
14 107 200
15 107 200
16 108 200
17 108 200
18 109 200
19 109 200
20 110 200
21 110 200
22 111 200
23 111 200
24 112 200
25 112 200
26 113 200
27 113 200
28 114 200
29 114 200
30 115 200
31 115 200
0 0 0
0 0 0
0 0 0
0 0 0
0 0 0
0 0 0
0 0 0
0 0 0
0 0 0
0 0 0
0 0 0
0 0 0
0 0 0
0 0 0
0 0 0
0 0 0
0 0 0
0 0 0
0 0 0
0 0 0
0 0 0
0 0 0
0 0 0
0 0 0
0 0 0
0 0 0
0 0 0
0 0 0
0 0 0
0 0 0
0 0 0
0 0 0
0 0 0
0 0 0
0 0 0
0 0 0
0 0 0
0 0 0
0 0 0
0 0 0
0 0 0
0 0 0
0 0 0
0 0 0
0 0 0
0 0 0
0 0 0
0 0 0
0 0 0
0 0 0
0 0 0
0 0 0
0 0 0
0 0 0
0 0 0
0 0 0
0 0 0
0 0 0
0 0 0
0 0 0
0 0 0
0 0 0
0 0 0
0 0 0
0 0 0
0 0 0
0 0 0
0 0 0
0 0 0
0 0 0
0 0 0
0 0 0
0 0 0
0 0 0
0 0 0
0 0 0
0 0 0
0 0 0
0 0 0
0 0 0
0 0 0
0 0 0
0 0 0
0 0 0
0 0 0
0 0 0
0 0 0
0 0 0
0 0 0
0 0 0
0 0 0
0 0 0
0 0 0
0 0 0
0 0 0
0 0 0
0 0 0
0 0 0
0 0 0
0 0 0
0 0 0
0 0 0
0 0 0
0 0 0
0 0 0
0 0 0
0 0 0
0 0 0
0 0 0
0 0 0
0 0 0
0 0 0
0 0 0
0 0 0
0 0 0
0 0 0
0 0 0
0 0 0
0 0 0
0 0 0
0 0 0
0 0 0
0 0 0
0 0 0
0 0 0
0 0 0
0 0 0
0 0 0
0 0 0
0 0 0
0 0 0
0 0 0
0 0 0
0 0 0
0 0 0
0 0 0
0 0 0
0 0 0
0 0 0
0 0 0
0 0 0
0 0 0
0 0 0
0 0 0
0 0 0
0 0 0
0 0 0
0 0 0
0 0 0
0 0 0
0 0 0
0 0 0
0 0 0
0 0 0
0 0 0
0 0 0
0 0 0
0 0 0
0 0 0
0 0 0
0 0 0
0 0 0
0 0 0
0 0 0
0 0 0
0 0 0
0 0 0
0 0 0
0 0 0
0 0 0
0 0 0
0 0 0
0 0 0
0 0 0
0 0 0
0 0 0
0 0 0
0 0 0
0 0 0
0 0 0
0 0 0
0 0 0
0 0 0
0 0 0
0 0 0
0 0 0
0 0 0
0 0 0
0 0 0
0 0 0
0 0 0
223 211 200
224 212 200
225 212 200
226 213 200
227 213 200
228 214 200
229 214 200
230 215 200
231 215 200
232 216 200
233 216 200
234 217 200
235 217 200
236 218 200
237 218 200
238 219 200
239 219 200
240 220 200
241 220 200
242 221 200
243 221 200
244 222 200
245 222 200
246 223 200
247 223 200
248 224 200
249 224 200
250 225 200
251 225 200
252 226 200
253 226 200
254 227 200
0 100 201
1 101 201
2 101 201
3 102 201
4 102 201
5 103 201
6 103 201
7 104 201
8 104 201
9 105 201
10 105 201
11 106 201
12 106 201
13 107 201
14 107 201
15 108 201
16 108 201
17 109 201
18 109 201
19 110 201
20 110 201
21 111 201
22 111 201
23 112 201
24 112 201
25 113 201
26 113 201
27 114 201
28 114 201
29 115 201
30 115 201
31 116 201
32 116 201
0 0 0
0 0 0
0 0 0
0 0 0
0 0 0
0 0 0
0 0 0
0 0 0
0 0 0
0 0 0
0 0 0
0 0 0
0 0 0
0 0 0
0 0 0
0 0 0
0 0 0
0 0 0
0 0 0
0 0 0
0 0 0
0 0 0
0 0 0
0 0 0
0 0 0
0 0 0
0 0 0
0 0 0
0 0 0
0 0 0
0 0 0
0 0 0
0 0 0
0 0 0
0 0 0
0 0 0
0 0 0
0 0 0
0 0 0
0 0 0
0 0 0
0 0 0
0 0 0
0 0 0
0 0 0
0 0 0
0 0 0
0 0 0
0 0 0
0 0 0
0 0 0
0 0 0
0 0 0
0 0 0
0 0 0
0 0 0
0 0 0
0 0 0
0 0 0
0 0 0
0 0 0
0 0 0
0 0 0
0 0 0
0 0 0
0 0 0
0 0 0
0 0 0
0 0 0
0 0 0
0 0 0
0 0 0
0 0 0
0 0 0
0 0 0
0 0 0
0 0 0
0 0 0
0 0 0
0 0 0
0 0 0
0 0 0
0 0 0
0 0 0
0 0 0
0 0 0
0 0 0
0 0 0
0 0 0
0 0 0
0 0 0
0 0 0
0 0 0
0 0 0
0 0 0
0 0 0
0 0 0
0 0 0
0 0 0
0 0 0
0 0 0
0 0 0
0 0 0
0 0 0
0 0 0
0 0 0
0 0 0
0 0 0
0 0 0
0 0 0
0 0 0
0 0 0
0 0 0
0 0 0
0 0 0
0 0 0
0 0 0
0 0 0
0 0 0
0 0 0
0 0 0
0 0 0
0 0 0
0 0 0
0 0 0
0 0 0
0 0 0
0 0 0
0 0 0
0 0 0
0 0 0
0 0 0
0 0 0
0 0 0
0 0 0
0 0 0
0 0 0
0 0 0
0 0 0
0 0 0
0 0 0
0 0 0
0 0 0
0 0 0
0 0 0
0 0 0
0 0 0
0 0 0
0 0 0
0 0 0
0 0 0
0 0 0
0 0 0
0 0 0
0 0 0
0 0 0
0 0 0
0 0 0
0 0 0
0 0 0
0 0 0
0 0 0
0 0 0
0 0 0
0 0 0
0 0 0
0 0 0
0 0 0
0 0 0
0 0 0
0 0 0
0 0 0
0 0 0
0 0 0
0 0 0
0 0 0
0 0 0
0 0 0
0 0 0
0 0 0
0 0 0
0 0 0
0 0 0
0 0 0
0 0 0
0 0 0
0 0 0
0 0 0
0 0 0
222 211 201
223 212 201
224 212 201
225 213 201
226 213 201
227 214 201
228 214 201
229 215 201
230 215 201
231 216 201
232 216 201
233 217 201
234 217 201
235 218 201
236 218 201
237 219 201
238 219 201
239 220 201
240 220 201
241 221 201
242 221 201
243 222 201
244 222 201
245 223 201
246 223 201
247 224 201
248 224 201
249 225 201
250 225 201
251 226 201
252 226 201
253 227 201
254 227 201
0 101 202
1 101 202
2 102 202
3 102 202
4 103 202
5 103 202
6 104 202
7 104 202
8 105 202
9 105 202
10 106 202
11 106 202
12 107 202
13 107 202
14 108 202
15 108 202
16 109 202
17 109 202
18 110 202
19 110 202
20 111 202
21 111 202
22 112 202
23 112 202
24 113 202
25 113 202
26 114 202
27 114 202
28 115 202
29 115 202
30 116 202
31 116 202
32 117 202
33 117 202
0 0 0
0 0 0
0 0 0
0 0 0
0 0 0
0 0 0
0 0 0
0 0 0
0 0 0
0 0 0
0 0 0
0 0 0
0 0 0
0 0 0
0 0 0
0 0 0
0 0 0
0 0 0
0 0 0
0 0 0
0 0 0
0 0 0
0 0 0
0 0 0
0 0 0
0 0 0
0 0 0
0 0 0
0 0 0
0 0 0
0 0 0
0 0 0
0 0 0
0 0 0
0 0 0
0 0 0
0 0 0
0 0 0
0 0 0
0 0 0
0 0 0
0 0 0
0 0 0
0 0 0
0 0 0
0 0 0
0 0 0
0 0 0
0 0 0
0 0 0
0 0 0
0 0 0
0 0 0
0 0 0
0 0 0
0 0 0
0 0 0
0 0 0
0 0 0
0 0 0
0 0 0
0 0 0
0 0 0
0 0 0
0 0 0
0 0 0
0 0 0
0 0 0
0 0 0
0 0 0
0 0 0
0 0 0
0 0 0
0 0 0
0 0 0
0 0 0
0 0 0
0 0 0
0 0 0
0 0 0
0 0 0
0 0 0
0 0 0
0 0 0
0 0 0
0 0 0
0 0 0
0 0 0
0 0 0
0 0 0
0 0 0
0 0 0
0 0 0
0 0 0
0 0 0
0 0 0
0 0 0
0 0 0
0 0 0
0 0 0
0 0 0
0 0 0
0 0 0
0 0 0
0 0 0
0 0 0
0 0 0
0 0 0
0 0 0
0 0 0
0 0 0
0 0 0
0 0 0
0 0 0
0 0 0
0 0 0
0 0 0
0 0 0
0 0 0
0 0 0
0 0 0
0 0 0
0 0 0
0 0 0
0 0 0
0 0 0
0 0 0
0 0 0
0 0 0
0 0 0
0 0 0
0 0 0
0 0 0
0 0 0
0 0 0
0 0 0
0 0 0
0 0 0
0 0 0
0 0 0
0 0 0
0 0 0
0 0 0
0 0 0
0 0 0
0 0 0
0 0 0
0 0 0
0 0 0
0 0 0
0 0 0
0 0 0
0 0 0
0 0 0
0 0 0
0 0 0
0 0 0
0 0 0
0 0 0
0 0 0
0 0 0
0 0 0
0 0 0
0 0 0
0 0 0
0 0 0
0 0 0
0 0 0
0 0 0
0 0 0
0 0 0
0 0 0
0 0 0
0 0 0
0 0 0
0 0 0
0 0 0
0 0 0
0 0 0
0 0 0
0 0 0
0 0 0
0 0 0
0 0 0
0 0 0
0 0 0
0 0 0
221 211 202
222 212 202
223 212 202
224 213 202
225 213 202
226 214 202
227 214 202
228 215 202
229 215 202
230 216 202
231 216 202
232 217 202
233 217 202
234 218 202
235 218 202
236 219 202
237 219 202
238 220 202
239 220 202
240 221 202
241 221 202
242 222 202
243 222 202
244 223 202
245 223 202
246 224 202
247 224 202
248 225 202
249 225 202
250 226 202
251 226 202
252 227 202
253 227 202
254 228 202
0 101 203
1 102 203
2 102 203
3 103 203
4 103 203
5 104 203
6 104 203
7 105 203
8 105 203
9 106 203
10 106 203
11 107 203
12 107 203
13 108 203
14 108 203
15 109 203
16 109 203
17 110 203
18 110 203
19 111 203
20 111 203
21 112 203
22 112 203
23 113 203
24 113 203
25 114 203
26 114 203
27 115 203
28 115 203
29 116 203
30 116 203
31 117 203
32 117 203
33 118 203
34 118 203
0 0 0
0 0 0
0 0 0
0 0 0
0 0 0
0 0 0
0 0 0
0 0 0
0 0 0
0 0 0
0 0 0
0 0 0
0 0 0
0 0 0
0 0 0
0 0 0
0 0 0
0 0 0
0 0 0
0 0 0
0 0 0
0 0 0
0 0 0
0 0 0
0 0 0
0 0 0
0 0 0
0 0 0
0 0 0
0 0 0
0 0 0
0 0 0
0 0 0
0 0 0
0 0 0
0 0 0
0 0 0
0 0 0
0 0 0
0 0 0
0 0 0
0 0 0
0 0 0
0 0 0
0 0 0
0 0 0
0 0 0
0 0 0
0 0 0
0 0 0
0 0 0
0 0 0
0 0 0
0 0 0
0 0 0
0 0 0
0 0 0
0 0 0
0 0 0
0 0 0
0 0 0
0 0 0
0 0 0
0 0 0
0 0 0
0 0 0
0 0 0
0 0 0
0 0 0
0 0 0
0 0 0
0 0 0
0 0 0
0 0 0
0 0 0
0 0 0
0 0 0
0 0 0
0 0 0
0 0 0
0 0 0
0 0 0
0 0 0
0 0 0
0 0 0
0 0 0
0 0 0
0 0 0
0 0 0
0 0 0
0 0 0
0 0 0
0 0 0
0 0 0
0 0 0
0 0 0
0 0 0
0 0 0
0 0 0
0 0 0
0 0 0
0 0 0
0 0 0
0 0 0
0 0 0
0 0 0
0 0 0
0 0 0
0 0 0
0 0 0
0 0 0
0 0 0
0 0 0
0 0 0
0 0 0
0 0 0
0 0 0
0 0 0
0 0 0
0 0 0
0 0 0
0 0 0
0 0 0
0 0 0
0 0 0
0 0 0
0 0 0
0 0 0
0 0 0
0 0 0
0 0 0
0 0 0
0 0 0
0 0 0
0 0 0
0 0 0
0 0 0
0 0 0
0 0 0
0 0 0
0 0 0
0 0 0
0 0 0
0 0 0
0 0 0
0 0 0
0 0 0
0 0 0
0 0 0
0 0 0
0 0 0
0 0 0
0 0 0
0 0 0
0 0 0
0 0 0
0 0 0
0 0 0
0 0 0
0 0 0
0 0 0
0 0 0
0 0 0
0 0 0
0 0 0
0 0 0
0 0 0
0 0 0
0 0 0
0 0 0
0 0 0
0 0 0
0 0 0
0 0 0
0 0 0
0 0 0
0 0 0
0 0 0
0 0 0
0 0 0
0 0 0
0 0 0
0 0 0
0 0 0
0 0 0
220 211 203
221 212 203
222 212 203
223 213 203
224 213 203
225 214 203
226 214 203
227 215 203
228 215 203
229 216 203
230 216 203
231 217 203
232 217 203
233 218 203
234 218 203
235 219 203
236 219 203
237 220 203
238 220 203
239 221 203
240 221 203
241 222 203
242 222 203
243 223 203
244 223 203
245 224 203
246 224 203
247 225 203
248 225 203
249 226 203
250 226 203
251 227 203
252 227 203
253 228 203
254 228 203
0 102 204
1 102 204
2 103 204
3 103 204
4 104 204
5 104 204
6 105 204
7 105 204
8 106 204
9 106 204
10 107 204
11 107 204
12 108 204
13 108 204
14 109 204
15 109 204
16 110 204
17 110 204
18 111 204
19 111 204
20 112 204
21 112 204
22 113 204
23 113 204
24 114 204
25 114 204
26 115 204
27 115 204
28 116 204
29 116 204
30 117 204
31 117 204
32 118 204
33 118 204
34 119 204
0 0 0
0 0 0
0 0 0
0 0 0
0 0 0
0 0 0
0 0 0
0 0 0
0 0 0
0 0 0
0 0 0
0 0 0
0 0 0
0 0 0
0 0 0
0 0 0
0 0 0
0 0 0
0 0 0
0 0 0
0 0 0
0 0 0
0 0 0
0 0 0
0 0 0
0 0 0
0 0 0
0 0 0
0 0 0
0 0 0
0 0 0
0 0 0
0 0 0
0 0 0
0 0 0
0 0 0
0 0 0
0 0 0
0 0 0
0 0 0
0 0 0
0 0 0
0 0 0
0 0 0
0 0 0
0 0 0
0 0 0
0 0 0
0 0 0
0 0 0
0 0 0
0 0 0
0 0 0
0 0 0
0 0 0
0 0 0
0 0 0
0 0 0
0 0 0
0 0 0
0 0 0
0 0 0
0 0 0
0 0 0
0 0 0
0 0 0
0 0 0
0 0 0
0 0 0
0 0 0
0 0 0
0 0 0
0 0 0
0 0 0
0 0 0
0 0 0
0 0 0
0 0 0
0 0 0
0 0 0
0 0 0
0 0 0
0 0 0
0 0 0
0 0 0
0 0 0
0 0 0
0 0 0
0 0 0
0 0 0
0 0 0
0 0 0
0 0 0
0 0 0
0 0 0
0 0 0
0 0 0
0 0 0
0 0 0
0 0 0
0 0 0
0 0 0
0 0 0
0 0 0
0 0 0
0 0 0
0 0 0
0 0 0
0 0 0
0 0 0
0 0 0
0 0 0
0 0 0
0 0 0
0 0 0
0 0 0
0 0 0
0 0 0
0 0 0
0 0 0
0 0 0
0 0 0
0 0 0
0 0 0
0 0 0
0 0 0
0 0 0
0 0 0
0 0 0
0 0 0
0 0 0
0 0 0
0 0 0
0 0 0
0 0 0
0 0 0
0 0 0
0 0 0
0 0 0
0 0 0
0 0 0
0 0 0
0 0 0
0 0 0
0 0 0
0 0 0
0 0 0
0 0 0
0 0 0
0 0 0
0 0 0
0 0 0
0 0 0
0 0 0
0 0 0
0 0 0
0 0 0
0 0 0
0 0 0
0 0 0
0 0 0
0 0 0
0 0 0
0 0 0
0 0 0
0 0 0
0 0 0
0 0 0
0 0 0
0 0 0
0 0 0
0 0 0
0 0 0
0 0 0
0 0 0
0 0 0
0 0 0
0 0 0
0 0 0
0 0 0
0 0 0
0 0 0
0 0 0
0 0 0
0 0 0
220 212 204
221 212 204
222 213 204
223 213 204
224 214 204
225 214 204
226 215 204
227 215 204
228 216 204
229 216 204
230 217 204
231 217 204
232 218 204
233 218 204
234 219 204
235 219 204
236 220 204
237 220 204
238 221 204
239 221 204
240 222 204
241 222 204
242 223 204
243 223 204
244 224 204
245 224 204
246 225 204
247 225 204
248 226 204
249 226 204
250 227 204
251 227 204
252 228 204
253 228 204
254 229 204
0 102 205
1 103 205
2 103 205
3 104 205
4 104 205
5 105 205
6 105 205
7 106 205
8 106 205
9 107 205
10 107 205
11 108 205
12 108 205
13 109 205
14 109 205
15 110 205
16 110 205
17 111 205
18 111 205
19 112 205
20 112 205
21 113 205
22 113 205
23 114 205
24 114 205
25 115 205
26 115 205
27 116 205
28 116 205
29 117 205
30 117 205
31 118 205
32 118 205
33 119 205
34 119 205
35 120 205
0 0 0
0 0 0
0 0 0
0 0 0
0 0 0
0 0 0
0 0 0
0 0 0
0 0 0
0 0 0
0 0 0
0 0 0
0 0 0
0 0 0
0 0 0
0 0 0
0 0 0
0 0 0
0 0 0
0 0 0
0 0 0
0 0 0
0 0 0
0 0 0
0 0 0
0 0 0
0 0 0
0 0 0
0 0 0
0 0 0
0 0 0
0 0 0
0 0 0
0 0 0
0 0 0
0 0 0
0 0 0
0 0 0
0 0 0
0 0 0
0 0 0
0 0 0
0 0 0
0 0 0
0 0 0
0 0 0
0 0 0
0 0 0
0 0 0
0 0 0
0 0 0
0 0 0
0 0 0
0 0 0
0 0 0
0 0 0
0 0 0
0 0 0
0 0 0
0 0 0
0 0 0
0 0 0
0 0 0
0 0 0
0 0 0
0 0 0
0 0 0
0 0 0
0 0 0
0 0 0
0 0 0
0 0 0
0 0 0
0 0 0
0 0 0
0 0 0
0 0 0
0 0 0
0 0 0
0 0 0
0 0 0
0 0 0
0 0 0
0 0 0
0 0 0
0 0 0
0 0 0
0 0 0
0 0 0
0 0 0
0 0 0
0 0 0
0 0 0
0 0 0
0 0 0
0 0 0
0 0 0
0 0 0
0 0 0
0 0 0
0 0 0
0 0 0
0 0 0
0 0 0
0 0 0
0 0 0
0 0 0
0 0 0
0 0 0
0 0 0
0 0 0
0 0 0
0 0 0
0 0 0
0 0 0
0 0 0
0 0 0
0 0 0
0 0 0
0 0 0
0 0 0
0 0 0
0 0 0
0 0 0
0 0 0
0 0 0
0 0 0
0 0 0
0 0 0
0 0 0
0 0 0
0 0 0
0 0 0
0 0 0
0 0 0
0 0 0
0 0 0
0 0 0
0 0 0
0 0 0
0 0 0
0 0 0
0 0 0
0 0 0
0 0 0
0 0 0
0 0 0
0 0 0
0 0 0
0 0 0
0 0 0
0 0 0
0 0 0
0 0 0
0 0 0
0 0 0
0 0 0
0 0 0
0 0 0
0 0 0
0 0 0
0 0 0
0 0 0
0 0 0
0 0 0
0 0 0
0 0 0
0 0 0
0 0 0
0 0 0
0 0 0
0 0 0
0 0 0
0 0 0
0 0 0
0 0 0
0 0 0
0 0 0
0 0 0
0 0 0
0 0 0
0 0 0
0 0 0
219 212 205
220 212 205
221 213 205
222 213 205
223 214 205
224 214 205
225 215 205
226 215 205
227 216 205
228 216 205
229 217 205
230 217 205
231 218 205
232 218 205
233 219 205
234 219 205
235 220 205
236 220 205
237 221 205
238 221 205
239 222 205
240 222 205
241 223 205
242 223 205
243 224 205
244 224 205
245 225 205
246 225 205
247 226 205
248 226 205
249 227 205
250 227 205
251 228 205
252 228 205
253 229 205
254 229 205
0 103 206
1 103 206
2 104 206
3 104 206
4 105 206
5 105 206
6 106 206
7 106 206
8 107 206
9 107 206
10 108 206
11 108 206
12 109 206
13 109 206
14 110 206
15 110 206
16 111 206
17 111 206
18 112 206
19 112 206
20 113 206
21 113 206
22 114 206
23 114 206
24 115 206
25 115 206
26 116 206
27 116 206
28 117 206
29 117 206
30 118 206
31 118 206
32 119 206
33 119 206
34 120 206
35 120 206
36 121 206
0 0 0
0 0 0
0 0 0
0 0 0
0 0 0
0 0 0
0 0 0
0 0 0
0 0 0
0 0 0
0 0 0
0 0 0
0 0 0
0 0 0
0 0 0
0 0 0
0 0 0
0 0 0
0 0 0
0 0 0
0 0 0
0 0 0
0 0 0
0 0 0
0 0 0
0 0 0
0 0 0
0 0 0
0 0 0
0 0 0
0 0 0
0 0 0
0 0 0
0 0 0
0 0 0
0 0 0
0 0 0
0 0 0
0 0 0
0 0 0
0 0 0
0 0 0
0 0 0
0 0 0
0 0 0
0 0 0
0 0 0
0 0 0
0 0 0
0 0 0
0 0 0
0 0 0
0 0 0
0 0 0
0 0 0
0 0 0
0 0 0
0 0 0
0 0 0
0 0 0
0 0 0
0 0 0
0 0 0
0 0 0
0 0 0
0 0 0
0 0 0
0 0 0
0 0 0
0 0 0
0 0 0
0 0 0
0 0 0
0 0 0
0 0 0
0 0 0
0 0 0
0 0 0
0 0 0
0 0 0
0 0 0
0 0 0
0 0 0
0 0 0
0 0 0
0 0 0
0 0 0
0 0 0
0 0 0
0 0 0
0 0 0
0 0 0
0 0 0
0 0 0
0 0 0
0 0 0
0 0 0
0 0 0
0 0 0
0 0 0
0 0 0
0 0 0
0 0 0
0 0 0
0 0 0
0 0 0
0 0 0
0 0 0
0 0 0
0 0 0
0 0 0
0 0 0
0 0 0
0 0 0
0 0 0
0 0 0
0 0 0
0 0 0
0 0 0
0 0 0
0 0 0
0 0 0
0 0 0
0 0 0
0 0 0
0 0 0
0 0 0
0 0 0
0 0 0
0 0 0
0 0 0
0 0 0
0 0 0
0 0 0
0 0 0
0 0 0
0 0 0
0 0 0
0 0 0
0 0 0
0 0 0
0 0 0
0 0 0
0 0 0
0 0 0
0 0 0
0 0 0
0 0 0
0 0 0
0 0 0
0 0 0
0 0 0
0 0 0
0 0 0
0 0 0
0 0 0
0 0 0
0 0 0
0 0 0
0 0 0
0 0 0
0 0 0
0 0 0
0 0 0
0 0 0
0 0 0
0 0 0
0 0 0
0 0 0
0 0 0
0 0 0
0 0 0
0 0 0
0 0 0
0 0 0
0 0 0
0 0 0
0 0 0
0 0 0
0 0 0
0 0 0
218 212 206
219 212 206
220 213 206
221 213 206
222 214 206
223 214 206
224 215 206
225 215 206
226 216 206
227 216 206
228 217 206
229 217 206
230 218 206
231 218 206
232 219 206
233 219 206
234 220 206
235 220 206
236 221 206
237 221 206
238 222 206
239 222 206
240 223 206
241 223 206
242 224 206
243 224 206
244 225 206
245 225 206
246 226 206
247 226 206
248 227 206
249 227 206
250 228 206
251 228 206
252 229 206
253 229 206
254 230 206
0 103 207
1 104 207
2 104 207
3 105 207
4 105 207
5 106 207
6 106 207
7 107 207
8 107 207
9 108 207
10 108 207
11 109 207
12 109 207
13 110 207
14 110 207
15 111 207
16 111 207
17 112 207
18 112 207
19 113 207
20 113 207
21 114 207
22 114 207
23 115 207
24 115 207
25 116 207
26 116 207
27 117 207
28 117 207
29 118 207
30 118 207
31 119 207
32 119 207
33 120 207
34 120 207
35 121 207
36 121 207
37 122 207
0 0 0
0 0 0
0 0 0
0 0 0
0 0 0
0 0 0
0 0 0
0 0 0
0 0 0
0 0 0
0 0 0
0 0 0
0 0 0
0 0 0
0 0 0
0 0 0
0 0 0
0 0 0
0 0 0
0 0 0
0 0 0
0 0 0
0 0 0
0 0 0
0 0 0
0 0 0
0 0 0
0 0 0
0 0 0
0 0 0
0 0 0
0 0 0
0 0 0
0 0 0
0 0 0
0 0 0
0 0 0
0 0 0
0 0 0
0 0 0
0 0 0
0 0 0
0 0 0
0 0 0
0 0 0
0 0 0
0 0 0
0 0 0
0 0 0
0 0 0
0 0 0
0 0 0
0 0 0
0 0 0
0 0 0
0 0 0
0 0 0
0 0 0
0 0 0
0 0 0
0 0 0
0 0 0
0 0 0
0 0 0
0 0 0
0 0 0
0 0 0
0 0 0
0 0 0
0 0 0
0 0 0
0 0 0
0 0 0
0 0 0
0 0 0
0 0 0
0 0 0
0 0 0
0 0 0
0 0 0
0 0 0
0 0 0
0 0 0
0 0 0
0 0 0
0 0 0
0 0 0
0 0 0
0 0 0
0 0 0
0 0 0
0 0 0
0 0 0
0 0 0
0 0 0
0 0 0
0 0 0
0 0 0
0 0 0
0 0 0
0 0 0
0 0 0
0 0 0
0 0 0
0 0 0
0 0 0
0 0 0
0 0 0
0 0 0
0 0 0
0 0 0
0 0 0
0 0 0
0 0 0
0 0 0
0 0 0
0 0 0
0 0 0
0 0 0
0 0 0
0 0 0
0 0 0
0 0 0
0 0 0
0 0 0
0 0 0
0 0 0
0 0 0
0 0 0
0 0 0
0 0 0
0 0 0
0 0 0
0 0 0
0 0 0
0 0 0
0 0 0
0 0 0
0 0 0
0 0 0
0 0 0
0 0 0
0 0 0
0 0 0
0 0 0
0 0 0
0 0 0
0 0 0
0 0 0
0 0 0
0 0 0
0 0 0
0 0 0
0 0 0
0 0 0
0 0 0
0 0 0
0 0 0
0 0 0
0 0 0
0 0 0
0 0 0
0 0 0
0 0 0
0 0 0
0 0 0
0 0 0
0 0 0
0 0 0
0 0 0
0 0 0
0 0 0
0 0 0
0 0 0
0 0 0
0 0 0
0 0 0
0 0 0
0 0 0
217 212 207
218 212 207
219 213 207
220 213 207
221 214 207
222 214 207
223 215 207
224 215 207
225 216 207
226 216 207
227 217 207
228 217 207
229 218 207
230 218 207
231 219 207
232 219 207
233 220 207
234 220 207
235 221 207
236 221 207
237 222 207
238 222 207
239 223 207
240 223 207
241 224 207
242 224 207
243 225 207
244 225 207
245 226 207
246 226 207
247 227 207
248 227 207
249 228 207
250 228 207
251 229 207
252 229 207
253 230 207
254 230 207
0 104 208
1 104 208
2 105 208
3 105 208
4 106 208
5 106 208
6 107 208
7 107 208
8 108 208
9 108 208
10 109 208
11 109 208
12 110 208
13 110 208
14 111 208
15 111 208
16 112 208
17 112 208
18 113 208
19 113 208
20 114 208
21 114 208
22 115 208
23 115 208
24 116 208
25 116 208
26 117 208
27 117 208
28 118 208
29 118 208
30 119 208
31 119 208
32 120 208
33 120 208
34 121 208
35 121 208
36 122 208
37 122 208
38 123 208
0 0 0
0 0 0
0 0 0
0 0 0
0 0 0
0 0 0
0 0 0
0 0 0
0 0 0
0 0 0
0 0 0
0 0 0
0 0 0
0 0 0
0 0 0
0 0 0
0 0 0
0 0 0
0 0 0
0 0 0
0 0 0
0 0 0
0 0 0
0 0 0
0 0 0
0 0 0
0 0 0
0 0 0
0 0 0
0 0 0
0 0 0
0 0 0
0 0 0
0 0 0
0 0 0
0 0 0
0 0 0
0 0 0
0 0 0
0 0 0
0 0 0
0 0 0
0 0 0
0 0 0
0 0 0
0 0 0
0 0 0
0 0 0
0 0 0
0 0 0
0 0 0
0 0 0
0 0 0
0 0 0
0 0 0
0 0 0
0 0 0
0 0 0
0 0 0
0 0 0
0 0 0
0 0 0
0 0 0
0 0 0
0 0 0
0 0 0
0 0 0
0 0 0
0 0 0
0 0 0
0 0 0
0 0 0
0 0 0
0 0 0
0 0 0
0 0 0
0 0 0
0 0 0
0 0 0
0 0 0
0 0 0
0 0 0
0 0 0
0 0 0
0 0 0
0 0 0
0 0 0
0 0 0
0 0 0
0 0 0
0 0 0
0 0 0
0 0 0
0 0 0
0 0 0
0 0 0
0 0 0
0 0 0
0 0 0
0 0 0
0 0 0
0 0 0
0 0 0
0 0 0
0 0 0
0 0 0
0 0 0
0 0 0
0 0 0
0 0 0
0 0 0
0 0 0
0 0 0
0 0 0
0 0 0
0 0 0
0 0 0
0 0 0
0 0 0
0 0 0
0 0 0
0 0 0
0 0 0
0 0 0
0 0 0
0 0 0
0 0 0
0 0 0
0 0 0
0 0 0
0 0 0
0 0 0
0 0 0
0 0 0
0 0 0
0 0 0
0 0 0
0 0 0
0 0 0
0 0 0
0 0 0
0 0 0
0 0 0
0 0 0
0 0 0
0 0 0
0 0 0
0 0 0
0 0 0
0 0 0
0 0 0
0 0 0
0 0 0
0 0 0
0 0 0
0 0 0
0 0 0
0 0 0
0 0 0
0 0 0
0 0 0
0 0 0
0 0 0
0 0 0
0 0 0
0 0 0
0 0 0
0 0 0
0 0 0
0 0 0
0 0 0
0 0 0
0 0 0
0 0 0
0 0 0
0 0 0
0 0 0
216 212 208
217 212 208
218 213 208
219 213 208
220 214 208
221 214 208
222 215 208
223 215 208
224 216 208
225 216 208
226 217 208
227 217 208
228 218 208
229 218 208
230 219 208
231 219 208
232 220 208
233 220 208
234 221 208
235 221 208
236 222 208
237 222 208
238 223 208
239 223 208
240 224 208
241 224 208
242 225 208
243 225 208
244 226 208
245 226 208
246 227 208
247 227 208
248 228 208
249 228 208
250 229 208
251 229 208
252 230 208
253 230 208
254 231 208
0 104 209
1 105 209
2 105 209
3 106 209
4 106 209
5 107 209
6 107 209
7 108 209
8 108 209
9 109 209
10 109 209
11 110 209
12 110 209
13 111 209
14 111 209
15 112 209
16 112 209
17 113 209
18 113 209
19 114 209
20 114 209
21 115 209
22 115 209
23 116 209
24 116 209
25 117 209
26 117 209
27 118 209
28 118 209
29 119 209
30 119 209
31 120 209
32 120 209
33 121 209
34 121 209
35 122 209
36 122 209
37 123 209
38 123 209
39 124 209
0 0 0
0 0 0
0 0 0
0 0 0
0 0 0
0 0 0
0 0 0
0 0 0
0 0 0
0 0 0
0 0 0
0 0 0
0 0 0
0 0 0
0 0 0
0 0 0
0 0 0
0 0 0
0 0 0
0 0 0
0 0 0
0 0 0
0 0 0
0 0 0
0 0 0
0 0 0
0 0 0
0 0 0
0 0 0
0 0 0
0 0 0
0 0 0
0 0 0
0 0 0
0 0 0
0 0 0
0 0 0
0 0 0
0 0 0
0 0 0
0 0 0
0 0 0
0 0 0
0 0 0
0 0 0
0 0 0
0 0 0
0 0 0
0 0 0
0 0 0
0 0 0
0 0 0
0 0 0
0 0 0
0 0 0
0 0 0
0 0 0
0 0 0
0 0 0
0 0 0
0 0 0
0 0 0
0 0 0
0 0 0
0 0 0
0 0 0
0 0 0
0 0 0
0 0 0
0 0 0
0 0 0
0 0 0
0 0 0
0 0 0
0 0 0
0 0 0
0 0 0
0 0 0
0 0 0
0 0 0
0 0 0
0 0 0
0 0 0
0 0 0
0 0 0
0 0 0
0 0 0
0 0 0
0 0 0
0 0 0
0 0 0
0 0 0
0 0 0
0 0 0
0 0 0
0 0 0
0 0 0
0 0 0
0 0 0
0 0 0
0 0 0
0 0 0
0 0 0
0 0 0
0 0 0
0 0 0
0 0 0
0 0 0
0 0 0
0 0 0
0 0 0
0 0 0
0 0 0
0 0 0
0 0 0
0 0 0
0 0 0
0 0 0
0 0 0
0 0 0
0 0 0
0 0 0
0 0 0
0 0 0
0 0 0
0 0 0
0 0 0
0 0 0
0 0 0
0 0 0
0 0 0
0 0 0
0 0 0
0 0 0
0 0 0
0 0 0
0 0 0
0 0 0
0 0 0
0 0 0
0 0 0
0 0 0
0 0 0
0 0 0
0 0 0
0 0 0
0 0 0
0 0 0
0 0 0
0 0 0
0 0 0
0 0 0
0 0 0
0 0 0
0 0 0
0 0 0
0 0 0
0 0 0
0 0 0
0 0 0
0 0 0
0 0 0
0 0 0
0 0 0
0 0 0
0 0 0
0 0 0
0 0 0
0 0 0
0 0 0
0 0 0
0 0 0
0 0 0
0 0 0
0 0 0
215 212 209
216 212 209
217 213 209
218 213 209
219 214 209
220 214 209
221 215 209
222 215 209
223 216 209
224 216 209
225 217 209
226 217 209
227 218 209
228 218 209
229 219 209
230 219 209
231 220 209
232 220 209
233 221 209
234 221 209
235 222 209
236 222 209
237 223 209
238 223 209
239 224 209
240 224 209
241 225 209
242 225 209
243 226 209
244 226 209
245 227 209
246 227 209
247 228 209
248 228 209
249 229 209
250 229 209
251 230 209
252 230 209
253 231 209
254 231 209
0 105 210
1 105 210
2 106 210
3 106 210
4 107 210
5 107 210
6 108 210
7 108 210
8 109 210
9 109 210
10 110 210
11 110 210
12 111 210
13 111 210
14 112 210
15 112 210
16 113 210
17 113 210
18 114 210
19 114 210
20 115 210
21 115 210
22 116 210
23 116 210
24 117 210
25 117 210
26 118 210
27 118 210
28 119 210
29 119 210
30 120 210
31 120 210
32 121 210
33 121 210
34 122 210
35 122 210
36 123 210
37 123 210
38 124 210
39 124 210
40 125 210
0 0 0
0 0 0
0 0 0
0 0 0
0 0 0
0 0 0
0 0 0
0 0 0
0 0 0
0 0 0
0 0 0
0 0 0
0 0 0
0 0 0
0 0 0
0 0 0
0 0 0
0 0 0
0 0 0
0 0 0
0 0 0
0 0 0
0 0 0
0 0 0
0 0 0
0 0 0
0 0 0
0 0 0
0 0 0
0 0 0
0 0 0
0 0 0
0 0 0
0 0 0
0 0 0
0 0 0
0 0 0
0 0 0
0 0 0
0 0 0
0 0 0
0 0 0
0 0 0
0 0 0
0 0 0
0 0 0
0 0 0
0 0 0
0 0 0
0 0 0
0 0 0
0 0 0
0 0 0
0 0 0
0 0 0
0 0 0
0 0 0
0 0 0
0 0 0
0 0 0
0 0 0
0 0 0
0 0 0
0 0 0
0 0 0
0 0 0
0 0 0
0 0 0
0 0 0
0 0 0
0 0 0
0 0 0
0 0 0
0 0 0
0 0 0
0 0 0
0 0 0
0 0 0
0 0 0
0 0 0
0 0 0
0 0 0
0 0 0
0 0 0
0 0 0
0 0 0
0 0 0
0 0 0
0 0 0
0 0 0
0 0 0
0 0 0
0 0 0
0 0 0
0 0 0
0 0 0
0 0 0
0 0 0
0 0 0
0 0 0
0 0 0
0 0 0
0 0 0
0 0 0
0 0 0
0 0 0
0 0 0
0 0 0
0 0 0
0 0 0
0 0 0
0 0 0
0 0 0
0 0 0
0 0 0
0 0 0
0 0 0
0 0 0
0 0 0
0 0 0
0 0 0
0 0 0
0 0 0
0 0 0
0 0 0
0 0 0
0 0 0
0 0 0
0 0 0
0 0 0
0 0 0
0 0 0
0 0 0
0 0 0
0 0 0
0 0 0
0 0 0
0 0 0
0 0 0
0 0 0
0 0 0
0 0 0
0 0 0
0 0 0
0 0 0
0 0 0
0 0 0
0 0 0
0 0 0
0 0 0
0 0 0
0 0 0
0 0 0
0 0 0
0 0 0
0 0 0
0 0 0
0 0 0
0 0 0
0 0 0
0 0 0
0 0 0
0 0 0
0 0 0
0 0 0
0 0 0
0 0 0
0 0 0
0 0 0
0 0 0
0 0 0
0 0 0
0 0 0
214 212 210
215 212 210
216 213 210
217 213 210
218 214 210
219 214 210
220 215 210
221 215 210
222 216 210
223 216 210
224 217 210
225 217 210
226 218 210
227 218 210
228 219 210
229 219 210
230 220 210
231 220 210
232 221 210
233 221 210
234 222 210
235 222 210
236 223 210
237 223 210
238 224 210
239 224 210
240 225 210
241 225 210
242 226 210
243 226 210
244 227 210
245 227 210
246 228 210
247 228 210
248 229 210
249 229 210
250 230 210
251 230 210
252 231 210
253 231 210
254 232 210
0 105 211
1 106 211
2 106 211
3 107 211
4 107 211
5 108 211
6 108 211
7 109 211
8 109 211
9 110 211
10 110 211
11 111 211
12 111 211
13 112 211
14 112 211
15 113 211
16 113 211
17 114 211
18 114 211
19 115 211
20 115 211
21 116 211
22 116 211
23 117 211
24 117 211
25 118 211
26 118 211
27 119 211
28 119 211
29 120 211
30 120 211
31 121 211
32 121 211
33 122 211
34 122 211
35 123 211
36 123 211
37 124 211
38 124 211
39 125 211
40 125 211
41 126 211
0 0 0
0 0 0
0 0 0
0 0 0
0 0 0
0 0 0
0 0 0
0 0 0
0 0 0
0 0 0
0 0 0
0 0 0
0 0 0
0 0 0
0 0 0
0 0 0
0 0 0
0 0 0
0 0 0
0 0 0
0 0 0
0 0 0
0 0 0
0 0 0
0 0 0
0 0 0
0 0 0
0 0 0
0 0 0
0 0 0
0 0 0
0 0 0
0 0 0
0 0 0
0 0 0
0 0 0
0 0 0
0 0 0
0 0 0
0 0 0
0 0 0
0 0 0
0 0 0
0 0 0
0 0 0
0 0 0
0 0 0
0 0 0
0 0 0
0 0 0
0 0 0
0 0 0
0 0 0
0 0 0
0 0 0
0 0 0
0 0 0
0 0 0
0 0 0
0 0 0
0 0 0
0 0 0
0 0 0
0 0 0
0 0 0
0 0 0
0 0 0
0 0 0
0 0 0
0 0 0
0 0 0
0 0 0
0 0 0
0 0 0
0 0 0
0 0 0
0 0 0
0 0 0
0 0 0
0 0 0
0 0 0
0 0 0
0 0 0
0 0 0
0 0 0
0 0 0
0 0 0
0 0 0
0 0 0
0 0 0
0 0 0
0 0 0
0 0 0
0 0 0
0 0 0
0 0 0
0 0 0
0 0 0
0 0 0
0 0 0
0 0 0
0 0 0
0 0 0
0 0 0
0 0 0
0 0 0
0 0 0
0 0 0
0 0 0
0 0 0
0 0 0
0 0 0
0 0 0
0 0 0
0 0 0
0 0 0
0 0 0
0 0 0
0 0 0
0 0 0
0 0 0
0 0 0
0 0 0
0 0 0
0 0 0
0 0 0
0 0 0
0 0 0
0 0 0
0 0 0
0 0 0
0 0 0
0 0 0
0 0 0
0 0 0
0 0 0
0 0 0
0 0 0
0 0 0
0 0 0
0 0 0
0 0 0
0 0 0
0 0 0
0 0 0
0 0 0
0 0 0
0 0 0
0 0 0
0 0 0
0 0 0
0 0 0
0 0 0
0 0 0
0 0 0
0 0 0
0 0 0
0 0 0
0 0 0
0 0 0
0 0 0
0 0 0
0 0 0
0 0 0
0 0 0
0 0 0
0 0 0
0 0 0
0 0 0
0 0 0
0 0 0
213 212 211
214 212 211
215 213 211
216 213 211
217 214 211
218 214 211
219 215 211
220 215 211
221 216 211
222 216 211
223 217 211
224 217 211
225 218 211
226 218 211
227 219 211
228 219 211
229 220 211
230 220 211
231 221 211
232 221 211
233 222 211
234 222 211
235 223 211
236 223 211
237 224 211
238 224 211
239 225 211
240 225 211
241 226 211
242 226 211
243 227 211
244 227 211
245 228 211
246 228 211
247 229 211
248 229 211
249 230 211
250 230 211
251 231 211
252 231 211
253 232 211
254 232 211
0 106 212
1 106 212
2 107 212
3 107 212
4 108 212
5 108 212
6 109 212
7 109 212
8 110 212
9 110 212
10 111 212
11 111 212
12 112 212
13 112 212
14 113 212
15 113 212
16 114 212
17 114 212
18 115 212
19 115 212
20 116 212
21 116 212
22 117 212
23 117 212
24 118 212
25 118 212
26 119 212
27 119 212
28 120 212
29 120 212
30 121 212
31 121 212
32 122 212
33 122 212
34 123 212
35 123 212
36 124 212
37 124 212
38 125 212
39 125 212
40 126 212
41 126 212
42 127 212
0 0 0
0 0 0
0 0 0
0 0 0
0 0 0
0 0 0
0 0 0
0 0 0
0 0 0
0 0 0
0 0 0
0 0 0
0 0 0
0 0 0
0 0 0
0 0 0
0 0 0
0 0 0
0 0 0
0 0 0
0 0 0
0 0 0
0 0 0
0 0 0
0 0 0
0 0 0
0 0 0
0 0 0
0 0 0
0 0 0
0 0 0
0 0 0
0 0 0
0 0 0
0 0 0
0 0 0
0 0 0
0 0 0
0 0 0
0 0 0
0 0 0
0 0 0
0 0 0
0 0 0
0 0 0
0 0 0
0 0 0
0 0 0
0 0 0
0 0 0
0 0 0
0 0 0
0 0 0
0 0 0
0 0 0
0 0 0
0 0 0
0 0 0
0 0 0
0 0 0
0 0 0
0 0 0
0 0 0
0 0 0
0 0 0
0 0 0
0 0 0
0 0 0
0 0 0
0 0 0
0 0 0
0 0 0
0 0 0
0 0 0
0 0 0
0 0 0
0 0 0
0 0 0
0 0 0
0 0 0
0 0 0
0 0 0
0 0 0
0 0 0
0 0 0
0 0 0
0 0 0
0 0 0
0 0 0
0 0 0
0 0 0
0 0 0
0 0 0
0 0 0
0 0 0
0 0 0
0 0 0
0 0 0
0 0 0
0 0 0
0 0 0
0 0 0
0 0 0
0 0 0
0 0 0
0 0 0
0 0 0
0 0 0
0 0 0
0 0 0
0 0 0
0 0 0
0 0 0
0 0 0
0 0 0
0 0 0
0 0 0
0 0 0
0 0 0
0 0 0
0 0 0
0 0 0
0 0 0
0 0 0
0 0 0
0 0 0
0 0 0
0 0 0
0 0 0
0 0 0
0 0 0
0 0 0
0 0 0
0 0 0
0 0 0
0 0 0
0 0 0
0 0 0
0 0 0
0 0 0
0 0 0
0 0 0
0 0 0
0 0 0
0 0 0
0 0 0
0 0 0
0 0 0
0 0 0
0 0 0
0 0 0
0 0 0
0 0 0
0 0 0
0 0 0
0 0 0
0 0 0
0 0 0
0 0 0
0 0 0
0 0 0
0 0 0
0 0 0
0 0 0
0 0 0
0 0 0
0 0 0
0 0 0
0 0 0
212 212 212
213 212 212
214 213 212
215 213 212
216 214 212
217 214 212
218 215 212
219 215 212
220 216 212
221 216 212
222 217 212
223 217 212
224 218 212
225 218 212
226 219 212
227 219 212
228 220 212
229 220 212
230 221 212
231 221 212
232 222 212
233 222 212
234 223 212
235 223 212
236 224 212
237 224 212
238 225 212
239 225 212
240 226 212
241 226 212
242 227 212
243 227 212
244 228 212
245 228 212
246 229 212
247 229 212
248 230 212
249 230 212
250 231 212
251 231 212
252 232 212
253 232 212
254 233 212
0 106 213
1 107 213
2 107 213
3 108 213
4 108 213
5 109 213
6 109 213
7 110 213
8 110 213
9 111 213
10 111 213
11 112 213
12 112 213
13 113 213
14 113 213
15 114 213
16 114 213
17 115 213
18 115 213
19 116 213
20 116 213
21 117 213
22 117 213
23 118 213
24 118 213
25 119 213
26 119 213
27 120 213
28 120 213
29 121 213
30 121 213
31 122 213
32 122 213
33 123 213
34 123 213
35 124 213
36 124 213
37 125 213
38 125 213
39 126 213
40 126 213
41 127 213
42 127 213
43 128 213
0 0 0
0 0 0
0 0 0
0 0 0
0 0 0
0 0 0
0 0 0
0 0 0
0 0 0
0 0 0
0 0 0
0 0 0
0 0 0
0 0 0
0 0 0
0 0 0
0 0 0
0 0 0
0 0 0
0 0 0
0 0 0
0 0 0
0 0 0
0 0 0
0 0 0
0 0 0
0 0 0
0 0 0
0 0 0
0 0 0
0 0 0
0 0 0
0 0 0
0 0 0
0 0 0
0 0 0
0 0 0
0 0 0
0 0 0
0 0 0
0 0 0
0 0 0
0 0 0
0 0 0
0 0 0
0 0 0
0 0 0
0 0 0
0 0 0
0 0 0
0 0 0
0 0 0
0 0 0
0 0 0
0 0 0
0 0 0
0 0 0
0 0 0
0 0 0
0 0 0
0 0 0
0 0 0
0 0 0
0 0 0
0 0 0
0 0 0
0 0 0
0 0 0
0 0 0
0 0 0
0 0 0
0 0 0
0 0 0
0 0 0
0 0 0
0 0 0
0 0 0
0 0 0
0 0 0
0 0 0
0 0 0
0 0 0
0 0 0
0 0 0
0 0 0
0 0 0
0 0 0
0 0 0
0 0 0
0 0 0
0 0 0
0 0 0
0 0 0
0 0 0
0 0 0
0 0 0
0 0 0
0 0 0
0 0 0
0 0 0
0 0 0
0 0 0
0 0 0
0 0 0
0 0 0
0 0 0
0 0 0
0 0 0
0 0 0
0 0 0
0 0 0
0 0 0
0 0 0
0 0 0
0 0 0
0 0 0
0 0 0
0 0 0
0 0 0
0 0 0
0 0 0
0 0 0
0 0 0
0 0 0
0 0 0
0 0 0
0 0 0
0 0 0
0 0 0
0 0 0
0 0 0
0 0 0
0 0 0
0 0 0
0 0 0
0 0 0
0 0 0
0 0 0
0 0 0
0 0 0
0 0 0
0 0 0
0 0 0
0 0 0
0 0 0
0 0 0
0 0 0
0 0 0
0 0 0
0 0 0
0 0 0
0 0 0
0 0 0
0 0 0
0 0 0
0 0 0
0 0 0
0 0 0
0 0 0
0 0 0
0 0 0
0 0 0
0 0 0
0 0 0
0 0 0
0 0 0
0 0 0
211 212 213
212 212 213
213 213 213
214 213 213
215 214 213
216 214 213
217 215 213
218 215 213
219 216 213
220 216 213
221 217 213
222 217 213
223 218 213
224 218 213
225 219 213
226 219 213
227 220 213
228 220 213
229 221 213
230 221 213
231 222 213
232 222 213
233 223 213
234 223 213
235 224 213
236 224 213
237 225 213
238 225 213
239 226 213
240 226 213
241 227 213
242 227 213
243 228 213
244 228 213
245 229 213
246 229 213
247 230 213
248 230 213
249 231 213
250 231 213
251 232 213
252 232 213
253 233 213
254 233 213
0 107 214
1 107 214
2 108 214
3 108 214
4 109 214
5 109 214
6 110 214
7 110 214
8 111 214
9 111 214
10 112 214
11 112 214
12 113 214
13 113 214
14 114 214
15 114 214
16 115 214
17 115 214
18 116 214
19 116 214
20 117 214
21 117 214
22 118 214
23 118 214
24 119 214
25 119 214
26 120 214
27 120 214
28 121 214
29 121 214
30 122 214
31 122 214
32 123 214
33 123 214
34 124 214
35 124 214
36 125 214
37 125 214
38 126 214
39 126 214
40 127 214
41 127 214
42 128 214
43 128 214
44 129 214
0 0 0
0 0 0
0 0 0
0 0 0
0 0 0
0 0 0
0 0 0
0 0 0
0 0 0
0 0 0
0 0 0
0 0 0
0 0 0
0 0 0
0 0 0
0 0 0
0 0 0
0 0 0
0 0 0
0 0 0
0 0 0
0 0 0
0 0 0
0 0 0
0 0 0
0 0 0
0 0 0
0 0 0
0 0 0
0 0 0
0 0 0
0 0 0
0 0 0
0 0 0
0 0 0
0 0 0
0 0 0
0 0 0
0 0 0
0 0 0
0 0 0
0 0 0
0 0 0
0 0 0
0 0 0
0 0 0
0 0 0
0 0 0
0 0 0
0 0 0
0 0 0
0 0 0
0 0 0
0 0 0
0 0 0
0 0 0
0 0 0
0 0 0
0 0 0
0 0 0
0 0 0
0 0 0
0 0 0
0 0 0
0 0 0
0 0 0
0 0 0
0 0 0
0 0 0
0 0 0
0 0 0
0 0 0
0 0 0
0 0 0
0 0 0
0 0 0
0 0 0
0 0 0
0 0 0
0 0 0
0 0 0
0 0 0
0 0 0
0 0 0
0 0 0
0 0 0
0 0 0
0 0 0
0 0 0
0 0 0
0 0 0
0 0 0
0 0 0
0 0 0
0 0 0
0 0 0
0 0 0
0 0 0
0 0 0
0 0 0
0 0 0
0 0 0
0 0 0
0 0 0
0 0 0
0 0 0
0 0 0
0 0 0
0 0 0
0 0 0
0 0 0
0 0 0
0 0 0
0 0 0
0 0 0
0 0 0
0 0 0
0 0 0
0 0 0
0 0 0
0 0 0
0 0 0
0 0 0
0 0 0
0 0 0
0 0 0
0 0 0
0 0 0
0 0 0
0 0 0
0 0 0
0 0 0
0 0 0
0 0 0
0 0 0
0 0 0
0 0 0
0 0 0
0 0 0
0 0 0
0 0 0
0 0 0
0 0 0
0 0 0
0 0 0
0 0 0
0 0 0
0 0 0
0 0 0
0 0 0
0 0 0
0 0 0
0 0 0
0 0 0
0 0 0
0 0 0
0 0 0
0 0 0
0 0 0
0 0 0
0 0 0
0 0 0
0 0 0
0 0 0
0 0 0
210 212 214
211 212 214
212 213 214
213 213 214
214 214 214
215 214 214
216 215 214
217 215 214
218 216 214
219 216 214
220 217 214
221 217 214
222 218 214
223 218 214
224 219 214
225 219 214
226 220 214
227 220 214
228 221 214
229 221 214
230 222 214
231 222 214
232 223 214
233 223 214
234 224 214
235 224 214
236 225 214
237 225 214
238 226 214
239 226 214
240 227 214
241 227 214
242 228 214
243 228 214
244 229 214
245 229 214
246 230 214
247 230 214
248 231 214
249 231 214
250 232 214
251 232 214
252 233 214
253 233 214
254 234 214
0 107 215
1 108 215
2 108 215
3 109 215
4 109 215
5 110 215
6 110 215
7 111 215
8 111 215
9 112 215
10 112 215
11 113 215
12 113 215
13 114 215
14 114 215
15 115 215
16 115 215
17 116 215
18 116 215
19 117 215
20 117 215
21 118 215
22 118 215
23 119 215
24 119 215
25 120 215
26 120 215
27 121 215
28 121 215
29 122 215
30 122 215
31 123 215
32 123 215
33 124 215
34 124 215
35 125 215
36 125 215
37 126 215
38 126 215
39 127 215
40 127 215
41 128 215
42 128 215
43 129 215
44 129 215
45 130 215
0 0 0
0 0 0
0 0 0
0 0 0
0 0 0
0 0 0
0 0 0
0 0 0
0 0 0
0 0 0
0 0 0
0 0 0
0 0 0
0 0 0
0 0 0
0 0 0
0 0 0
0 0 0
0 0 0
0 0 0
0 0 0
0 0 0
0 0 0
0 0 0
0 0 0
0 0 0
0 0 0
0 0 0
0 0 0
0 0 0
0 0 0
0 0 0
0 0 0
0 0 0
0 0 0
0 0 0
0 0 0
0 0 0
0 0 0
0 0 0
0 0 0
0 0 0
0 0 0
0 0 0
0 0 0
0 0 0
0 0 0
0 0 0
0 0 0
0 0 0
0 0 0
0 0 0
0 0 0
0 0 0
0 0 0
0 0 0
0 0 0
0 0 0
0 0 0
0 0 0
0 0 0
0 0 0
0 0 0
0 0 0
0 0 0
0 0 0
0 0 0
0 0 0
0 0 0
0 0 0
0 0 0
0 0 0
0 0 0
0 0 0
0 0 0
0 0 0
0 0 0
0 0 0
0 0 0
0 0 0
0 0 0
0 0 0
0 0 0
0 0 0
0 0 0
0 0 0
0 0 0
0 0 0
0 0 0
0 0 0
0 0 0
0 0 0
0 0 0
0 0 0
0 0 0
0 0 0
0 0 0
0 0 0
0 0 0
0 0 0
0 0 0
0 0 0
0 0 0
0 0 0
0 0 0
0 0 0
0 0 0
0 0 0
0 0 0
0 0 0
0 0 0
0 0 0
0 0 0
0 0 0
0 0 0
0 0 0
0 0 0
0 0 0
0 0 0
0 0 0
0 0 0
0 0 0
0 0 0
0 0 0
0 0 0
0 0 0
0 0 0
0 0 0
0 0 0
0 0 0
0 0 0
0 0 0
0 0 0
0 0 0
0 0 0
0 0 0
0 0 0
0 0 0
0 0 0
0 0 0
0 0 0
0 0 0
0 0 0
0 0 0
0 0 0
0 0 0
0 0 0
0 0 0
0 0 0
0 0 0
0 0 0
0 0 0
0 0 0
0 0 0
0 0 0
0 0 0
0 0 0
0 0 0
0 0 0
0 0 0
0 0 0
0 0 0
0 0 0
209 212 215
210 212 215
211 213 215
212 213 215
213 214 215
214 214 215
215 215 215
216 215 215
217 216 215
218 216 215
219 217 215
220 217 215
221 218 215
222 218 215
223 219 215
224 219 215
225 220 215
226 220 215
227 221 215
228 221 215
229 222 215
230 222 215
231 223 215
232 223 215
233 224 215
234 224 215
235 225 215
236 225 215
237 226 215
238 226 215
239 227 215
240 227 215
241 228 215
242 228 215
243 229 215
244 229 215
245 230 215
246 230 215
247 231 215
248 231 215
249 232 215
250 232 215
251 233 215
252 233 215
253 234 215
254 234 215
0 108 216
1 108 216
2 109 216
3 109 216
4 110 216
5 110 216
6 111 216
7 111 216
8 112 216
9 112 216
10 113 216
11 113 216
12 114 216
13 114 216
14 115 216
15 115 216
16 116 216
17 116 216
18 117 216
19 117 216
20 118 216
21 118 216
22 119 216
23 119 216
24 120 216
25 120 216
26 121 216
27 121 216
28 122 216
29 122 216
30 123 216
31 123 216
32 124 216
33 124 216
34 125 216
35 125 216
36 126 216
37 126 216
38 127 216
39 127 216
40 128 216
41 128 216
42 129 216
43 129 216
44 130 216
45 130 216
46 131 216
0 0 0
0 0 0
0 0 0
0 0 0
0 0 0
0 0 0
0 0 0
0 0 0
0 0 0
0 0 0
0 0 0
0 0 0
0 0 0
0 0 0
0 0 0
0 0 0
0 0 0
0 0 0
0 0 0
0 0 0
0 0 0
0 0 0
0 0 0
0 0 0
0 0 0
0 0 0
0 0 0
0 0 0
0 0 0
0 0 0
0 0 0
0 0 0
0 0 0
0 0 0
0 0 0
0 0 0
0 0 0
0 0 0
0 0 0
0 0 0
0 0 0
0 0 0
0 0 0
0 0 0
0 0 0
0 0 0
0 0 0
0 0 0
0 0 0
0 0 0
0 0 0
0 0 0
0 0 0
0 0 0
0 0 0
0 0 0
0 0 0
0 0 0
0 0 0
0 0 0
0 0 0
0 0 0
0 0 0
0 0 0
0 0 0
0 0 0
0 0 0
0 0 0
0 0 0
0 0 0
0 0 0
0 0 0
0 0 0
0 0 0
0 0 0
0 0 0
0 0 0
0 0 0
0 0 0
0 0 0
0 0 0
0 0 0
0 0 0
0 0 0
0 0 0
0 0 0
0 0 0
0 0 0
0 0 0
0 0 0
0 0 0
0 0 0
0 0 0
0 0 0
0 0 0
0 0 0
0 0 0
0 0 0
0 0 0
0 0 0
0 0 0
0 0 0
0 0 0
0 0 0
0 0 0
0 0 0
0 0 0
0 0 0
0 0 0
0 0 0
0 0 0
0 0 0
0 0 0
0 0 0
0 0 0
0 0 0
0 0 0
0 0 0
0 0 0
0 0 0
0 0 0
0 0 0
0 0 0
0 0 0
0 0 0
0 0 0
0 0 0
0 0 0
0 0 0
0 0 0
0 0 0
0 0 0
0 0 0
0 0 0
0 0 0
0 0 0
0 0 0
0 0 0
0 0 0
0 0 0
0 0 0
0 0 0
0 0 0
0 0 0
0 0 0
0 0 0
0 0 0
0 0 0
0 0 0
0 0 0
0 0 0
0 0 0
0 0 0
0 0 0
0 0 0
0 0 0
0 0 0
0 0 0
0 0 0
0 0 0
0 0 0
208 212 216
209 212 216
210 213 216
211 213 216
212 214 216
213 214 216
214 215 216
215 215 216
216 216 216
217 216 216
218 217 216
219 217 216
220 218 216
221 218 216
222 219 216
223 219 216
224 220 216
225 220 216
226 221 216
227 221 216
228 222 216
229 222 216
230 223 216
231 223 216
232 224 216
233 224 216
234 225 216
235 225 216
236 226 216
237 226 216
238 227 216
239 227 216
240 228 216
241 228 216
242 229 216
243 229 216
244 230 216
245 230 216
246 231 216
247 231 216
248 232 216
249 232 216
250 233 216
251 233 216
252 234 216
253 234 216
254 235 216
0 108 217
1 109 217
2 109 217
3 110 217
4 110 217
5 111 217
6 111 217
7 112 217
8 112 217
9 113 217
10 113 217
11 114 217
12 114 217
13 115 217
14 115 217
15 116 217
16 116 217
17 117 217
18 117 217
19 118 217
20 118 217
21 119 217
22 119 217
23 120 217
24 120 217
25 121 217
26 121 217
27 122 217
28 122 217
29 123 217
30 123 217
31 124 217
32 124 217
33 125 217
34 125 217
35 126 217
36 126 217
37 127 217
38 127 217
39 128 217
40 128 217
41 129 217
42 129 217
43 130 217
44 130 217
45 131 217
46 131 217
47 132 217
0 0 0
0 0 0
0 0 0
0 0 0
0 0 0
0 0 0
0 0 0
0 0 0
0 0 0
0 0 0
0 0 0
0 0 0
0 0 0
0 0 0
0 0 0
0 0 0
0 0 0
0 0 0
0 0 0
0 0 0
0 0 0
0 0 0
0 0 0
0 0 0
0 0 0
0 0 0
0 0 0
0 0 0
0 0 0
0 0 0
0 0 0
0 0 0
0 0 0
0 0 0
0 0 0
0 0 0
0 0 0
0 0 0
0 0 0
0 0 0
0 0 0
0 0 0
0 0 0
0 0 0
0 0 0
0 0 0
0 0 0
0 0 0
0 0 0
0 0 0
0 0 0
0 0 0
0 0 0
0 0 0
0 0 0
0 0 0
0 0 0
0 0 0
0 0 0
0 0 0
0 0 0
0 0 0
0 0 0
0 0 0
0 0 0
0 0 0
0 0 0
0 0 0
0 0 0
0 0 0
0 0 0
0 0 0
0 0 0
0 0 0
0 0 0
0 0 0
0 0 0
0 0 0
0 0 0
0 0 0
0 0 0
0 0 0
0 0 0
0 0 0
0 0 0
0 0 0
0 0 0
0 0 0
0 0 0
0 0 0
0 0 0
0 0 0
0 0 0
0 0 0
0 0 0
0 0 0
0 0 0
0 0 0
0 0 0
0 0 0
0 0 0
0 0 0
0 0 0
0 0 0
0 0 0
0 0 0
0 0 0
0 0 0
0 0 0
0 0 0
0 0 0
0 0 0
0 0 0
0 0 0
0 0 0
0 0 0
0 0 0
0 0 0
0 0 0
0 0 0
0 0 0
0 0 0
0 0 0
0 0 0
0 0 0
0 0 0
0 0 0
0 0 0
0 0 0
0 0 0
0 0 0
0 0 0
0 0 0
0 0 0
0 0 0
0 0 0
0 0 0
0 0 0
0 0 0
0 0 0
0 0 0
0 0 0
0 0 0
0 0 0
0 0 0
0 0 0
0 0 0
0 0 0
0 0 0
0 0 0
0 0 0
0 0 0
0 0 0
0 0 0
0 0 0
0 0 0
0 0 0
0 0 0
0 0 0
207 212 217
208 212 217
209 213 217
210 213 217
211 214 217
212 214 217
213 215 217
214 215 217
215 216 217
216 216 217
217 217 217
218 217 217
219 218 217
220 218 217
221 219 217
222 219 217
223 220 217
224 220 217
225 221 217
226 221 217
227 222 217
228 222 217
229 223 217
230 223 217
231 224 217
232 224 217
233 225 217
234 225 217
235 226 217
236 226 217
237 227 217
238 227 217
239 228 217
240 228 217
241 229 217
242 229 217
243 230 217
244 230 217
245 231 217
246 231 217
247 232 217
248 232 217
249 233 217
250 233 217
251 234 217
252 234 217
253 235 217
254 235 217
0 109 218
1 109 218
2 110 218
3 110 218
4 111 218
5 111 218
6 112 218
7 112 218
8 113 218
9 113 218
10 114 218
11 114 218
12 115 218
13 115 218
14 116 218
15 116 218
16 117 218
17 117 218
18 118 218
19 118 218
20 119 218
21 119 218
22 120 218
23 120 218
24 121 218
25 121 218
26 122 218
27 122 218
28 123 218
29 123 218
30 124 218
31 124 218
32 125 218
33 125 218
34 126 218
35 126 218
36 127 218
37 127 218
38 128 218
39 128 218
40 129 218
41 129 218
42 130 218
43 130 218
44 131 218
45 131 218
46 132 218
47 132 218
48 133 218
0 0 0
0 0 0
0 0 0
0 0 0
0 0 0
0 0 0
0 0 0
0 0 0
0 0 0
0 0 0
0 0 0
0 0 0
0 0 0
0 0 0
0 0 0
0 0 0
0 0 0
0 0 0
0 0 0
0 0 0
0 0 0
0 0 0
0 0 0
0 0 0
0 0 0
0 0 0
0 0 0
0 0 0
0 0 0
0 0 0
0 0 0
0 0 0
0 0 0
0 0 0
0 0 0
0 0 0
0 0 0
0 0 0
0 0 0
0 0 0
0 0 0
0 0 0
0 0 0
0 0 0
0 0 0
0 0 0
0 0 0
0 0 0
0 0 0
0 0 0
0 0 0
0 0 0
0 0 0
0 0 0
0 0 0
0 0 0
0 0 0
0 0 0
0 0 0
0 0 0
0 0 0
0 0 0
0 0 0
0 0 0
0 0 0
0 0 0
0 0 0
0 0 0
0 0 0
0 0 0
0 0 0
0 0 0
0 0 0
0 0 0
0 0 0
0 0 0
0 0 0
0 0 0
0 0 0
0 0 0
0 0 0
0 0 0
0 0 0
0 0 0
0 0 0
0 0 0
0 0 0
0 0 0
0 0 0
0 0 0
0 0 0
0 0 0
0 0 0
0 0 0
0 0 0
0 0 0
0 0 0
0 0 0
0 0 0
0 0 0
0 0 0
0 0 0
0 0 0
0 0 0
0 0 0
0 0 0
0 0 0
0 0 0
0 0 0
0 0 0
0 0 0
0 0 0
0 0 0
0 0 0
0 0 0
0 0 0
0 0 0
0 0 0
0 0 0
0 0 0
0 0 0
0 0 0
0 0 0
0 0 0
0 0 0
0 0 0
0 0 0
0 0 0
0 0 0
0 0 0
0 0 0
0 0 0
0 0 0
0 0 0
0 0 0
0 0 0
0 0 0
0 0 0
0 0 0
0 0 0
0 0 0
0 0 0
0 0 0
0 0 0
0 0 0
0 0 0
0 0 0
0 0 0
0 0 0
0 0 0
0 0 0
0 0 0
0 0 0
0 0 0
0 0 0
0 0 0
0 0 0
206 212 218
207 212 218
208 213 218
209 213 218
210 214 218
211 214 218
212 215 218
213 215 218
214 216 218
215 216 218
216 217 218
217 217 218
218 218 218
219 218 218
220 219 218
221 219 218
222 220 218
223 220 218
224 221 218
225 221 218
226 222 218
227 222 218
228 223 218
229 223 218
230 224 218
231 224 218
232 225 218
233 225 218
234 226 218
235 226 218
236 227 218
237 227 218
238 228 218
239 228 218
240 229 218
241 229 218
242 230 218
243 230 218
244 231 218
245 231 218
246 232 218
247 232 218
248 233 218
249 233 218
250 234 218
251 234 218
252 235 218
253 235 218
254 236 218
0 109 219
1 110 219
2 110 219
3 111 219
4 111 219
5 112 219
6 112 219
7 113 219
8 113 219
9 114 219
10 114 219
11 115 219
12 115 219
13 116 219
14 116 219
15 117 219
16 117 219
17 118 219
18 118 219
19 119 219
20 119 219
21 120 219
22 120 219
23 121 219
24 121 219
25 122 219
26 122 219
27 123 219
28 123 219
29 124 219
30 124 219
31 125 219
32 125 219
33 126 219
34 126 219
35 127 219
36 127 219
37 128 219
38 128 219
39 129 219
40 129 219
41 130 219
42 130 219
43 131 219
44 131 219
45 132 219
46 132 219
47 133 219
48 133 219
49 134 219
0 0 0
0 0 0
0 0 0
0 0 0
0 0 0
0 0 0
0 0 0
0 0 0
0 0 0
0 0 0
0 0 0
0 0 0
0 0 0
0 0 0
0 0 0
0 0 0
0 0 0
0 0 0
0 0 0
0 0 0
0 0 0
0 0 0
0 0 0
0 0 0
0 0 0
0 0 0
0 0 0
0 0 0
0 0 0
0 0 0
0 0 0
0 0 0
0 0 0
0 0 0
0 0 0
0 0 0
0 0 0
0 0 0
0 0 0
0 0 0
0 0 0
0 0 0
0 0 0
0 0 0
0 0 0
0 0 0
0 0 0
0 0 0
0 0 0
0 0 0
0 0 0
0 0 0
0 0 0
0 0 0
0 0 0
0 0 0
0 0 0
0 0 0
0 0 0
0 0 0
0 0 0
0 0 0
0 0 0
0 0 0
0 0 0
0 0 0
0 0 0
0 0 0
0 0 0
0 0 0
0 0 0
0 0 0
0 0 0
0 0 0
0 0 0
0 0 0
0 0 0
0 0 0
0 0 0
0 0 0
0 0 0
0 0 0
0 0 0
0 0 0
0 0 0
0 0 0
0 0 0
0 0 0
0 0 0
0 0 0
0 0 0
0 0 0
0 0 0
0 0 0
0 0 0
0 0 0
0 0 0
0 0 0
0 0 0
0 0 0
0 0 0
0 0 0
0 0 0
0 0 0
0 0 0
0 0 0
0 0 0
0 0 0
0 0 0
0 0 0
0 0 0
0 0 0
0 0 0
0 0 0
0 0 0
0 0 0
0 0 0
0 0 0
0 0 0
0 0 0
0 0 0
0 0 0
0 0 0
0 0 0
0 0 0
0 0 0
0 0 0
0 0 0
0 0 0
0 0 0
0 0 0
0 0 0
0 0 0
0 0 0
0 0 0
0 0 0
0 0 0
0 0 0
0 0 0
0 0 0
0 0 0
0 0 0
0 0 0
0 0 0
0 0 0
0 0 0
0 0 0
0 0 0
0 0 0
0 0 0
0 0 0
0 0 0
0 0 0
0 0 0
0 0 0
205 212 219
206 212 219
207 213 219
208 213 219
209 214 219
210 214 219
211 215 219
212 215 219
213 216 219
214 216 219
215 217 219
216 217 219
217 218 219
218 218 219
219 219 219
220 219 219
221 220 219
222 220 219
223 221 219
224 221 219
225 222 219
226 222 219
227 223 219
228 223 219
229 224 219
230 224 219
231 225 219
232 225 219
233 226 219
234 226 219
235 227 219
236 227 219
237 228 219
238 228 219
239 229 219
240 229 219
241 230 219
242 230 219
243 231 219
244 231 219
245 232 219
246 232 219
247 233 219
248 233 219
249 234 219
250 234 219
251 235 219
252 235 219
253 236 219
254 236 219
0 110 220
1 110 220
2 111 220
3 111 220
4 112 220
5 112 220
6 113 220
7 113 220
8 114 220
9 114 220
10 115 220
11 115 220
12 116 220
13 116 220
14 117 220
15 117 220
16 118 220
17 118 220
18 119 220
19 119 220
20 120 220
21 120 220
22 121 220
23 121 220
24 122 220
25 122 220
26 123 220
27 123 220
28 124 220
29 124 220
30 125 220
31 125 220
32 126 220
33 126 220
34 127 220
35 127 220
36 128 220
37 128 220
38 129 220
39 129 220
40 130 220
41 130 220
42 131 220
43 131 220
44 132 220
45 132 220
46 133 220
47 133 220
48 134 220
49 134 220
50 135 220
51 135 220
0 0 0
0 0 0
0 0 0
0 0 0
0 0 0
0 0 0
0 0 0
0 0 0
0 0 0
0 0 0
0 0 0
0 0 0
0 0 0
0 0 0
0 0 0
0 0 0
0 0 0
0 0 0
0 0 0
0 0 0
0 0 0
0 0 0
0 0 0
0 0 0
0 0 0
0 0 0
0 0 0
0 0 0
0 0 0
0 0 0
0 0 0
0 0 0
0 0 0
0 0 0
0 0 0
0 0 0
0 0 0
0 0 0
0 0 0
0 0 0
0 0 0
0 0 0
0 0 0
0 0 0
0 0 0
0 0 0
0 0 0
0 0 0
0 0 0
0 0 0
0 0 0
0 0 0
0 0 0
0 0 0
0 0 0
0 0 0
0 0 0
0 0 0
0 0 0
0 0 0
0 0 0
0 0 0
0 0 0
0 0 0
0 0 0
0 0 0
0 0 0
0 0 0
0 0 0
0 0 0
0 0 0
0 0 0
0 0 0
0 0 0
0 0 0
0 0 0
0 0 0
0 0 0
0 0 0
0 0 0
0 0 0
0 0 0
0 0 0
0 0 0
0 0 0
0 0 0
0 0 0
0 0 0
0 0 0
0 0 0
0 0 0
0 0 0
0 0 0
0 0 0
0 0 0
0 0 0
0 0 0
0 0 0
0 0 0
0 0 0
0 0 0
0 0 0
0 0 0
0 0 0
0 0 0
0 0 0
0 0 0
0 0 0
0 0 0
0 0 0
0 0 0
0 0 0
0 0 0
0 0 0
0 0 0
0 0 0
0 0 0
0 0 0
0 0 0
0 0 0
0 0 0
0 0 0
0 0 0
0 0 0
0 0 0
0 0 0
0 0 0
0 0 0
0 0 0
0 0 0
0 0 0
0 0 0
0 0 0
0 0 0
0 0 0
0 0 0
0 0 0
0 0 0
0 0 0
0 0 0
0 0 0
0 0 0
0 0 0
0 0 0
0 0 0
0 0 0
0 0 0
0 0 0
0 0 0
0 0 0
0 0 0
203 211 220
204 212 220
205 212 220
206 213 220
207 213 220
208 214 220
209 214 220
210 215 220
211 215 220
212 216 220
213 216 220
214 217 220
215 217 220
216 218 220
217 218 220
218 219 220
219 219 220
220 220 220
221 220 220
222 221 220
223 221 220
224 222 220
225 222 220
226 223 220
227 223 220
228 224 220
229 224 220
230 225 220
231 225 220
232 226 220
233 226 220
234 227 220
235 227 220
236 228 220
237 228 220
238 229 220
239 229 220
240 230 220
241 230 220
242 231 220
243 231 220
244 232 220
245 232 220
246 233 220
247 233 220
248 234 220
249 234 220
250 235 220
251 235 220
252 236 220
253 236 220
254 237 220
0 110 221
1 111 221
2 111 221
3 112 221
4 112 221
5 113 221
6 113 221
7 114 221
8 114 221
9 115 221
10 115 221
11 116 221
12 116 221
13 117 221
14 117 221
15 118 221
16 118 221
17 119 221
18 119 221
19 120 221
20 120 221
21 121 221
22 121 221
23 122 221
24 122 221
25 123 221
26 123 221
27 124 221
28 124 221
29 125 221
30 125 221
31 126 221
32 126 221
33 127 221
34 127 221
35 128 221
36 128 221
37 129 221
38 129 221
39 130 221
40 130 221
41 131 221
42 131 221
43 132 221
44 132 221
45 133 221
46 133 221
47 134 221
48 134 221
49 135 221
50 135 221
51 136 221
52 136 221
0 0 0
0 0 0
0 0 0
0 0 0
0 0 0
0 0 0
0 0 0
0 0 0
0 0 0
0 0 0
0 0 0
0 0 0
0 0 0
0 0 0
0 0 0
0 0 0
0 0 0
0 0 0
0 0 0
0 0 0
0 0 0
0 0 0
0 0 0
0 0 0
0 0 0
0 0 0
0 0 0
0 0 0
0 0 0
0 0 0
0 0 0
0 0 0
0 0 0
0 0 0
0 0 0
0 0 0
0 0 0
0 0 0
0 0 0
0 0 0
0 0 0
0 0 0
0 0 0
0 0 0
0 0 0
0 0 0
0 0 0
0 0 0
0 0 0
0 0 0
0 0 0
0 0 0
0 0 0
0 0 0
0 0 0
0 0 0
0 0 0
0 0 0
0 0 0
0 0 0
0 0 0
0 0 0
0 0 0
0 0 0
0 0 0
0 0 0
0 0 0
0 0 0
0 0 0
0 0 0
0 0 0
0 0 0
0 0 0
0 0 0
0 0 0
0 0 0
0 0 0
0 0 0
0 0 0
0 0 0
0 0 0
0 0 0
0 0 0
0 0 0
0 0 0
0 0 0
0 0 0
0 0 0
0 0 0
0 0 0
0 0 0
0 0 0
0 0 0
0 0 0
0 0 0
0 0 0
0 0 0
0 0 0
0 0 0
0 0 0
0 0 0
0 0 0
0 0 0
0 0 0
0 0 0
0 0 0
0 0 0
0 0 0
0 0 0
0 0 0
0 0 0
0 0 0
0 0 0
0 0 0
0 0 0
0 0 0
0 0 0
0 0 0
0 0 0
0 0 0
0 0 0
0 0 0
0 0 0
0 0 0
0 0 0
0 0 0
0 0 0
0 0 0
0 0 0
0 0 0
0 0 0
0 0 0
0 0 0
0 0 0
0 0 0
0 0 0
0 0 0
0 0 0
0 0 0
0 0 0
0 0 0
0 0 0
0 0 0
0 0 0
0 0 0
0 0 0
0 0 0
0 0 0
0 0 0
202 211 221
203 212 221
204 212 221
205 213 221
206 213 221
207 214 221
208 214 221
209 215 221
210 215 221
211 216 221
212 216 221
213 217 221
214 217 221
215 218 221
216 218 221
217 219 221
218 219 221
219 220 221
220 220 221
221 221 221
222 221 221
223 222 221
224 222 221
225 223 221
226 223 221
227 224 221
228 224 221
229 225 221
230 225 221
231 226 221
232 226 221
233 227 221
234 227 221
235 228 221
236 228 221
237 229 221
238 229 221
239 230 221
240 230 221
241 231 221
242 231 221
243 232 221
244 232 221
245 233 221
246 233 221
247 234 221
248 234 221
249 235 221
250 235 221
251 236 221
252 236 221
253 237 221
254 237 221
0 111 222
1 111 222
2 112 222
3 112 222
4 113 222
5 113 222
6 114 222
7 114 222
8 115 222
9 115 222
10 116 222
11 116 222
12 117 222
13 117 222
14 118 222
15 118 222
16 119 222
17 119 222
18 120 222
19 120 222
20 121 222
21 121 222
22 122 222
23 122 222
24 123 222
25 123 222
26 124 222
27 124 222
28 125 222
29 125 222
30 126 222
31 126 222
32 127 222
33 127 222
34 128 222
35 128 222
36 129 222
37 129 222
38 130 222
39 130 222
40 131 222
41 131 222
42 132 222
43 132 222
44 133 222
45 133 222
46 134 222
47 134 222
48 135 222
49 135 222
50 136 222
51 136 222
52 137 222
53 137 222
0 0 0
0 0 0
0 0 0
0 0 0
0 0 0
0 0 0
0 0 0
0 0 0
0 0 0
0 0 0
0 0 0
0 0 0
0 0 0
0 0 0
0 0 0
0 0 0
0 0 0
0 0 0
0 0 0
0 0 0
0 0 0
0 0 0
0 0 0
0 0 0
0 0 0
0 0 0
0 0 0
0 0 0
0 0 0
0 0 0
0 0 0
0 0 0
0 0 0
0 0 0
0 0 0
0 0 0
0 0 0
0 0 0
0 0 0
0 0 0
0 0 0
0 0 0
0 0 0
0 0 0
0 0 0
0 0 0
0 0 0
0 0 0
0 0 0
0 0 0
0 0 0
0 0 0
0 0 0
0 0 0
0 0 0
0 0 0
0 0 0
0 0 0
0 0 0
0 0 0
0 0 0
0 0 0
0 0 0
0 0 0
0 0 0
0 0 0
0 0 0
0 0 0
0 0 0
0 0 0
0 0 0
0 0 0
0 0 0
0 0 0
0 0 0
0 0 0
0 0 0
0 0 0
0 0 0
0 0 0
0 0 0
0 0 0
0 0 0
0 0 0
0 0 0
0 0 0
0 0 0
0 0 0
0 0 0
0 0 0
0 0 0
0 0 0
0 0 0
0 0 0
0 0 0
0 0 0
0 0 0
0 0 0
0 0 0
0 0 0
0 0 0
0 0 0
0 0 0
0 0 0
0 0 0
0 0 0
0 0 0
0 0 0
0 0 0
0 0 0
0 0 0
0 0 0
0 0 0
0 0 0
0 0 0
0 0 0
0 0 0
0 0 0
0 0 0
0 0 0
0 0 0
0 0 0
0 0 0
0 0 0
0 0 0
0 0 0
0 0 0
0 0 0
0 0 0
0 0 0
0 0 0
0 0 0
0 0 0
0 0 0
0 0 0
0 0 0
0 0 0
0 0 0
0 0 0
0 0 0
0 0 0
0 0 0
0 0 0
0 0 0
0 0 0
0 0 0
0 0 0
201 211 222
202 212 222
203 212 222
204 213 222
205 213 222
206 214 222
207 214 222
208 215 222
209 215 222
210 216 222
211 216 222
212 217 222
213 217 222
214 218 222
215 218 222
216 219 222
217 219 222
218 220 222
219 220 222
220 221 222
221 221 222
222 222 222
223 222 222
224 223 222
225 223 222
226 224 222
227 224 222
228 225 222
229 225 222
230 226 222
231 226 222
232 227 222
233 227 222
234 228 222
235 228 222
236 229 222
237 229 222
238 230 222
239 230 222
240 231 222
241 231 222
242 232 222
243 232 222
244 233 222
245 233 222
246 234 222
247 234 222
248 235 222
249 235 222
250 236 222
251 236 222
252 237 222
253 237 222
254 238 222
0 111 223
1 112 223
2 112 223
3 113 223
4 113 223
5 114 223
6 114 223
7 115 223
8 115 223
9 116 223
10 116 223
11 117 223
12 117 223
13 118 223
14 118 223
15 119 223
16 119 223
17 120 223
18 120 223
19 121 223
20 121 223
21 122 223
22 122 223
23 123 223
24 123 223
25 124 223
26 124 223
27 125 223
28 125 223
29 126 223
30 126 223
31 127 223
32 127 223
33 128 223
34 128 223
35 129 223
36 129 223
37 130 223
38 130 223
39 131 223
40 131 223
41 132 223
42 132 223
43 133 223
44 133 223
45 134 223
46 134 223
47 135 223
48 135 223
49 136 223
50 136 223
51 137 223
52 137 223
53 138 223
54 138 223
55 139 223
0 0 0
0 0 0
0 0 0
0 0 0
0 0 0
0 0 0
0 0 0
0 0 0
0 0 0
0 0 0
0 0 0
0 0 0
0 0 0
0 0 0
0 0 0
0 0 0
0 0 0
0 0 0
0 0 0
0 0 0
0 0 0
0 0 0
0 0 0
0 0 0
0 0 0
0 0 0
0 0 0
0 0 0
0 0 0
0 0 0
0 0 0
0 0 0
0 0 0
0 0 0
0 0 0
0 0 0
0 0 0
0 0 0
0 0 0
0 0 0
0 0 0
0 0 0
0 0 0
0 0 0
0 0 0
0 0 0
0 0 0
0 0 0
0 0 0
0 0 0
0 0 0
0 0 0
0 0 0
0 0 0
0 0 0
0 0 0
0 0 0
0 0 0
0 0 0
0 0 0
0 0 0
0 0 0
0 0 0
0 0 0
0 0 0
0 0 0
0 0 0
0 0 0
0 0 0
0 0 0
0 0 0
0 0 0
0 0 0
0 0 0
0 0 0
0 0 0
0 0 0
0 0 0
0 0 0
0 0 0
0 0 0
0 0 0
0 0 0
0 0 0
0 0 0
0 0 0
0 0 0
0 0 0
0 0 0
0 0 0
0 0 0
0 0 0
0 0 0
0 0 0
0 0 0
0 0 0
0 0 0
0 0 0
0 0 0
0 0 0
0 0 0
0 0 0
0 0 0
0 0 0
0 0 0
0 0 0
0 0 0
0 0 0
0 0 0
0 0 0
0 0 0
0 0 0
0 0 0
0 0 0
0 0 0
0 0 0
0 0 0
0 0 0
0 0 0
0 0 0
0 0 0
0 0 0
0 0 0
0 0 0
0 0 0
0 0 0
0 0 0
0 0 0
0 0 0
0 0 0
0 0 0
0 0 0
0 0 0
0 0 0
0 0 0
0 0 0
0 0 0
0 0 0
0 0 0
0 0 0
0 0 0
0 0 0
0 0 0
199 211 223
200 211 223
201 212 223
202 212 223
203 213 223
204 213 223
205 214 223
206 214 223
207 215 223
208 215 223
209 216 223
210 216 223
211 217 223
212 217 223
213 218 223
214 218 223
215 219 223
216 219 223
217 220 223
218 220 223
219 221 223
220 221 223
221 222 223
222 222 223
223 223 223
224 223 223
225 224 223
226 224 223
227 225 223
228 225 223
229 226 223
230 226 223
231 227 223
232 227 223
233 228 223
234 228 223
235 229 223
236 229 223
237 230 223
238 230 223
239 231 223
240 231 223
241 232 223
242 232 223
243 233 223
244 233 223
245 234 223
246 234 223
247 235 223
248 235 223
249 236 223
250 236 223
251 237 223
252 237 223
253 238 223
254 238 223
0 112 224
1 112 224
2 113 224
3 113 224
4 114 224
5 114 224
6 115 224
7 115 224
8 116 224
9 116 224
10 117 224
11 117 224
12 118 224
13 118 224
14 119 224
15 119 224
16 120 224
17 120 224
18 121 224
19 121 224
20 122 224
21 122 224
22 123 224
23 123 224
24 124 224
25 124 224
26 125 224
27 125 224
28 126 224
29 126 224
30 127 224
31 127 224
32 128 224
33 128 224
34 129 224
35 129 224
36 130 224
37 130 224
38 131 224
39 131 224
40 132 224
41 132 224
42 133 224
43 133 224
44 134 224
45 134 224
46 135 224
47 135 224
48 136 224
49 136 224
50 137 224
51 137 224
52 138 224
53 138 224
54 139 224
55 139 224
56 140 224
0 0 0
0 0 0
0 0 0
0 0 0
0 0 0
0 0 0
0 0 0
0 0 0
0 0 0
0 0 0
0 0 0
0 0 0
0 0 0
0 0 0
0 0 0
0 0 0
0 0 0
0 0 0
0 0 0
0 0 0
0 0 0
0 0 0
0 0 0
0 0 0
0 0 0
0 0 0
0 0 0
0 0 0
0 0 0
0 0 0
0 0 0
0 0 0
0 0 0
0 0 0
0 0 0
0 0 0
0 0 0
0 0 0
0 0 0
0 0 0
0 0 0
0 0 0
0 0 0
0 0 0
0 0 0
0 0 0
0 0 0
0 0 0
0 0 0
0 0 0
0 0 0
0 0 0
0 0 0
0 0 0
0 0 0
0 0 0
0 0 0
0 0 0
0 0 0
0 0 0
0 0 0
0 0 0
0 0 0
0 0 0
0 0 0
0 0 0
0 0 0
0 0 0
0 0 0
0 0 0
0 0 0
0 0 0
0 0 0
0 0 0
0 0 0
0 0 0
0 0 0
0 0 0
0 0 0
0 0 0
0 0 0
0 0 0
0 0 0
0 0 0
0 0 0
0 0 0
0 0 0
0 0 0
0 0 0
0 0 0
0 0 0
0 0 0
0 0 0
0 0 0
0 0 0
0 0 0
0 0 0
0 0 0
0 0 0
0 0 0
0 0 0
0 0 0
0 0 0
0 0 0
0 0 0
0 0 0
0 0 0
0 0 0
0 0 0
0 0 0
0 0 0
0 0 0
0 0 0
0 0 0
0 0 0
0 0 0
0 0 0
0 0 0
0 0 0
0 0 0
0 0 0
0 0 0
0 0 0
0 0 0
0 0 0
0 0 0
0 0 0
0 0 0
0 0 0
0 0 0
0 0 0
0 0 0
0 0 0
0 0 0
0 0 0
0 0 0
0 0 0
0 0 0
0 0 0
0 0 0
0 0 0
198 211 224
199 211 224
200 212 224
201 212 224
202 213 224
203 213 224
204 214 224
205 214 224
206 215 224
207 215 224
208 216 224
209 216 224
210 217 224
211 217 224
212 218 224
213 218 224
214 219 224
215 219 224
216 220 224
217 220 224
218 221 224
219 221 224
220 222 224
221 222 224
222 223 224
223 223 224
224 224 224
225 224 224
226 225 224
227 225 224
228 226 224
229 226 224
230 227 224
231 227 224
232 228 224
233 228 224
234 229 224
235 229 224
236 230 224
237 230 224
238 231 224
239 231 224
240 232 224
241 232 224
242 233 224
243 233 224
244 234 224
245 234 224
246 235 224
247 235 224
248 236 224
249 236 224
250 237 224
251 237 224
252 238 224
253 238 224
254 239 224
0 112 225
1 113 225
2 113 225
3 114 225
4 114 225
5 115 225
6 115 225
7 116 225
8 116 225
9 117 225
10 117 225
11 118 225
12 118 225
13 119 225
14 119 225
15 120 225
16 120 225
17 121 225
18 121 225
19 122 225
20 122 225
21 123 225
22 123 225
23 124 225
24 124 225
25 125 225
26 125 225
27 126 225
28 126 225
29 127 225
30 127 225
31 128 225
32 128 225
33 129 225
34 129 225
35 130 225
36 130 225
37 131 225
38 131 225
39 132 225
40 132 225
41 133 225
42 133 225
43 134 225
44 134 225
45 135 225
46 135 225
47 136 225
48 136 225
49 137 225
50 137 225
51 138 225
52 138 225
53 139 225
54 139 225
55 140 225
56 140 225
57 141 225
0 0 0
0 0 0
0 0 0
0 0 0
0 0 0
0 0 0
0 0 0
0 0 0
0 0 0
0 0 0
0 0 0
0 0 0
0 0 0
0 0 0
0 0 0
0 0 0
0 0 0
0 0 0
0 0 0
0 0 0
0 0 0
0 0 0
0 0 0
0 0 0
0 0 0
0 0 0
0 0 0
0 0 0
0 0 0
0 0 0
0 0 0
0 0 0
0 0 0
0 0 0
0 0 0
0 0 0
0 0 0
0 0 0
0 0 0
0 0 0
0 0 0
0 0 0
0 0 0
0 0 0
0 0 0
0 0 0
0 0 0
0 0 0
0 0 0
0 0 0
0 0 0
0 0 0
0 0 0
0 0 0
0 0 0
0 0 0
0 0 0
0 0 0
0 0 0
0 0 0
0 0 0
0 0 0
0 0 0
0 0 0
0 0 0
0 0 0
0 0 0
0 0 0
0 0 0
0 0 0
0 0 0
0 0 0
0 0 0
0 0 0
0 0 0
0 0 0
0 0 0
0 0 0
0 0 0
0 0 0
0 0 0
0 0 0
0 0 0
0 0 0
0 0 0
0 0 0
0 0 0
0 0 0
0 0 0
0 0 0
0 0 0
0 0 0
0 0 0
0 0 0
0 0 0
0 0 0
0 0 0
0 0 0
0 0 0
0 0 0
0 0 0
0 0 0
0 0 0
0 0 0
0 0 0
0 0 0
0 0 0
0 0 0
0 0 0
0 0 0
0 0 0
0 0 0
0 0 0
0 0 0
0 0 0
0 0 0
0 0 0
0 0 0
0 0 0
0 0 0
0 0 0
0 0 0
0 0 0
0 0 0
0 0 0
0 0 0
0 0 0
0 0 0
0 0 0
0 0 0
0 0 0
0 0 0
0 0 0
0 0 0
0 0 0
0 0 0
0 0 0
0 0 0
0 0 0
197 211 225
198 211 225
199 212 225
200 212 225
201 213 225
202 213 225
203 214 225
204 214 225
205 215 225
206 215 225
207 216 225
208 216 225
209 217 225
210 217 225
211 218 225
212 218 225
213 219 225
214 219 225
215 220 225
216 220 225
217 221 225
218 221 225
219 222 225
220 222 225
221 223 225
222 223 225
223 224 225
224 224 225
225 225 225
226 225 225
227 226 225
228 226 225
229 227 225
230 227 225
231 228 225
232 228 225
233 229 225
234 229 225
235 230 225
236 230 225
237 231 225
238 231 225
239 232 225
240 232 225
241 233 225
242 233 225
243 234 225
244 234 225
245 235 225
246 235 225
247 236 225
248 236 225
249 237 225
250 237 225
251 238 225
252 238 225
253 239 225
254 239 225
0 113 226
1 113 226
2 114 226
3 114 226
4 115 226
5 115 226
6 116 226
7 116 226
8 117 226
9 117 226
10 118 226
11 118 226
12 119 226
13 119 226
14 120 226
15 120 226
16 121 226
17 121 226
18 122 226
19 122 226
20 123 226
21 123 226
22 124 226
23 124 226
24 125 226
25 125 226
26 126 226
27 126 226
28 127 226
29 127 226
30 128 226
31 128 226
32 129 226
33 129 226
34 130 226
35 130 226
36 131 226
37 131 226
38 132 226
39 132 226
40 133 226
41 133 226
42 134 226
43 134 226
44 135 226
45 135 226
46 136 226
47 136 226
48 137 226
49 137 226
50 138 226
51 138 226
52 139 226
53 139 226
54 140 226
55 140 226
56 141 226
57 141 226
58 142 226
59 142 226
0 0 0
0 0 0
0 0 0
0 0 0
0 0 0
0 0 0
0 0 0
0 0 0
0 0 0
0 0 0
0 0 0
0 0 0
0 0 0
0 0 0
0 0 0
0 0 0
0 0 0
0 0 0
0 0 0
0 0 0
0 0 0
0 0 0
0 0 0
0 0 0
0 0 0
0 0 0
0 0 0
0 0 0
0 0 0
0 0 0
0 0 0
0 0 0
0 0 0
0 0 0
0 0 0
0 0 0
0 0 0
0 0 0
0 0 0
0 0 0
0 0 0
0 0 0
0 0 0
0 0 0
0 0 0
0 0 0
0 0 0
0 0 0
0 0 0
0 0 0
0 0 0
0 0 0
0 0 0
0 0 0
0 0 0
0 0 0
0 0 0
0 0 0
0 0 0
0 0 0
0 0 0
0 0 0
0 0 0
0 0 0
0 0 0
0 0 0
0 0 0
0 0 0
0 0 0
0 0 0
0 0 0
0 0 0
0 0 0
0 0 0
0 0 0
0 0 0
0 0 0
0 0 0
0 0 0
0 0 0
0 0 0
0 0 0
0 0 0
0 0 0
0 0 0
0 0 0
0 0 0
0 0 0
0 0 0
0 0 0
0 0 0
0 0 0
0 0 0
0 0 0
0 0 0
0 0 0
0 0 0
0 0 0
0 0 0
0 0 0
0 0 0
0 0 0
0 0 0
0 0 0
0 0 0
0 0 0
0 0 0
0 0 0
0 0 0
0 0 0
0 0 0
0 0 0
0 0 0
0 0 0
0 0 0
0 0 0
0 0 0
0 0 0
0 0 0
0 0 0
0 0 0
0 0 0
0 0 0
0 0 0
0 0 0
0 0 0
0 0 0
0 0 0
0 0 0
0 0 0
0 0 0
0 0 0
0 0 0
0 0 0
0 0 0
195 210 226
196 211 226
197 211 226
198 212 226
199 212 226
200 213 226
201 213 226
202 214 226
203 214 226
204 215 226
205 215 226
206 216 226
207 216 226
208 217 226
209 217 226
210 218 226
211 218 226
212 219 226
213 219 226
214 220 226
215 220 226
216 221 226
217 221 226
218 222 226
219 222 226
220 223 226
221 223 226
222 224 226
223 224 226
224 225 226
225 225 226
226 226 226
227 226 226
228 227 226
229 227 226
230 228 226
231 228 226
232 229 226
233 229 226
234 230 226
235 230 226
236 231 226
237 231 226
238 232 226
239 232 226
240 233 226
241 233 226
242 234 226
243 234 226
244 235 226
245 235 226
246 236 226
247 236 226
248 237 226
249 237 226
250 238 226
251 238 226
252 239 226
253 239 226
254 240 226
0 113 227
1 114 227
2 114 227
3 115 227
4 115 227
5 116 227
6 116 227
7 117 227
8 117 227
9 118 227
10 118 227
11 119 227
12 119 227
13 120 227
14 120 227
15 121 227
16 121 227
17 122 227
18 122 227
19 123 227
20 123 227
21 124 227
22 124 227
23 125 227
24 125 227
25 126 227
26 126 227
27 127 227
28 127 227
29 128 227
30 128 227
31 129 227
32 129 227
33 130 227
34 130 227
35 131 227
36 131 227
37 132 227
38 132 227
39 133 227
40 133 227
41 134 227
42 134 227
43 135 227
44 135 227
45 136 227
46 136 227
47 137 227
48 137 227
49 138 227
50 138 227
51 139 227
52 139 227
53 140 227
54 140 227
55 141 227
56 141 227
57 142 227
58 142 227
59 143 227
60 143 227
0 0 0
0 0 0
0 0 0
0 0 0
0 0 0
0 0 0
0 0 0
0 0 0
0 0 0
0 0 0
0 0 0
0 0 0
0 0 0
0 0 0
0 0 0
0 0 0
0 0 0
0 0 0
0 0 0
0 0 0
0 0 0
0 0 0
0 0 0
0 0 0
0 0 0
0 0 0
0 0 0
0 0 0
0 0 0
0 0 0
0 0 0
0 0 0
0 0 0
0 0 0
0 0 0
0 0 0
0 0 0
0 0 0
0 0 0
0 0 0
0 0 0
0 0 0
0 0 0
0 0 0
0 0 0
0 0 0
0 0 0
0 0 0
0 0 0
0 0 0
0 0 0
0 0 0
0 0 0
0 0 0
0 0 0
0 0 0
0 0 0
0 0 0
0 0 0
0 0 0
0 0 0
0 0 0
0 0 0
0 0 0
0 0 0
0 0 0
0 0 0
0 0 0
0 0 0
0 0 0
0 0 0
0 0 0
0 0 0
0 0 0
0 0 0
0 0 0
0 0 0
0 0 0
0 0 0
0 0 0
0 0 0
0 0 0
0 0 0
0 0 0
0 0 0
0 0 0
0 0 0
0 0 0
0 0 0
0 0 0
0 0 0
0 0 0
0 0 0
0 0 0
0 0 0
0 0 0
0 0 0
0 0 0
0 0 0
0 0 0
0 0 0
0 0 0
0 0 0
0 0 0
0 0 0
0 0 0
0 0 0
0 0 0
0 0 0
0 0 0
0 0 0
0 0 0
0 0 0
0 0 0
0 0 0
0 0 0
0 0 0
0 0 0
0 0 0
0 0 0
0 0 0
0 0 0
0 0 0
0 0 0
0 0 0
0 0 0
0 0 0
0 0 0
0 0 0
0 0 0
0 0 0
0 0 0
0 0 0
194 210 227
195 211 227
196 211 227
197 212 227
198 212 227
199 213 227
200 213 227
201 214 227
202 214 227
203 215 227
204 215 227
205 216 227
206 216 227
207 217 227
208 217 227
209 218 227
210 218 227
211 219 227
212 219 227
213 220 227
214 220 227
215 221 227
216 221 227
217 222 227
218 222 227
219 223 227
220 223 227
221 224 227
222 224 227
223 225 227
224 225 227
225 226 227
226 226 227
227 227 227
228 227 227
229 228 227
230 228 227
231 229 227
232 229 227
233 230 227
234 230 227
235 231 227
236 231 227
237 232 227
238 232 227
239 233 227
240 233 227
241 234 227
242 234 227
243 235 227
244 235 227
245 236 227
246 236 227
247 237 227
248 237 227
249 238 227
250 238 227
251 239 227
252 239 227
253 240 227
254 240 227
0 114 228
1 114 228
2 115 228
3 115 228
4 116 228
5 116 228
6 117 228
7 117 228
8 118 228
9 118 228
10 119 228
11 119 228
12 120 228
13 120 228
14 121 228
15 121 228
16 122 228
17 122 228
18 123 228
19 123 228
20 124 228
21 124 228
22 125 228
23 125 228
24 126 228
25 126 228
26 127 228
27 127 228
28 128 228
29 128 228
30 129 228
31 129 228
32 130 228
33 130 228
34 131 228
35 131 228
36 132 228
37 132 228
38 133 228
39 133 228
40 134 228
41 134 228
42 135 228
43 135 228
44 136 228
45 136 228
46 137 228
47 137 228
48 138 228
49 138 228
50 139 228
51 139 228
52 140 228
53 140 228
54 141 228
55 141 228
56 142 228
57 142 228
58 143 228
59 143 228
60 144 228
61 144 228
62 145 228
0 0 0
0 0 0
0 0 0
0 0 0
0 0 0
0 0 0
0 0 0
0 0 0
0 0 0
0 0 0
0 0 0
0 0 0
0 0 0
0 0 0
0 0 0
0 0 0
0 0 0
0 0 0
0 0 0
0 0 0
0 0 0
0 0 0
0 0 0
0 0 0
0 0 0
0 0 0
0 0 0
0 0 0
0 0 0
0 0 0
0 0 0
0 0 0
0 0 0
0 0 0
0 0 0
0 0 0
0 0 0
0 0 0
0 0 0
0 0 0
0 0 0
0 0 0
0 0 0
0 0 0
0 0 0
0 0 0
0 0 0
0 0 0
0 0 0
0 0 0
0 0 0
0 0 0
0 0 0
0 0 0
0 0 0
0 0 0
0 0 0
0 0 0
0 0 0
0 0 0
0 0 0
0 0 0
0 0 0
0 0 0
0 0 0
0 0 0
0 0 0
0 0 0
0 0 0
0 0 0
0 0 0
0 0 0
0 0 0
0 0 0
0 0 0
0 0 0
0 0 0
0 0 0
0 0 0
0 0 0
0 0 0
0 0 0
0 0 0
0 0 0
0 0 0
0 0 0
0 0 0
0 0 0
0 0 0
0 0 0
0 0 0
0 0 0
0 0 0
0 0 0
0 0 0
0 0 0
0 0 0
0 0 0
0 0 0
0 0 0
0 0 0
0 0 0
0 0 0
0 0 0
0 0 0
0 0 0
0 0 0
0 0 0
0 0 0
0 0 0
0 0 0
0 0 0
0 0 0
0 0 0
0 0 0
0 0 0
0 0 0
0 0 0
0 0 0
0 0 0
0 0 0
0 0 0
0 0 0
0 0 0
0 0 0
0 0 0
0 0 0
0 0 0
0 0 0
192 210 228
193 210 228
194 211 228
195 211 228
196 212 228
197 212 228
198 213 228
199 213 228
200 214 228
201 214 228
202 215 228
203 215 228
204 216 228
205 216 228
206 217 228
207 217 228
208 218 228
209 218 228
210 219 228
211 219 228
212 220 228
213 220 228
214 221 228
215 221 228
216 222 228
217 222 228
218 223 228
219 223 228
220 224 228
221 224 228
222 225 228
223 225 228
224 226 228
225 226 228
226 227 228
227 227 228
228 228 228
229 228 228
230 229 228
231 229 228
232 230 228
233 230 228
234 231 228
235 231 228
236 232 228
237 232 228
238 233 228
239 233 228
240 234 228
241 234 228
242 235 228
243 235 228
244 236 228
245 236 228
246 237 228
247 237 228
248 238 228
249 238 228
250 239 228
251 239 228
252 240 228
253 240 228
254 241 228
0 114 229
1 115 229
2 115 229
3 116 229
4 116 229
5 117 229
6 117 229
7 118 229
8 118 229
9 119 229
10 119 229
11 120 229
12 120 229
13 121 229
14 121 229
15 122 229
16 122 229
17 123 229
18 123 229
19 124 229
20 124 229
21 125 229
22 125 229
23 126 229
24 126 229
25 127 229
26 127 229
27 128 229
28 128 229
29 129 229
30 129 229
31 130 229
32 130 229
33 131 229
34 131 229
35 132 229
36 132 229
37 133 229
38 133 229
39 134 229
40 134 229
41 135 229
42 135 229
43 136 229
44 136 229
45 137 229
46 137 229
47 138 229
48 138 229
49 139 229
50 139 229
51 140 229
52 140 229
53 141 229
54 141 229
55 142 229
56 142 229
57 143 229
58 143 229
59 144 229
60 144 229
61 145 229
62 145 229
63 146 229
0 0 0
0 0 0
0 0 0
0 0 0
0 0 0
0 0 0
0 0 0
0 0 0
0 0 0
0 0 0
0 0 0
0 0 0
0 0 0
0 0 0
0 0 0
0 0 0
0 0 0
0 0 0
0 0 0
0 0 0
0 0 0
0 0 0
0 0 0
0 0 0
0 0 0
0 0 0
0 0 0
0 0 0
0 0 0
0 0 0
0 0 0
0 0 0
0 0 0
0 0 0
0 0 0
0 0 0
0 0 0
0 0 0
0 0 0
0 0 0
0 0 0
0 0 0
0 0 0
0 0 0
0 0 0
0 0 0
0 0 0
0 0 0
0 0 0
0 0 0
0 0 0
0 0 0
0 0 0
0 0 0
0 0 0
0 0 0
0 0 0
0 0 0
0 0 0
0 0 0
0 0 0
0 0 0
0 0 0
0 0 0
0 0 0
0 0 0
0 0 0
0 0 0
0 0 0
0 0 0
0 0 0
0 0 0
0 0 0
0 0 0
0 0 0
0 0 0
0 0 0
0 0 0
0 0 0
0 0 0
0 0 0
0 0 0
0 0 0
0 0 0
0 0 0
0 0 0
0 0 0
0 0 0
0 0 0
0 0 0
0 0 0
0 0 0
0 0 0
0 0 0
0 0 0
0 0 0
0 0 0
0 0 0
0 0 0
0 0 0
0 0 0
0 0 0
0 0 0
0 0 0
0 0 0
0 0 0
0 0 0
0 0 0
0 0 0
0 0 0
0 0 0
0 0 0
0 0 0
0 0 0
0 0 0
0 0 0
0 0 0
0 0 0
0 0 0
0 0 0
0 0 0
0 0 0
0 0 0
0 0 0
0 0 0
0 0 0
0 0 0
191 210 229
192 210 229
193 211 229
194 211 229
195 212 229
196 212 229
197 213 229
198 213 229
199 214 229
200 214 229
201 215 229
202 215 229
203 216 229
204 216 229
205 217 229
206 217 229
207 218 229
208 218 229
209 219 229
210 219 229
211 220 229
212 220 229
213 221 229
214 221 229
215 222 229
216 222 229
217 223 229
218 223 229
219 224 229
220 224 229
221 225 229
222 225 229
223 226 229
224 226 229
225 227 229
226 227 229
227 228 229
228 228 229
229 229 229
230 229 229
231 230 229
232 230 229
233 231 229
234 231 229
235 232 229
236 232 229
237 233 229
238 233 229
239 234 229
240 234 229
241 235 229
242 235 229
243 236 229
244 236 229
245 237 229
246 237 229
247 238 229
248 238 229
249 239 229
250 239 229
251 240 229
252 240 229
253 241 229
254 241 229
0 115 230
1 115 230
2 116 230
3 116 230
4 117 230
5 117 230
6 118 230
7 118 230
8 119 230
9 119 230
10 120 230
11 120 230
12 121 230
13 121 230
14 122 230
15 122 230
16 123 230
17 123 230
18 124 230
19 124 230
20 125 230
21 125 230
22 126 230
23 126 230
24 127 230
25 127 230
26 128 230
27 128 230
28 129 230
29 129 230
30 130 230
31 130 230
32 131 230
33 131 230
34 132 230
35 132 230
36 133 230
37 133 230
38 134 230
39 134 230
40 135 230
41 135 230
42 136 230
43 136 230
44 137 230
45 137 230
46 138 230
47 138 230
48 139 230
49 139 230
50 140 230
51 140 230
52 141 230
53 141 230
54 142 230
55 142 230
56 143 230
57 143 230
58 144 230
59 144 230
60 145 230
61 145 230
62 146 230
63 146 230
64 147 230
65 147 230
0 0 0
0 0 0
0 0 0
0 0 0
0 0 0
0 0 0
0 0 0
0 0 0
0 0 0
0 0 0
0 0 0
0 0 0
0 0 0
0 0 0
0 0 0
0 0 0
0 0 0
0 0 0
0 0 0
0 0 0
0 0 0
0 0 0
0 0 0
0 0 0
0 0 0
0 0 0
0 0 0
0 0 0
0 0 0
0 0 0
0 0 0
0 0 0
0 0 0
0 0 0
0 0 0
0 0 0
0 0 0
0 0 0
0 0 0
0 0 0
0 0 0
0 0 0
0 0 0
0 0 0
0 0 0
0 0 0
0 0 0
0 0 0
0 0 0
0 0 0
0 0 0
0 0 0
0 0 0
0 0 0
0 0 0
0 0 0
0 0 0
0 0 0
0 0 0
0 0 0
0 0 0
0 0 0
0 0 0
0 0 0
0 0 0
0 0 0
0 0 0
0 0 0
0 0 0
0 0 0
0 0 0
0 0 0
0 0 0
0 0 0
0 0 0
0 0 0
0 0 0
0 0 0
0 0 0
0 0 0
0 0 0
0 0 0
0 0 0
0 0 0
0 0 0
0 0 0
0 0 0
0 0 0
0 0 0
0 0 0
0 0 0
0 0 0
0 0 0
0 0 0
0 0 0
0 0 0
0 0 0
0 0 0
0 0 0
0 0 0
0 0 0
0 0 0
0 0 0
0 0 0
0 0 0
0 0 0
0 0 0
0 0 0
0 0 0
0 0 0
0 0 0
0 0 0
0 0 0
0 0 0
0 0 0
0 0 0
0 0 0
0 0 0
0 0 0
0 0 0
0 0 0
0 0 0
0 0 0
189 209 230
190 210 230
191 210 230
192 211 230
193 211 230
194 212 230
195 212 230
196 213 230
197 213 230
198 214 230
199 214 230
200 215 230
201 215 230
202 216 230
203 216 230
204 217 230
205 217 230
206 218 230
207 218 230
208 219 230
209 219 230
210 220 230
211 220 230
212 221 230
213 221 230
214 222 230
215 222 230
216 223 230
217 223 230
218 224 230
219 224 230
220 225 230
221 225 230
222 226 230
223 226 230
224 227 230
225 227 230
226 228 230
227 228 230
228 229 230
229 229 230
230 230 230
231 230 230
232 231 230
233 231 230
234 232 230
235 232 230
236 233 230
237 233 230
238 234 230
239 234 230
240 235 230
241 235 230
242 236 230
243 236 230
244 237 230
245 237 230
246 238 230
247 238 230
248 239 230
249 239 230
250 240 230
251 240 230
252 241 230
253 241 230
254 242 230
0 115 231
1 116 231
2 116 231
3 117 231
4 117 231
5 118 231
6 118 231
7 119 231
8 119 231
9 120 231
10 120 231
11 121 231
12 121 231
13 122 231
14 122 231
15 123 231
16 123 231
17 124 231
18 124 231
19 125 231
20 125 231
21 126 231
22 126 231
23 127 231
24 127 231
25 128 231
26 128 231
27 129 231
28 129 231
29 130 231
30 130 231
31 131 231
32 131 231
33 132 231
34 132 231
35 133 231
36 133 231
37 134 231
38 134 231
39 135 231
40 135 231
41 136 231
42 136 231
43 137 231
44 137 231
45 138 231
46 138 231
47 139 231
48 139 231
49 140 231
50 140 231
51 141 231
52 141 231
53 142 231
54 142 231
55 143 231
56 143 231
57 144 231
58 144 231
59 145 231
60 145 231
61 146 231
62 146 231
63 147 231
64 147 231
65 148 231
66 148 231
67 149 231
0 0 0
0 0 0
0 0 0
0 0 0
0 0 0
0 0 0
0 0 0
0 0 0
0 0 0
0 0 0
0 0 0
0 0 0
0 0 0
0 0 0
0 0 0
0 0 0
0 0 0
0 0 0
0 0 0
0 0 0
0 0 0
0 0 0
0 0 0
0 0 0
0 0 0
0 0 0
0 0 0
0 0 0
0 0 0
0 0 0
0 0 0
0 0 0
0 0 0
0 0 0
0 0 0
0 0 0
0 0 0
0 0 0
0 0 0
0 0 0
0 0 0
0 0 0
0 0 0
0 0 0
0 0 0
0 0 0
0 0 0
0 0 0
0 0 0
0 0 0
0 0 0
0 0 0
0 0 0
0 0 0
0 0 0
0 0 0
0 0 0
0 0 0
0 0 0
0 0 0
0 0 0
0 0 0
0 0 0
0 0 0
0 0 0
0 0 0
0 0 0
0 0 0
0 0 0
0 0 0
0 0 0
0 0 0
0 0 0
0 0 0
0 0 0
0 0 0
0 0 0
0 0 0
0 0 0
0 0 0
0 0 0
0 0 0
0 0 0
0 0 0
0 0 0
0 0 0
0 0 0
0 0 0
0 0 0
0 0 0
0 0 0
0 0 0
0 0 0
0 0 0
0 0 0
0 0 0
0 0 0
0 0 0
0 0 0
0 0 0
0 0 0
0 0 0
0 0 0
0 0 0
0 0 0
0 0 0
0 0 0
0 0 0
0 0 0
0 0 0
0 0 0
0 0 0
0 0 0
0 0 0
0 0 0
0 0 0
0 0 0
0 0 0
0 0 0
187 209 231
188 209 231
189 210 231
190 210 231
191 211 231
192 211 231
193 212 231
194 212 231
195 213 231
196 213 231
197 214 231
198 214 231
199 215 231
200 215 231
201 216 231
202 216 231
203 217 231
204 217 231
205 218 231
206 218 231
207 219 231
208 219 231
209 220 231
210 220 231
211 221 231
212 221 231
213 222 231
214 222 231
215 223 231
216 223 231
217 224 231
218 224 231
219 225 231
220 225 231
221 226 231
222 226 231
223 227 231
224 227 231
225 228 231
226 228 231
227 229 231
228 229 231
229 230 231
230 230 231
231 231 231
232 231 231
233 232 231
234 232 231
235 233 231
236 233 231
237 234 231
238 234 231
239 235 231
240 235 231
241 236 231
242 236 231
243 237 231
244 237 231
245 238 231
246 238 231
247 239 231
248 239 231
249 240 231
250 240 231
251 241 231
252 241 231
253 242 231
254 242 231
0 116 232
1 116 232
2 117 232
3 117 232
4 118 232
5 118 232
6 119 232
7 119 232
8 120 232
9 120 232
10 121 232
11 121 232
12 122 232
13 122 232
14 123 232
15 123 232
16 124 232
17 124 232
18 125 232
19 125 232
20 126 232
21 126 232
22 127 232
23 127 232
24 128 232
25 128 232
26 129 232
27 129 232
28 130 232
29 130 232
30 131 232
31 131 232
32 132 232
33 132 232
34 133 232
35 133 232
36 134 232
37 134 232
38 135 232
39 135 232
40 136 232
41 136 232
42 137 232
43 137 232
44 138 232
45 138 232
46 139 232
47 139 232
48 140 232
49 140 232
50 141 232
51 141 232
52 142 232
53 142 232
54 143 232
55 143 232
56 144 232
57 144 232
58 145 232
59 145 232
60 146 232
61 146 232
62 147 232
63 147 232
64 148 232
65 148 232
66 149 232
67 149 232
68 150 232
0 0 0
0 0 0
0 0 0
0 0 0
0 0 0
0 0 0
0 0 0
0 0 0
0 0 0
0 0 0
0 0 0
0 0 0
0 0 0
0 0 0
0 0 0
0 0 0
0 0 0
0 0 0
0 0 0
0 0 0
0 0 0
0 0 0
0 0 0
0 0 0
0 0 0
0 0 0
0 0 0
0 0 0
0 0 0
0 0 0
0 0 0
0 0 0
0 0 0
0 0 0
0 0 0
0 0 0
0 0 0
0 0 0
0 0 0
0 0 0
0 0 0
0 0 0
0 0 0
0 0 0
0 0 0
0 0 0
0 0 0
0 0 0
0 0 0
0 0 0
0 0 0
0 0 0
0 0 0
0 0 0
0 0 0
0 0 0
0 0 0
0 0 0
0 0 0
0 0 0
0 0 0
0 0 0
0 0 0
0 0 0
0 0 0
0 0 0
0 0 0
0 0 0
0 0 0
0 0 0
0 0 0
0 0 0
0 0 0
0 0 0
0 0 0
0 0 0
0 0 0
0 0 0
0 0 0
0 0 0
0 0 0
0 0 0
0 0 0
0 0 0
0 0 0
0 0 0
0 0 0
0 0 0
0 0 0
0 0 0
0 0 0
0 0 0
0 0 0
0 0 0
0 0 0
0 0 0
0 0 0
0 0 0
0 0 0
0 0 0
0 0 0
0 0 0
0 0 0
0 0 0
0 0 0
0 0 0
0 0 0
0 0 0
0 0 0
0 0 0
0 0 0
0 0 0
0 0 0
0 0 0
0 0 0
0 0 0
0 0 0
186 209 232
187 209 232
188 210 232
189 210 232
190 211 232
191 211 232
192 212 232
193 212 232
194 213 232
195 213 232
196 214 232
197 214 232
198 215 232
199 215 232
200 216 232
201 216 232
202 217 232
203 217 232
204 218 232
205 218 232
206 219 232
207 219 232
208 220 232
209 220 232
210 221 232
211 221 232
212 222 232
213 222 232
214 223 232
215 223 232
216 224 232
217 224 232
218 225 232
219 225 232
220 226 232
221 226 232
222 227 232
223 227 232
224 228 232
225 228 232
226 229 232
227 229 232
228 230 232
229 230 232
230 231 232
231 231 232
232 232 232
233 232 232
234 233 232
235 233 232
236 234 232
237 234 232
238 235 232
239 235 232
240 236 232
241 236 232
242 237 232
243 237 232
244 238 232
245 238 232
246 239 232
247 239 232
248 240 232
249 240 232
250 241 232
251 241 232
252 242 232
253 242 232
254 243 232
0 116 233
1 117 233
2 117 233
3 118 233
4 118 233
5 119 233
6 119 233
7 120 233
8 120 233
9 121 233
10 121 233
11 122 233
12 122 233
13 123 233
14 123 233
15 124 233
16 124 233
17 125 233
18 125 233
19 126 233
20 126 233
21 127 233
22 127 233
23 128 233
24 128 233
25 129 233
26 129 233
27 130 233
28 130 233
29 131 233
30 131 233
31 132 233
32 132 233
33 133 233
34 133 233
35 134 233
36 134 233
37 135 233
38 135 233
39 136 233
40 136 233
41 137 233
42 137 233
43 138 233
44 138 233
45 139 233
46 139 233
47 140 233
48 140 233
49 141 233
50 141 233
51 142 233
52 142 233
53 143 233
54 143 233
55 144 233
56 144 233
57 145 233
58 145 233
59 146 233
60 146 233
61 147 233
62 147 233
63 148 233
64 148 233
65 149 233
66 149 233
67 150 233
68 150 233
69 151 233
70 151 233
0 0 0
0 0 0
0 0 0
0 0 0
0 0 0
0 0 0
0 0 0
0 0 0
0 0 0
0 0 0
0 0 0
0 0 0
0 0 0
0 0 0
0 0 0
0 0 0
0 0 0
0 0 0
0 0 0
0 0 0
0 0 0
0 0 0
0 0 0
0 0 0
0 0 0
0 0 0
0 0 0
0 0 0
0 0 0
0 0 0
0 0 0
0 0 0
0 0 0
0 0 0
0 0 0
0 0 0
0 0 0
0 0 0
0 0 0
0 0 0
0 0 0
0 0 0
0 0 0
0 0 0
0 0 0
0 0 0
0 0 0
0 0 0
0 0 0
0 0 0
0 0 0
0 0 0
0 0 0
0 0 0
0 0 0
0 0 0
0 0 0
0 0 0
0 0 0
0 0 0
0 0 0
0 0 0
0 0 0
0 0 0
0 0 0
0 0 0
0 0 0
0 0 0
0 0 0
0 0 0
0 0 0
0 0 0
0 0 0
0 0 0
0 0 0
0 0 0
0 0 0
0 0 0
0 0 0
0 0 0
0 0 0
0 0 0
0 0 0
0 0 0
0 0 0
0 0 0
0 0 0
0 0 0
0 0 0
0 0 0
0 0 0
0 0 0
0 0 0
0 0 0
0 0 0
0 0 0
0 0 0
0 0 0
0 0 0
0 0 0
0 0 0
0 0 0
0 0 0
0 0 0
0 0 0
0 0 0
0 0 0
0 0 0
0 0 0
0 0 0
0 0 0
0 0 0
0 0 0
184 208 233
185 209 233
186 209 233
187 210 233
188 210 233
189 211 233
190 211 233
191 212 233
192 212 233
193 213 233
194 213 233
195 214 233
196 214 233
197 215 233
198 215 233
199 216 233
200 216 233
201 217 233
202 217 233
203 218 233
204 218 233
205 219 233
206 219 233
207 220 233
208 220 233
209 221 233
210 221 233
211 222 233
212 222 233
213 223 233
214 223 233
215 224 233
216 224 233
217 225 233
218 225 233
219 226 233
220 226 233
221 227 233
222 227 233
223 228 233
224 228 233
225 229 233
226 229 233
227 230 233
228 230 233
229 231 233
230 231 233
231 232 233
232 232 233
233 233 233
234 233 233
235 234 233
236 234 233
237 235 233
238 235 233
239 236 233
240 236 233
241 237 233
242 237 233
243 238 233
244 238 233
245 239 233
246 239 233
247 240 233
248 240 233
249 241 233
250 241 233
251 242 233
252 242 233
253 243 233
254 243 233
0 117 234
1 117 234
2 118 234
3 118 234
4 119 234
5 119 234
6 120 234
7 120 234
8 121 234
9 121 234
10 122 234
11 122 234
12 123 234
13 123 234
14 124 234
15 124 234
16 125 234
17 125 234
18 126 234
19 126 234
20 127 234
21 127 234
22 128 234
23 128 234
24 129 234
25 129 234
26 130 234
27 130 234
28 131 234
29 131 234
30 132 234
31 132 234
32 133 234
33 133 234
34 134 234
35 134 234
36 135 234
37 135 234
38 136 234
39 136 234
40 137 234
41 137 234
42 138 234
43 138 234
44 139 234
45 139 234
46 140 234
47 140 234
48 141 234
49 141 234
50 142 234
51 142 234
52 143 234
53 143 234
54 144 234
55 144 234
56 145 234
57 145 234
58 146 234
59 146 234
60 147 234
61 147 234
62 148 234
63 148 234
64 149 234
65 149 234
66 150 234
67 150 234
68 151 234
69 151 234
70 152 234
71 152 234
72 153 234
0 0 0
0 0 0
0 0 0
0 0 0
0 0 0
0 0 0
0 0 0
0 0 0
0 0 0
0 0 0
0 0 0
0 0 0
0 0 0
0 0 0
0 0 0
0 0 0
0 0 0
0 0 0
0 0 0
0 0 0
0 0 0
0 0 0
0 0 0
0 0 0
0 0 0
0 0 0
0 0 0
0 0 0
0 0 0
0 0 0
0 0 0
0 0 0
0 0 0
0 0 0
0 0 0
0 0 0
0 0 0
0 0 0
0 0 0
0 0 0
0 0 0
0 0 0
0 0 0
0 0 0
0 0 0
0 0 0
0 0 0
0 0 0
0 0 0
0 0 0
0 0 0
0 0 0
0 0 0
0 0 0
0 0 0
0 0 0
0 0 0
0 0 0
0 0 0
0 0 0
0 0 0
0 0 0
0 0 0
0 0 0
0 0 0
0 0 0
0 0 0
0 0 0
0 0 0
0 0 0
0 0 0
0 0 0
0 0 0
0 0 0
0 0 0
0 0 0
0 0 0
0 0 0
0 0 0
0 0 0
0 0 0
0 0 0
0 0 0
0 0 0
0 0 0
0 0 0
0 0 0
0 0 0
0 0 0
0 0 0
0 0 0
0 0 0
0 0 0
0 0 0
0 0 0
0 0 0
0 0 0
0 0 0
0 0 0
0 0 0
0 0 0
0 0 0
0 0 0
0 0 0
0 0 0
0 0 0
0 0 0
0 0 0
0 0 0
182 208 234
183 208 234
184 209 234
185 209 234
186 210 234
187 210 234
188 211 234
189 211 234
190 212 234
191 212 234
192 213 234
193 213 234
194 214 234
195 214 234
196 215 234
197 215 234
198 216 234
199 216 234
200 217 234
201 217 234
202 218 234
203 218 234
204 219 234
205 219 234
206 220 234
207 220 234
208 221 234
209 221 234
210 222 234
211 222 234
212 223 234
213 223 234
214 224 234
215 224 234
216 225 234
217 225 234
218 226 234
219 226 234
220 227 234
221 227 234
222 228 234
223 228 234
224 229 234
225 229 234
226 230 234
227 230 234
228 231 234
229 231 234
230 232 234
231 232 234
232 233 234
233 233 234
234 234 234
235 234 234
236 235 234
237 235 234
238 236 234
239 236 234
240 237 234
241 237 234
242 238 234
243 238 234
244 239 234
245 239 234
246 240 234
247 240 234
248 241 234
249 241 234
250 242 234
251 242 234
252 243 234
253 243 234
254 244 234
0 117 235
1 118 235
2 118 235
3 119 235
4 119 235
5 120 235
6 120 235
7 121 235
8 121 235
9 122 235
10 122 235
11 123 235
12 123 235
13 124 235
14 124 235
15 125 235
16 125 235
17 126 235
18 126 235
19 127 235
20 127 235
21 128 235
22 128 235
23 129 235
24 129 235
25 130 235
26 130 235
27 131 235
28 131 235
29 132 235
30 132 235
31 133 235
32 133 235
33 134 235
34 134 235
35 135 235
36 135 235
37 136 235
38 136 235
39 137 235
40 137 235
41 138 235
42 138 235
43 139 235
44 139 235
45 140 235
46 140 235
47 141 235
48 141 235
49 142 235
50 142 235
51 143 235
52 143 235
53 144 235
54 144 235
55 145 235
56 145 235
57 146 235
58 146 235
59 147 235
60 147 235
61 148 235
62 148 235
63 149 235
64 149 235
65 150 235
66 150 235
67 151 235
68 151 235
69 152 235
70 152 235
71 153 235
72 153 235
73 154 235
74 154 235
0 0 0
0 0 0
0 0 0
0 0 0
0 0 0
0 0 0
0 0 0
0 0 0
0 0 0
0 0 0
0 0 0
0 0 0
0 0 0
0 0 0
0 0 0
0 0 0
0 0 0
0 0 0
0 0 0
0 0 0
0 0 0
0 0 0
0 0 0
0 0 0
0 0 0
0 0 0
0 0 0
0 0 0
0 0 0
0 0 0
0 0 0
0 0 0
0 0 0
0 0 0
0 0 0
0 0 0
0 0 0
0 0 0
0 0 0
0 0 0
0 0 0
0 0 0
0 0 0
0 0 0
0 0 0
0 0 0
0 0 0
0 0 0
0 0 0
0 0 0
0 0 0
0 0 0
0 0 0
0 0 0
0 0 0
0 0 0
0 0 0
0 0 0
0 0 0
0 0 0
0 0 0
0 0 0
0 0 0
0 0 0
0 0 0
0 0 0
0 0 0
0 0 0
0 0 0
0 0 0
0 0 0
0 0 0
0 0 0
0 0 0
0 0 0
0 0 0
0 0 0
0 0 0
0 0 0
0 0 0
0 0 0
0 0 0
0 0 0
0 0 0
0 0 0
0 0 0
0 0 0
0 0 0
0 0 0
0 0 0
0 0 0
0 0 0
0 0 0
0 0 0
0 0 0
0 0 0
0 0 0
0 0 0
0 0 0
0 0 0
0 0 0
0 0 0
0 0 0
0 0 0
0 0 0
180 207 235
181 208 235
182 208 235
183 209 235
184 209 235
185 210 235
186 210 235
187 211 235
188 211 235
189 212 235
190 212 235
191 213 235
192 213 235
193 214 235
194 214 235
195 215 235
196 215 235
197 216 235
198 216 235
199 217 235
200 217 235
201 218 235
202 218 235
203 219 235
204 219 235
205 220 235
206 220 235
207 221 235
208 221 235
209 222 235
210 222 235
211 223 235
212 223 235
213 224 235
214 224 235
215 225 235
216 225 235
217 226 235
218 226 235
219 227 235
220 227 235
221 228 235
222 228 235
223 229 235
224 229 235
225 230 235
226 230 235
227 231 235
228 231 235
229 232 235
230 232 235
231 233 235
232 233 235
233 234 235
234 234 235
235 235 235
236 235 235
237 236 235
238 236 235
239 237 235
240 237 235
241 238 235
242 238 235
243 239 235
244 239 235
245 240 235
246 240 235
247 241 235
248 241 235
249 242 235
250 242 235
251 243 235
252 243 235
253 244 235
254 244 235
0 118 236
1 118 236
2 119 236
3 119 236
4 120 236
5 120 236
6 121 236
7 121 236
8 122 236
9 122 236
10 123 236
11 123 236
12 124 236
13 124 236
14 125 236
15 125 236
16 126 236
17 126 236
18 127 236
19 127 236
20 128 236
21 128 236
22 129 236
23 129 236
24 130 236
25 130 236
26 131 236
27 131 236
28 132 236
29 132 236
30 133 236
31 133 236
32 134 236
33 134 236
34 135 236
35 135 236
36 136 236
37 136 236
38 137 236
39 137 236
40 138 236
41 138 236
42 139 236
43 139 236
44 140 236
45 140 236
46 141 236
47 141 236
48 142 236
49 142 236
50 143 236
51 143 236
52 144 236
53 144 236
54 145 236
55 145 236
56 146 236
57 146 236
58 147 236
59 147 236
60 148 236
61 148 236
62 149 236
63 149 236
64 150 236
65 150 236
66 151 236
67 151 236
68 152 236
69 152 236
70 153 236
71 153 236
72 154 236
73 154 236
74 155 236
75 155 236
76 156 236
0 0 0
0 0 0
0 0 0
0 0 0
0 0 0
0 0 0
0 0 0
0 0 0
0 0 0
0 0 0
0 0 0
0 0 0
0 0 0
0 0 0
0 0 0
0 0 0
0 0 0
0 0 0
0 0 0
0 0 0
0 0 0
0 0 0
0 0 0
0 0 0
0 0 0
0 0 0
0 0 0
0 0 0
0 0 0
0 0 0
0 0 0
0 0 0
0 0 0
0 0 0
0 0 0
0 0 0
0 0 0
0 0 0
0 0 0
0 0 0
0 0 0
0 0 0
0 0 0
0 0 0
0 0 0
0 0 0
0 0 0
0 0 0
0 0 0
0 0 0
0 0 0
0 0 0
0 0 0
0 0 0
0 0 0
0 0 0
0 0 0
0 0 0
0 0 0
0 0 0
0 0 0
0 0 0
0 0 0
0 0 0
0 0 0
0 0 0
0 0 0
0 0 0
0 0 0
0 0 0
0 0 0
0 0 0
0 0 0
0 0 0
0 0 0
0 0 0
0 0 0
0 0 0
0 0 0
0 0 0
0 0 0
0 0 0
0 0 0
0 0 0
0 0 0
0 0 0
0 0 0
0 0 0
0 0 0
0 0 0
0 0 0
0 0 0
0 0 0
0 0 0
0 0 0
0 0 0
0 0 0
0 0 0
0 0 0
0 0 0
0 0 0
178 207 236
179 207 236
180 208 236
181 208 236
182 209 236
183 209 236
184 210 236
185 210 236
186 211 236
187 211 236
188 212 236
189 212 236
190 213 236
191 213 236
192 214 236
193 214 236
194 215 236
195 215 236
196 216 236
197 216 236
198 217 236
199 217 236
200 218 236
201 218 236
202 219 236
203 219 236
204 220 236
205 220 236
206 221 236
207 221 236
208 222 236
209 222 236
210 223 236
211 223 236
212 224 236
213 224 236
214 225 236
215 225 236
216 226 236
217 226 236
218 227 236
219 227 236
220 228 236
221 228 236
222 229 236
223 229 236
224 230 236
225 230 236
226 231 236
227 231 236
228 232 236
229 232 236
230 233 236
231 233 236
232 234 236
233 234 236
234 235 236
235 235 236
236 236 236
237 236 236
238 237 236
239 237 236
240 238 236
241 238 236
242 239 236
243 239 236
244 240 236
245 240 236
246 241 236
247 241 236
248 242 236
249 242 236
250 243 236
251 243 236
252 244 236
253 244 236
254 245 236
0 118 237
1 119 237
2 119 237
3 120 237
4 120 237
5 121 237
6 121 237
7 122 237
8 122 237
9 123 237
10 123 237
11 124 237
12 124 237
13 125 237
14 125 237
15 126 237
16 126 237
17 127 237
18 127 237
19 128 237
20 128 237
21 129 237
22 129 237
23 130 237
24 130 237
25 131 237
26 131 237
27 132 237
28 132 237
29 133 237
30 133 237
31 134 237
32 134 237
33 135 237
34 135 237
35 136 237
36 136 237
37 137 237
38 137 237
39 138 237
40 138 237
41 139 237
42 139 237
43 140 237
44 140 237
45 141 237
46 141 237
47 142 237
48 142 237
49 143 237
50 143 237
51 144 237
52 144 237
53 145 237
54 145 237
55 146 237
56 146 237
57 147 237
58 147 237
59 148 237
60 148 237
61 149 237
62 149 237
63 150 237
64 150 237
65 151 237
66 151 237
67 152 237
68 152 237
69 153 237
70 153 237
71 154 237
72 154 237
73 155 237
74 155 237
75 156 237
76 156 237
77 157 237
78 157 237
79 158 237
0 0 0
0 0 0
0 0 0
0 0 0
0 0 0
0 0 0
0 0 0
0 0 0
0 0 0
0 0 0
0 0 0
0 0 0
0 0 0
0 0 0
0 0 0
0 0 0
0 0 0
0 0 0
0 0 0
0 0 0
0 0 0
0 0 0
0 0 0
0 0 0
0 0 0
0 0 0
0 0 0
0 0 0
0 0 0
0 0 0
0 0 0
0 0 0
0 0 0
0 0 0
0 0 0
0 0 0
0 0 0
0 0 0
0 0 0
0 0 0
0 0 0
0 0 0
0 0 0
0 0 0
0 0 0
0 0 0
0 0 0
0 0 0
0 0 0
0 0 0
0 0 0
0 0 0
0 0 0
0 0 0
0 0 0
0 0 0
0 0 0
0 0 0
0 0 0
0 0 0
0 0 0
0 0 0
0 0 0
0 0 0
0 0 0
0 0 0
0 0 0
0 0 0
0 0 0
0 0 0
0 0 0
0 0 0
0 0 0
0 0 0
0 0 0
0 0 0
0 0 0
0 0 0
0 0 0
0 0 0
0 0 0
0 0 0
0 0 0
0 0 0
0 0 0
0 0 0
0 0 0
0 0 0
0 0 0
0 0 0
0 0 0
0 0 0
0 0 0
0 0 0
0 0 0
175 206 237
176 206 237
177 207 237
178 207 237
179 208 237
180 208 237
181 209 237
182 209 237
183 210 237
184 210 237
185 211 237
186 211 237
187 212 237
188 212 237
189 213 237
190 213 237
191 214 237
192 214 237
193 215 237
194 215 237
195 216 237
196 216 237
197 217 237
198 217 237
199 218 237
200 218 237
201 219 237
202 219 237
203 220 237
204 220 237
205 221 237
206 221 237
207 222 237
208 222 237
209 223 237
210 223 237
211 224 237
212 224 237
213 225 237
214 225 237
215 226 237
216 226 237
217 227 237
218 227 237
219 228 237
220 228 237
221 229 237
222 229 237
223 230 237
224 230 237
225 231 237
226 231 237
227 232 237
228 232 237
229 233 237
230 233 237
231 234 237
232 234 237
233 235 237
234 235 237
235 236 237
236 236 237
237 237 237
238 237 237
239 238 237
240 238 237
241 239 237
242 239 237
243 240 237
244 240 237
245 241 237
246 241 237
247 242 237
248 242 237
249 243 237
250 243 237
251 244 237
252 244 237
253 245 237
254 245 237
0 119 238
1 119 238
2 120 238
3 120 238
4 121 238
5 121 238
6 122 238
7 122 238
8 123 238
9 123 238
10 124 238
11 124 238
12 125 238
13 125 238
14 126 238
15 126 238
16 127 238
17 127 238
18 128 238
19 128 238
20 129 238
21 129 238
22 130 238
23 130 238
24 131 238
25 131 238
26 132 238
27 132 238
28 133 238
29 133 238
30 134 238
31 134 238
32 135 238
33 135 238
34 136 238
35 136 238
36 137 238
37 137 238
38 138 238
39 138 238
40 139 238
41 139 238
42 140 238
43 140 238
44 141 238
45 141 238
46 142 238
47 142 238
48 143 238
49 143 238
50 144 238
51 144 238
52 145 238
53 145 238
54 146 238
55 146 238
56 147 238
57 147 238
58 148 238
59 148 238
60 149 238
61 149 238
62 150 238
63 150 238
64 151 238
65 151 238
66 152 238
67 152 238
68 153 238
69 153 238
70 154 238
71 154 238
72 155 238
73 155 238
74 156 238
75 156 238
76 157 238
77 157 238
78 158 238
79 158 238
80 159 238
81 159 238
0 0 0
0 0 0
0 0 0
0 0 0
0 0 0
0 0 0
0 0 0
0 0 0
0 0 0
0 0 0
0 0 0
0 0 0
0 0 0
0 0 0
0 0 0
0 0 0
0 0 0
0 0 0
0 0 0
0 0 0
0 0 0
0 0 0
0 0 0
0 0 0
0 0 0
0 0 0
0 0 0
0 0 0
0 0 0
0 0 0
0 0 0
0 0 0
0 0 0
0 0 0
0 0 0
0 0 0
0 0 0
0 0 0
0 0 0
0 0 0
0 0 0
0 0 0
0 0 0
0 0 0
0 0 0
0 0 0
0 0 0
0 0 0
0 0 0
0 0 0
0 0 0
0 0 0
0 0 0
0 0 0
0 0 0
0 0 0
0 0 0
0 0 0
0 0 0
0 0 0
0 0 0
0 0 0
0 0 0
0 0 0
0 0 0
0 0 0
0 0 0
0 0 0
0 0 0
0 0 0
0 0 0
0 0 0
0 0 0
0 0 0
0 0 0
0 0 0
0 0 0
0 0 0
0 0 0
0 0 0
0 0 0
0 0 0
0 0 0
0 0 0
0 0 0
0 0 0
0 0 0
0 0 0
0 0 0
0 0 0
0 0 0
173 205 238
174 206 238
175 206 238
176 207 238
177 207 238
178 208 238
179 208 238
180 209 238
181 209 238
182 210 238
183 210 238
184 211 238
185 211 238
186 212 238
187 212 238
188 213 238
189 213 238
190 214 238
191 214 238
192 215 238
193 215 238
194 216 238
195 216 238
196 217 238
197 217 238
198 218 238
199 218 238
200 219 238
201 219 238
202 220 238
203 220 238
204 221 238
205 221 238
206 222 238
207 222 238
208 223 238
209 223 238
210 224 238
211 224 238
212 225 238
213 225 238
214 226 238
215 226 238
216 227 238
217 227 238
218 228 238
219 228 238
220 229 238
221 229 238
222 230 238
223 230 238
224 231 238
225 231 238
226 232 238
227 232 238
228 233 238
229 233 238
230 234 238
231 234 238
232 235 238
233 235 238
234 236 238
235 236 238
236 237 238
237 237 238
238 238 238
239 238 238
240 239 238
241 239 238
242 240 238
243 240 238
244 241 238
245 241 238
246 242 238
247 242 238
248 243 238
249 243 238
250 244 238
251 244 238
252 245 238
253 245 238
254 246 238
0 119 239
1 120 239
2 120 239
3 121 239
4 121 239
5 122 239
6 122 239
7 123 239
8 123 239
9 124 239
10 124 239
11 125 239
12 125 239
13 126 239
14 126 239
15 127 239
16 127 239
17 128 239
18 128 239
19 129 239
20 129 239
21 130 239
22 130 239
23 131 239
24 131 239
25 132 239
26 132 239
27 133 239
28 133 239
29 134 239
30 134 239
31 135 239
32 135 239
33 136 239
34 136 239
35 137 239
36 137 239
37 138 239
38 138 239
39 139 239
40 139 239
41 140 239
42 140 239
43 141 239
44 141 239
45 142 239
46 142 239
47 143 239
48 143 239
49 144 239
50 144 239
51 145 239
52 145 239
53 146 239
54 146 239
55 147 239
56 147 239
57 148 239
58 148 239
59 149 239
60 149 239
61 150 239
62 150 239
63 151 239
64 151 239
65 152 239
66 152 239
67 153 239
68 153 239
69 154 239
70 154 239
71 155 239
72 155 239
73 156 239
74 156 239
75 157 239
76 157 239
77 158 239
78 158 239
79 159 239
80 159 239
81 160 239
82 160 239
83 161 239
0 0 0
0 0 0
0 0 0
0 0 0
0 0 0
0 0 0
0 0 0
0 0 0
0 0 0
0 0 0
0 0 0
0 0 0
0 0 0
0 0 0
0 0 0
0 0 0
0 0 0
0 0 0
0 0 0
0 0 0
0 0 0
0 0 0
0 0 0
0 0 0
0 0 0
0 0 0
0 0 0
0 0 0
0 0 0
0 0 0
0 0 0
0 0 0
0 0 0
0 0 0
0 0 0
0 0 0
0 0 0
0 0 0
0 0 0
0 0 0
0 0 0
0 0 0
0 0 0
0 0 0
0 0 0
0 0 0
0 0 0
0 0 0
0 0 0
0 0 0
0 0 0
0 0 0
0 0 0
0 0 0
0 0 0
0 0 0
0 0 0
0 0 0
0 0 0
0 0 0
0 0 0
0 0 0
0 0 0
0 0 0
0 0 0
0 0 0
0 0 0
0 0 0
0 0 0
0 0 0
0 0 0
0 0 0
0 0 0
0 0 0
0 0 0
0 0 0
0 0 0
0 0 0
0 0 0
0 0 0
0 0 0
0 0 0
0 0 0
0 0 0
0 0 0
0 0 0
0 0 0
171 205 239
172 205 239
173 206 239
174 206 239
175 207 239
176 207 239
177 208 239
178 208 239
179 209 239
180 209 239
181 210 239
182 210 239
183 211 239
184 211 239
185 212 239
186 212 239
187 213 239
188 213 239
189 214 239
190 214 239
191 215 239
192 215 239
193 216 239
194 216 239
195 217 239
196 217 239
197 218 239
198 218 239
199 219 239
200 219 239
201 220 239
202 220 239
203 221 239
204 221 239
205 222 239
206 222 239
207 223 239
208 223 239
209 224 239
210 224 239
211 225 239
212 225 239
213 226 239
214 226 239
215 227 239
216 227 239
217 228 239
218 228 239
219 229 239
220 229 239
221 230 239
222 230 239
223 231 239
224 231 239
225 232 239
226 232 239
227 233 239
228 233 239
229 234 239
230 234 239
231 235 239
232 235 239
233 236 239
234 236 239
235 237 239
236 237 239
237 238 239
238 238 239
239 239 239
240 239 239
241 240 239
242 240 239
243 241 239
244 241 239
245 242 239
246 242 239
247 243 239
248 243 239
249 244 239
250 244 239
251 245 239
252 245 239
253 246 239
254 246 239
0 120 240
1 120 240
2 121 240
3 121 240
4 122 240
5 122 240
6 123 240
7 123 240
8 124 240
9 124 240
10 125 240
11 125 240
12 126 240
13 126 240
14 127 240
15 127 240
16 128 240
17 128 240
18 129 240
19 129 240
20 130 240
21 130 240
22 131 240
23 131 240
24 132 240
25 132 240
26 133 240
27 133 240
28 134 240
29 134 240
30 135 240
31 135 240
32 136 240
33 136 240
34 137 240
35 137 240
36 138 240
37 138 240
38 139 240
39 139 240
40 140 240
41 140 240
42 141 240
43 141 240
44 142 240
45 142 240
46 143 240
47 143 240
48 144 240
49 144 240
50 145 240
51 145 240
52 146 240
53 146 240
54 147 240
55 147 240
56 148 240
57 148 240
58 149 240
59 149 240
60 150 240
61 150 240
62 151 240
63 151 240
64 152 240
65 152 240
66 153 240
67 153 240
68 154 240
69 154 240
70 155 240
71 155 240
72 156 240
73 156 240
74 157 240
75 157 240
76 158 240
77 158 240
78 159 240
79 159 240
80 160 240
81 160 240
82 161 240
83 161 240
84 162 240
85 162 240
86 163 240
0 0 0
0 0 0
0 0 0
0 0 0
0 0 0
0 0 0
0 0 0
0 0 0
0 0 0
0 0 0
0 0 0
0 0 0
0 0 0
0 0 0
0 0 0
0 0 0
0 0 0
0 0 0
0 0 0
0 0 0
0 0 0
0 0 0
0 0 0
0 0 0
0 0 0
0 0 0
0 0 0
0 0 0
0 0 0
0 0 0
0 0 0
0 0 0
0 0 0
0 0 0
0 0 0
0 0 0
0 0 0
0 0 0
0 0 0
0 0 0
0 0 0
0 0 0
0 0 0
0 0 0
0 0 0
0 0 0
0 0 0
0 0 0
0 0 0
0 0 0
0 0 0
0 0 0
0 0 0
0 0 0
0 0 0
0 0 0
0 0 0
0 0 0
0 0 0
0 0 0
0 0 0
0 0 0
0 0 0
0 0 0
0 0 0
0 0 0
0 0 0
0 0 0
0 0 0
0 0 0
0 0 0
0 0 0
0 0 0
0 0 0
0 0 0
0 0 0
0 0 0
0 0 0
0 0 0
0 0 0
0 0 0
168 204 240
169 204 240
170 205 240
171 205 240
172 206 240
173 206 240
174 207 240
175 207 240
176 208 240
177 208 240
178 209 240
179 209 240
180 210 240
181 210 240
182 211 240
183 211 240
184 212 240
185 212 240
186 213 240
187 213 240
188 214 240
189 214 240
190 215 240
191 215 240
192 216 240
193 216 240
194 217 240
195 217 240
196 218 240
197 218 240
198 219 240
199 219 240
200 220 240
201 220 240
202 221 240
203 221 240
204 222 240
205 222 240
206 223 240
207 223 240
208 224 240
209 224 240
210 225 240
211 225 240
212 226 240
213 226 240
214 227 240
215 227 240
216 228 240
217 228 240
218 229 240
219 229 240
220 230 240
221 230 240
222 231 240
223 231 240
224 232 240
225 232 240
226 233 240
227 233 240
228 234 240
229 234 240
230 235 240
231 235 240
232 236 240
233 236 240
234 237 240
235 237 240
236 238 240
237 238 240
238 239 240
239 239 240
240 240 240
241 240 240
242 241 240
243 241 240
244 242 240
245 242 240
246 243 240
247 243 240
248 244 240
249 244 240
250 245 240
251 245 240
252 246 240
253 246 240
254 247 240
0 120 241
1 121 241
2 121 241
3 122 241
4 122 241
5 123 241
6 123 241
7 124 241
8 124 241
9 125 241
10 125 241
11 126 241
12 126 241
13 127 241
14 127 241
15 128 241
16 128 241
17 129 241
18 129 241
19 130 241
20 130 241
21 131 241
22 131 241
23 132 241
24 132 241
25 133 241
26 133 241
27 134 241
28 134 241
29 135 241
30 135 241
31 136 241
32 136 241
33 137 241
34 137 241
35 138 241
36 138 241
37 139 241
38 139 241
39 140 241
40 140 241
41 141 241
42 141 241
43 142 241
44 142 241
45 143 241
46 143 241
47 144 241
48 144 241
49 145 241
50 145 241
51 146 241
52 146 241
53 147 241
54 147 241
55 148 241
56 148 241
57 149 241
58 149 241
59 150 241
60 150 241
61 151 241
62 151 241
63 152 241
64 152 241
65 153 241
66 153 241
67 154 241
68 154 241
69 155 241
70 155 241
71 156 241
72 156 241
73 157 241
74 157 241
75 158 241
76 158 241
77 159 241
78 159 241
79 160 241
80 160 241
81 161 241
82 161 241
83 162 241
84 162 241
85 163 241
86 163 241
87 164 241
88 164 241
89 165 241
0 0 0
0 0 0
0 0 0
0 0 0
0 0 0
0 0 0
0 0 0
0 0 0
0 0 0
0 0 0
0 0 0
0 0 0
0 0 0
0 0 0
0 0 0
0 0 0
0 0 0
0 0 0
0 0 0
0 0 0
0 0 0
0 0 0
0 0 0
0 0 0
0 0 0
0 0 0
0 0 0
0 0 0
0 0 0
0 0 0
0 0 0
0 0 0
0 0 0
0 0 0
0 0 0
0 0 0
0 0 0
0 0 0
0 0 0
0 0 0
0 0 0
0 0 0
0 0 0
0 0 0
0 0 0
0 0 0
0 0 0
0 0 0
0 0 0
0 0 0
0 0 0
0 0 0
0 0 0
0 0 0
0 0 0
0 0 0
0 0 0
0 0 0
0 0 0
0 0 0
0 0 0
0 0 0
0 0 0
0 0 0
0 0 0
0 0 0
0 0 0
0 0 0
0 0 0
0 0 0
0 0 0
0 0 0
0 0 0
0 0 0
0 0 0
165 203 241
166 203 241
167 204 241
168 204 241
169 205 241
170 205 241
171 206 241
172 206 241
173 207 241
174 207 241
175 208 241
176 208 241
177 209 241
178 209 241
179 210 241
180 210 241
181 211 241
182 211 241
183 212 241
184 212 241
185 213 241
186 213 241
187 214 241
188 214 241
189 215 241
190 215 241
191 216 241
192 216 241
193 217 241
194 217 241
195 218 241
196 218 241
197 219 241
198 219 241
199 220 241
200 220 241
201 221 241
202 221 241
203 222 241
204 222 241
205 223 241
206 223 241
207 224 241
208 224 241
209 225 241
210 225 241
211 226 241
212 226 241
213 227 241
214 227 241
215 228 241
216 228 241
217 229 241
218 229 241
219 230 241
220 230 241
221 231 241
222 231 241
223 232 241
224 232 241
225 233 241
226 233 241
227 234 241
228 234 241
229 235 241
230 235 241
231 236 241
232 236 241
233 237 241
234 237 241
235 238 241
236 238 241
237 239 241
238 239 241
239 240 241
240 240 241
241 241 241
242 241 241
243 242 241
244 242 241
245 243 241
246 243 241
247 244 241
248 244 241
249 245 241
250 245 241
251 246 241
252 246 241
253 247 241
254 247 241
0 121 242
1 121 242
2 122 242
3 122 242
4 123 242
5 123 242
6 124 242
7 124 242
8 125 242
9 125 242
10 126 242
11 126 242
12 127 242
13 127 242
14 128 242
15 128 242
16 129 242
17 129 242
18 130 242
19 130 242
20 131 242
21 131 242
22 132 242
23 132 242
24 133 242
25 133 242
26 134 242
27 134 242
28 135 242
29 135 242
30 136 242
31 136 242
32 137 242
33 137 242
34 138 242
35 138 242
36 139 242
37 139 242
38 140 242
39 140 242
40 141 242
41 141 242
42 142 242
43 142 242
44 143 242
45 143 242
46 144 242
47 144 242
48 145 242
49 145 242
50 146 242
51 146 242
52 147 242
53 147 242
54 148 242
55 148 242
56 149 242
57 149 242
58 150 242
59 150 242
60 151 242
61 151 242
62 152 242
63 152 242
64 153 242
65 153 242
66 154 242
67 154 242
68 155 242
69 155 242
70 156 242
71 156 242
72 157 242
73 157 242
74 158 242
75 158 242
76 159 242
77 159 242
78 160 242
79 160 242
80 161 242
81 161 242
82 162 242
83 162 242
84 163 242
85 163 242
86 164 242
87 164 242
88 165 242
89 165 242
90 166 242
91 166 242
92 167 242
0 0 0
0 0 0
0 0 0
0 0 0
0 0 0
0 0 0
0 0 0
0 0 0
0 0 0
0 0 0
0 0 0
0 0 0
0 0 0
0 0 0
0 0 0
0 0 0
0 0 0
0 0 0
0 0 0
0 0 0
0 0 0
0 0 0
0 0 0
0 0 0
0 0 0
0 0 0
0 0 0
0 0 0
0 0 0
0 0 0
0 0 0
0 0 0
0 0 0
0 0 0
0 0 0
0 0 0
0 0 0
0 0 0
0 0 0
0 0 0
0 0 0
0 0 0
0 0 0
0 0 0
0 0 0
0 0 0
0 0 0
0 0 0
0 0 0
0 0 0
0 0 0
0 0 0
0 0 0
0 0 0
0 0 0
0 0 0
0 0 0
0 0 0
0 0 0
0 0 0
0 0 0
0 0 0
0 0 0
0 0 0
0 0 0
0 0 0
0 0 0
0 0 0
0 0 0
162 202 242
163 202 242
164 203 242
165 203 242
166 204 242
167 204 242
168 205 242
169 205 242
170 206 242
171 206 242
172 207 242
173 207 242
174 208 242
175 208 242
176 209 242
177 209 242
178 210 242
179 210 242
180 211 242
181 211 242
182 212 242
183 212 242
184 213 242
185 213 242
186 214 242
187 214 242
188 215 242
189 215 242
190 216 242
191 216 242
192 217 242
193 217 242
194 218 242
195 218 242
196 219 242
197 219 242
198 220 242
199 220 242
200 221 242
201 221 242
202 222 242
203 222 242
204 223 242
205 223 242
206 224 242
207 224 242
208 225 242
209 225 242
210 226 242
211 226 242
212 227 242
213 227 242
214 228 242
215 228 242
216 229 242
217 229 242
218 230 242
219 230 242
220 231 242
221 231 242
222 232 242
223 232 242
224 233 242
225 233 242
226 234 242
227 234 242
228 235 242
229 235 242
230 236 242
231 236 242
232 237 242
233 237 242
234 238 242
235 238 242
236 239 242
237 239 242
238 240 242
239 240 242
240 241 242
241 241 242
242 242 242
243 242 242
244 243 242
245 243 242
246 244 242
247 244 242
248 245 242
249 245 242
250 246 242
251 246 242
252 247 242
253 247 242
254 248 242
0 121 243
1 122 243
2 122 243
3 123 243
4 123 243
5 124 243
6 124 243
7 125 243
8 125 243
9 126 243
10 126 243
11 127 243
12 127 243
13 128 243
14 128 243
15 129 243
16 129 243
17 130 243
18 130 243
19 131 243
20 131 243
21 132 243
22 132 243
23 133 243
24 133 243
25 134 243
26 134 243
27 135 243
28 135 243
29 136 243
30 136 243
31 137 243
32 137 243
33 138 243
34 138 243
35 139 243
36 139 243
37 140 243
38 140 243
39 141 243
40 141 243
41 142 243
42 142 243
43 143 243
44 143 243
45 144 243
46 144 243
47 145 243
48 145 243
49 146 243
50 146 243
51 147 243
52 147 243
53 148 243
54 148 243
55 149 243
56 149 243
57 150 243
58 150 243
59 151 243
60 151 243
61 152 243
62 152 243
63 153 243
64 153 243
65 154 243
66 154 243
67 155 243
68 155 243
69 156 243
70 156 243
71 157 243
72 157 243
73 158 243
74 158 243
75 159 243
76 159 243
77 160 243
78 160 243
79 161 243
80 161 243
81 162 243
82 162 243
83 163 243
84 163 243
85 164 243
86 164 243
87 165 243
88 165 243
89 166 243
90 166 243
91 167 243
92 167 243
93 168 243
94 168 243
95 169 243
96 169 243
0 0 0
0 0 0
0 0 0
0 0 0
0 0 0
0 0 0
0 0 0
0 0 0
0 0 0
0 0 0
0 0 0
0 0 0
0 0 0
0 0 0
0 0 0
0 0 0
0 0 0
0 0 0
0 0 0
0 0 0
0 0 0
0 0 0
0 0 0
0 0 0
0 0 0
0 0 0
0 0 0
0 0 0
0 0 0
0 0 0
0 0 0
0 0 0
0 0 0
0 0 0
0 0 0
0 0 0
0 0 0
0 0 0
0 0 0
0 0 0
0 0 0
0 0 0
0 0 0
0 0 0
0 0 0
0 0 0
0 0 0
0 0 0
0 0 0
0 0 0
0 0 0
0 0 0
0 0 0
0 0 0
0 0 0
0 0 0
0 0 0
0 0 0
0 0 0
0 0 0
0 0 0
158 200 243
159 201 243
160 201 243
161 202 243
162 202 243
163 203 243
164 203 243
165 204 243
166 204 243
167 205 243
168 205 243
169 206 243
170 206 243
171 207 243
172 207 243
173 208 243
174 208 243
175 209 243
176 209 243
177 210 243
178 210 243
179 211 243
180 211 243
181 212 243
182 212 243
183 213 243
184 213 243
185 214 243
186 214 243
187 215 243
188 215 243
189 216 243
190 216 243
191 217 243
192 217 243
193 218 243
194 218 243
195 219 243
196 219 243
197 220 243
198 220 243
199 221 243
200 221 243
201 222 243
202 222 243
203 223 243
204 223 243
205 224 243
206 224 243
207 225 243
208 225 243
209 226 243
210 226 243
211 227 243
212 227 243
213 228 243
214 228 243
215 229 243
216 229 243
217 230 243
218 230 243
219 231 243
220 231 243
221 232 243
222 232 243
223 233 243
224 233 243
225 234 243
226 234 243
227 235 243
228 235 243
229 236 243
230 236 243
231 237 243
232 237 243
233 238 243
234 238 243
235 239 243
236 239 243
237 240 243
238 240 243
239 241 243
240 241 243
241 242 243
242 242 243
243 243 243
244 243 243
245 244 243
246 244 243
247 245 243
248 245 243
249 246 243
250 246 243
251 247 243
252 247 243
253 248 243
254 248 243
0 122 244
1 122 244
2 123 244
3 123 244
4 124 244
5 124 244
6 125 244
7 125 244
8 126 244
9 126 244
10 127 244
11 127 244
12 128 244
13 128 244
14 129 244
15 129 244
16 130 244
17 130 244
18 131 244
19 131 244
20 132 244
21 132 244
22 133 244
23 133 244
24 134 244
25 134 244
26 135 244
27 135 244
28 136 244
29 136 244
30 137 244
31 137 244
32 138 244
33 138 244
34 139 244
35 139 244
36 140 244
37 140 244
38 141 244
39 141 244
40 142 244
41 142 244
42 143 244
43 143 244
44 144 244
45 144 244
46 145 244
47 145 244
48 146 244
49 146 244
50 147 244
51 147 244
52 148 244
53 148 244
54 149 244
55 149 244
56 150 244
57 150 244
58 151 244
59 151 244
60 152 244
61 152 244
62 153 244
63 153 244
64 154 244
65 154 244
66 155 244
67 155 244
68 156 244
69 156 244
70 157 244
71 157 244
72 158 244
73 158 244
74 159 244
75 159 244
76 160 244
77 160 244
78 161 244
79 161 244
80 162 244
81 162 244
82 163 244
83 163 244
84 164 244
85 164 244
86 165 244
87 165 244
88 166 244
89 166 244
90 167 244
91 167 244
92 168 244
93 168 244
94 169 244
95 169 244
96 170 244
97 170 244
98 171 244
99 171 244
100 172 244
0 0 0
0 0 0
0 0 0
0 0 0
0 0 0
0 0 0
0 0 0
0 0 0
0 0 0
0 0 0
0 0 0
0 0 0
0 0 0
0 0 0
0 0 0
0 0 0
0 0 0
0 0 0
0 0 0
0 0 0
0 0 0
0 0 0
0 0 0
0 0 0
0 0 0
0 0 0
0 0 0
0 0 0
0 0 0
0 0 0
0 0 0
0 0 0
0 0 0
0 0 0
0 0 0
0 0 0
0 0 0
0 0 0
0 0 0
0 0 0
0 0 0
0 0 0
0 0 0
0 0 0
0 0 0
0 0 0
0 0 0
0 0 0
0 0 0
0 0 0
0 0 0
0 0 0
0 0 0
154 199 244
155 199 244
156 200 244
157 200 244
158 201 244
159 201 244
160 202 244
161 202 244
162 203 244
163 203 244
164 204 244
165 204 244
166 205 244
167 205 244
168 206 244
169 206 244
170 207 244
171 207 244
172 208 244
173 208 244
174 209 244
175 209 244
176 210 244
177 210 244
178 211 244
179 211 244
180 212 244
181 212 244
182 213 244
183 213 244
184 214 244
185 214 244
186 215 244
187 215 244
188 216 244
189 216 244
190 217 244
191 217 244
192 218 244
193 218 244
194 219 244
195 219 244
196 220 244
197 220 244
198 221 244
199 221 244
200 222 244
201 222 244
202 223 244
203 223 244
204 224 244
205 224 244
206 225 244
207 225 244
208 226 244
209 226 244
210 227 244
211 227 244
212 228 244
213 228 244
214 229 244
215 229 244
216 230 244
217 230 244
218 231 244
219 231 244
220 232 244
221 232 244
222 233 244
223 233 244
224 234 244
225 234 244
226 235 244
227 235 244
228 236 244
229 236 244
230 237 244
231 237 244
232 238 244
233 238 244
234 239 244
235 239 244
236 240 244
237 240 244
238 241 244
239 241 244
240 242 244
241 242 244
242 243 244
243 243 244
244 244 244
245 244 244
246 245 244
247 245 244
248 246 244
249 246 244
250 247 244
251 247 244
252 248 244
253 248 244
254 249 244
0 122 245
1 123 245
2 123 245
3 124 245
4 124 245
5 125 245
6 125 245
7 126 245
8 126 245
9 127 245
10 127 245
11 128 245
12 128 245
13 129 245
14 129 245
15 130 245
16 130 245
17 131 245
18 131 245
19 132 245
20 132 245
21 133 245
22 133 245
23 134 245
24 134 245
25 135 245
26 135 245
27 136 245
28 136 245
29 137 245
30 137 245
31 138 245
32 138 245
33 139 245
34 139 245
35 140 245
36 140 245
37 141 245
38 141 245
39 142 245
40 142 245
41 143 245
42 143 245
43 144 245
44 144 245
45 145 245
46 145 245
47 146 245
48 146 245
49 147 245
50 147 245
51 148 245
52 148 245
53 149 245
54 149 245
55 150 245
56 150 245
57 151 245
58 151 245
59 152 245
60 152 245
61 153 245
62 153 245
63 154 245
64 154 245
65 155 245
66 155 245
67 156 245
68 156 245
69 157 245
70 157 245
71 158 245
72 158 245
73 159 245
74 159 245
75 160 245
76 160 245
77 161 245
78 161 245
79 162 245
80 162 245
81 163 245
82 163 245
83 164 245
84 164 245
85 165 245
86 165 245
87 166 245
88 166 245
89 167 245
90 167 245
91 168 245
92 168 245
93 169 245
94 169 245
95 170 245
96 170 245
97 171 245
98 171 245
99 172 245
100 172 245
101 173 245
102 173 245
103 174 245
104 174 245
105 175 245
0 0 0
0 0 0
0 0 0
0 0 0
0 0 0
0 0 0
0 0 0
0 0 0
0 0 0
0 0 0
0 0 0
0 0 0
0 0 0
0 0 0
0 0 0
0 0 0
0 0 0
0 0 0
0 0 0
0 0 0
0 0 0
0 0 0
0 0 0
0 0 0
0 0 0
0 0 0
0 0 0
0 0 0
0 0 0
0 0 0
0 0 0
0 0 0
0 0 0
0 0 0
0 0 0
0 0 0
0 0 0
0 0 0
0 0 0
0 0 0
0 0 0
0 0 0
0 0 0
149 197 245
150 197 245
151 198 245
152 198 245
153 199 245
154 199 245
155 200 245
156 200 245
157 201 245
158 201 245
159 202 245
160 202 245
161 203 245
162 203 245
163 204 245
164 204 245
165 205 245
166 205 245
167 206 245
168 206 245
169 207 245
170 207 245
171 208 245
172 208 245
173 209 245
174 209 245
175 210 245
176 210 245
177 211 245
178 211 245
179 212 245
180 212 245
181 213 245
182 213 245
183 214 245
184 214 245
185 215 245
186 215 245
187 216 245
188 216 245
189 217 245
190 217 245
191 218 245
192 218 245
193 219 245
194 219 245
195 220 245
196 220 245
197 221 245
198 221 245
199 222 245
200 222 245
201 223 245
202 223 245
203 224 245
204 224 245
205 225 245
206 225 245
207 226 245
208 226 245
209 227 245
210 227 245
211 228 245
212 228 245
213 229 245
214 229 245
215 230 245
216 230 245
217 231 245
218 231 245
219 232 245
220 232 245
221 233 245
222 233 245
223 234 245
224 234 245
225 235 245
226 235 245
227 236 245
228 236 245
229 237 245
230 237 245
231 238 245
232 238 245
233 239 245
234 239 245
235 240 245
236 240 245
237 241 245
238 241 245
239 242 245
240 242 245
241 243 245
242 243 245
243 244 245
244 244 245
245 245 245
246 245 245
247 246 245
248 246 245
249 247 245
250 247 245
251 248 245
252 248 245
253 249 245
254 249 245
0 123 246
1 123 246
2 124 246
3 124 246
4 125 246
5 125 246
6 126 246
7 126 246
8 127 246
9 127 246
10 128 246
11 128 246
12 129 246
13 129 246
14 130 246
15 130 246
16 131 246
17 131 246
18 132 246
19 132 246
20 133 246
21 133 246
22 134 246
23 134 246
24 135 246
25 135 246
26 136 246
27 136 246
28 137 246
29 137 246
30 138 246
31 138 246
32 139 246
33 139 246
34 140 246
35 140 246
36 141 246
37 141 246
38 142 246
39 142 246
40 143 246
41 143 246
42 144 246
43 144 246
44 145 246
45 145 246
46 146 246
47 146 246
48 147 246
49 147 246
50 148 246
51 148 246
52 149 246
53 149 246
54 150 246
55 150 246
56 151 246
57 151 246
58 152 246
59 152 246
60 153 246
61 153 246
62 154 246
63 154 246
64 155 246
65 155 246
66 156 246
67 156 246
68 157 246
69 157 246
70 158 246
71 158 246
72 159 246
73 159 246
74 160 246
75 160 246
76 161 246
77 161 246
78 162 246
79 162 246
80 163 246
81 163 246
82 164 246
83 164 246
84 165 246
85 165 246
86 166 246
87 166 246
88 167 246
89 167 246
90 168 246
91 168 246
92 169 246
93 169 246
94 170 246
95 170 246
96 171 246
97 171 246
98 172 246
99 172 246
100 173 246
101 173 246
102 174 246
103 174 246
104 175 246
105 175 246
106 176 246
107 176 246
108 177 246
109 177 246
110 178 246
111 178 246
0 0 0
0 0 0
0 0 0
0 0 0
0 0 0
0 0 0
0 0 0
0 0 0
0 0 0
0 0 0
0 0 0
0 0 0
0 0 0
0 0 0
0 0 0
0 0 0
0 0 0
0 0 0
0 0 0
0 0 0
0 0 0
0 0 0
0 0 0
0 0 0
0 0 0
0 0 0
0 0 0
0 0 0
0 0 0
0 0 0
0 0 0
143 194 246
144 195 246
145 195 246
146 196 246
147 196 246
148 197 246
149 197 246
150 198 246
151 198 246
152 199 246
153 199 246
154 200 246
155 200 246
156 201 246
157 201 246
158 202 246
159 202 246
160 203 246
161 203 246
162 204 246
163 204 246
164 205 246
165 205 246
166 206 246
167 206 246
168 207 246
169 207 246
170 208 246
171 208 246
172 209 246
173 209 246
174 210 246
175 210 246
176 211 246
177 211 246
178 212 246
179 212 246
180 213 246
181 213 246
182 214 246
183 214 246
184 215 246
185 215 246
186 216 246
187 216 246
188 217 246
189 217 246
190 218 246
191 218 246
192 219 246
193 219 246
194 220 246
195 220 246
196 221 246
197 221 246
198 222 246
199 222 246
200 223 246
201 223 246
202 224 246
203 224 246
204 225 246
205 225 246
206 226 246
207 226 246
208 227 246
209 227 246
210 228 246
211 228 246
212 229 246
213 229 246
214 230 246
215 230 246
216 231 246
217 231 246
218 232 246
219 232 246
220 233 246
221 233 246
222 234 246
223 234 246
224 235 246
225 235 246
226 236 246
227 236 246
228 237 246
229 237 246
230 238 246
231 238 246
232 239 246
233 239 246
234 240 246
235 240 246
236 241 246
237 241 246
238 242 246
239 242 246
240 243 246
241 243 246
242 244 246
243 244 246
244 245 246
245 245 246
246 246 246
247 246 246
248 247 246
249 247 246
250 248 246
251 248 246
252 249 246
253 249 246
254 250 246
0 123 247
1 124 247
2 124 247
3 125 247
4 125 247
5 126 247
6 126 247
7 127 247
8 127 247
9 128 247
10 128 247
11 129 247
12 129 247
13 130 247
14 130 247
15 131 247
16 131 247
17 132 247
18 132 247
19 133 247
20 133 247
21 134 247
22 134 247
23 135 247
24 135 247
25 136 247
26 136 247
27 137 247
28 137 247
29 138 247
30 138 247
31 139 247
32 139 247
33 140 247
34 140 247
35 141 247
36 141 247
37 142 247
38 142 247
39 143 247
40 143 247
41 144 247
42 144 247
43 145 247
44 145 247
45 146 247
46 146 247
47 147 247
48 147 247
49 148 247
50 148 247
51 149 247
52 149 247
53 150 247
54 150 247
55 151 247
56 151 247
57 152 247
58 152 247
59 153 247
60 153 247
61 154 247
62 154 247
63 155 247
64 155 247
65 156 247
66 156 247
67 157 247
68 157 247
69 158 247
70 158 247
71 159 247
72 159 247
73 160 247
74 160 247
75 161 247
76 161 247
77 162 247
78 162 247
79 163 247
80 163 247
81 164 247
82 164 247
83 165 247
84 165 247
85 166 247
86 166 247
87 167 247
88 167 247
89 168 247
90 168 247
91 169 247
92 169 247
93 170 247
94 170 247
95 171 247
96 171 247
97 172 247
98 172 247
99 173 247
100 173 247
101 174 247
102 174 247
103 175 247
104 175 247
105 176 247
106 176 247
107 177 247
108 177 247
109 178 247
110 178 247
111 179 247
112 179 247
113 180 247
114 180 247
115 181 247
116 181 247
117 182 247
118 182 247
119 183 247
120 183 247
121 184 247
122 184 247
123 185 247
124 185 247
125 186 247
126 186 247
127 187 247
128 187 247
129 188 247
130 188 247
131 189 247
132 189 247
133 190 247
134 190 247
135 191 247
136 191 247
137 192 247
138 192 247
139 193 247
140 193 247
141 194 247
142 194 247
143 195 247
144 195 247
145 196 247
146 196 247
147 197 247
148 197 247
149 198 247
150 198 247
151 199 247
152 199 247
153 200 247
154 200 247
155 201 247
156 201 247
157 202 247
158 202 247
159 203 247
160 203 247
161 204 247
162 204 247
163 205 247
164 205 247
165 206 247
166 206 247
167 207 247
168 207 247
169 208 247
170 208 247
171 209 247
172 209 247
173 210 247
174 210 247
175 211 247
176 211 247
177 212 247
178 212 247
179 213 247
180 213 247
181 214 247
182 214 247
183 215 247
184 215 247
185 216 247
186 216 247
187 217 247
188 217 247
189 218 247
190 218 247
191 219 247
192 219 247
193 220 247
194 220 247
195 221 247
196 221 247
197 222 247
198 222 247
199 223 247
200 223 247
201 224 247
202 224 247
203 225 247
204 225 247
205 226 247
206 226 247
207 227 247
208 227 247
209 228 247
210 228 247
211 229 247
212 229 247
213 230 247
214 230 247
215 231 247
216 231 247
217 232 247
218 232 247
219 233 247
220 233 247
221 234 247
222 234 247
223 235 247
224 235 247
225 236 247
226 236 247
227 237 247
228 237 247
229 238 247
230 238 247
231 239 247
232 239 247
233 240 247
234 240 247
235 241 247
236 241 247
237 242 247
238 242 247
239 243 247
240 243 247
241 244 247
242 244 247
243 245 247
244 245 247
245 246 247
246 246 247
247 247 247
248 247 247
249 248 247
250 248 247
251 249 247
252 249 247
253 250 247
254 250 247
0 124 248
1 124 248
2 125 248
3 125 248
4 126 248
5 126 248
6 127 248
7 127 248
8 128 248
9 128 248
10 129 248
11 129 248
12 130 248
13 130 248
14 131 248
15 131 248
16 132 248
17 132 248
18 133 248
19 133 248
20 134 248
21 134 248
22 135 248
23 135 248
24 136 248
25 136 248
26 137 248
27 137 248
28 138 248
29 138 248
30 139 248
31 139 248
32 140 248
33 140 248
34 141 248
35 141 248
36 142 248
37 142 248
38 143 248
39 143 248
40 144 248
41 144 248
42 145 248
43 145 248
44 146 248
45 146 248
46 147 248
47 147 248
48 148 248
49 148 248
50 149 248
51 149 248
52 150 248
53 150 248
54 151 248
55 151 248
56 152 248
57 152 248
58 153 248
59 153 248
60 154 248
61 154 248
62 155 248
63 155 248
64 156 248
65 156 248
66 157 248
67 157 248
68 158 248
69 158 248
70 159 248
71 159 248
72 160 248
73 160 248
74 161 248
75 161 248
76 162 248
77 162 248
78 163 248
79 163 248
80 164 248
81 164 248
82 165 248
83 165 248
84 166 248
85 166 248
86 167 248
87 167 248
88 168 248
89 168 248
90 169 248
91 169 248
92 170 248
93 170 248
94 171 248
95 171 248
96 172 248
97 172 248
98 173 248
99 173 248
100 174 248
101 174 248
102 175 248
103 175 248
104 176 248
105 176 248
106 177 248
107 177 248
108 178 248
109 178 248
110 179 248
111 179 248
112 180 248
113 180 248
114 181 248
115 181 248
116 182 248
117 182 248
118 183 248
119 183 248
120 184 248
121 184 248
122 185 248
123 185 248
124 186 248
125 186 248
126 187 248
127 187 248
128 188 248
129 188 248
130 189 248
131 189 248
132 190 248
133 190 248
134 191 248
135 191 248
136 192 248
137 192 248
138 193 248
139 193 248
140 194 248
141 194 248
142 195 248
143 195 248
144 196 248
145 196 248
146 197 248
147 197 248
148 198 248
149 198 248
150 199 248
151 199 248
152 200 248
153 200 248
154 201 248
155 201 248
156 202 248
157 202 248
158 203 248
159 203 248
160 204 248
161 204 248
162 205 248
163 205 248
164 206 248
165 206 248
166 207 248
167 207 248
168 208 248
169 208 248
170 209 248
171 209 248
172 210 248
173 210 248
174 211 248
175 211 248
176 212 248
177 212 248
178 213 248
179 213 248
180 214 248
181 214 248
182 215 248
183 215 248
184 216 248
185 216 248
186 217 248
187 217 248
188 218 248
189 218 248
190 219 248
191 219 248
192 220 248
193 220 248
194 221 248
195 221 248
196 222 248
197 222 248
198 223 248
199 223 248
200 224 248
201 224 248
202 225 248
203 225 248
204 226 248
205 226 248
206 227 248
207 227 248
208 228 248
209 228 248
210 229 248
211 229 248
212 230 248
213 230 248
214 231 248
215 231 248
216 232 248
217 232 248
218 233 248
219 233 248
220 234 248
221 234 248
222 235 248
223 235 248
224 236 248
225 236 248
226 237 248
227 237 248
228 238 248
229 238 248
230 239 248
231 239 248
232 240 248
233 240 248
234 241 248
235 241 248
236 242 248
237 242 248
238 243 248
239 243 248
240 244 248
241 244 248
242 245 248
243 245 248
244 246 248
245 246 248
246 247 248
247 247 248
248 248 248
249 248 248
250 249 248
251 249 248
252 250 248
253 250 248
254 251 248
0 124 249
1 125 249
2 125 249
3 126 249
4 126 249
5 127 249
6 127 249
7 128 249
8 128 249
9 129 249
10 129 249
11 130 249
12 130 249
13 131 249
14 131 249
15 132 249
16 132 249
17 133 249
18 133 249
19 134 249
20 134 249
21 135 249
22 135 249
23 136 249
24 136 249
25 137 249
26 137 249
27 138 249
28 138 249
29 139 249
30 139 249
31 140 249
32 140 249
33 141 249
34 141 249
35 142 249
36 142 249
37 143 249
38 143 249
39 144 249
40 144 249
41 145 249
42 145 249
43 146 249
44 146 249
45 147 249
46 147 249
47 148 249
48 148 249
49 149 249
50 149 249
51 150 249
52 150 249
53 151 249
54 151 249
55 152 249
56 152 249
57 153 249
58 153 249
59 154 249
60 154 249
61 155 249
62 155 249
63 156 249
64 156 249
65 157 249
66 157 249
67 158 249
68 158 249
69 159 249
70 159 249
71 160 249
72 160 249
73 161 249
74 161 249
75 162 249
76 162 249
77 163 249
78 163 249
79 164 249
80 164 249
81 165 249
82 165 249
83 166 249
84 166 249
85 167 249
86 167 249
87 168 249
88 168 249
89 169 249
90 169 249
91 170 249
92 170 249
93 171 249
94 171 249
95 172 249
96 172 249
97 173 249
98 173 249
99 174 249
100 174 249
101 175 249
102 175 249
103 176 249
104 176 249
105 177 249
106 177 249
107 178 249
108 178 249
109 179 249
110 179 249
111 180 249
112 180 249
113 181 249
114 181 249
115 182 249
116 182 249
117 183 249
118 183 249
119 184 249
120 184 249
121 185 249
122 185 249
123 186 249
124 186 249
125 187 249
126 187 249
127 188 249
128 188 249
129 189 249
130 189 249
131 190 249
132 190 249
133 191 249
134 191 249
135 192 249
136 192 249
137 193 249
138 193 249
139 194 249
140 194 249
141 195 249
142 195 249
143 196 249
144 196 249
145 197 249
146 197 249
147 198 249
148 198 249
149 199 249
150 199 249
151 200 249
152 200 249
153 201 249
154 201 249
155 202 249
156 202 249
157 203 249
158 203 249
159 204 249
160 204 249
161 205 249
162 205 249
163 206 249
164 206 249
165 207 249
166 207 249
167 208 249
168 208 249
169 209 249
170 209 249
171 210 249
172 210 249
173 211 249
174 211 249
175 212 249
176 212 249
177 213 249
178 213 249
179 214 249
180 214 249
181 215 249
182 215 249
183 216 249
184 216 249
185 217 249
186 217 249
187 218 249
188 218 249
189 219 249
190 219 249
191 220 249
192 220 249
193 221 249
194 221 249
195 222 249
196 222 249
197 223 249
198 223 249
199 224 249
200 224 249
201 225 249
202 225 249
203 226 249
204 226 249
205 227 249
206 227 249
207 228 249
208 228 249
209 229 249
210 229 249
211 230 249
212 230 249
213 231 249
214 231 249
215 232 249
216 232 249
217 233 249
218 233 249
219 234 249
220 234 249
221 235 249
222 235 249
223 236 249
224 236 249
225 237 249
226 237 249
227 238 249
228 238 249
229 239 249
230 239 249
231 240 249
232 240 249
233 241 249
234 241 249
235 242 249
236 242 249
237 243 249
238 243 249
239 244 249
240 244 249
241 245 249
242 245 249
243 246 249
244 246 249
245 247 249
246 247 249
247 248 249
248 248 249
249 249 249
250 249 249
251 250 249
252 250 249
253 251 249
254 251 249
0 125 250
1 125 250
2 126 250
3 126 250
4 127 250
5 127 250
6 128 250
7 128 250
8 129 250
9 129 250
10 130 250
11 130 250
12 131 250
13 131 250
14 132 250
15 132 250
16 133 250
17 133 250
18 134 250
19 134 250
20 135 250
21 135 250
22 136 250
23 136 250
24 137 250
25 137 250
26 138 250
27 138 250
28 139 250
29 139 250
30 140 250
31 140 250
32 141 250
33 141 250
34 142 250
35 142 250
36 143 250
37 143 250
38 144 250
39 144 250
40 145 250
41 145 250
42 146 250
43 146 250
44 147 250
45 147 250
46 148 250
47 148 250
48 149 250
49 149 250
50 150 250
51 150 250
52 151 250
53 151 250
54 152 250
55 152 250
56 153 250
57 153 250
58 154 250
59 154 250
60 155 250
61 155 250
62 156 250
63 156 250
64 157 250
65 157 250
66 158 250
67 158 250
68 159 250
69 159 250
70 160 250
71 160 250
72 161 250
73 161 250
74 162 250
75 162 250
76 163 250
77 163 250
78 164 250
79 164 250
80 165 250
81 165 250
82 166 250
83 166 250
84 167 250
85 167 250
86 168 250
87 168 250
88 169 250
89 169 250
90 170 250
91 170 250
92 171 250
93 171 250
94 172 250
95 172 250
96 173 250
97 173 250
98 174 250
99 174 250
100 175 250
101 175 250
102 176 250
103 176 250
104 177 250
105 177 250
106 178 250
107 178 250
108 179 250
109 179 250
110 180 250
111 180 250
112 181 250
113 181 250
114 182 250
115 182 250
116 183 250
117 183 250
118 184 250
119 184 250
120 185 250
121 185 250
122 186 250
123 186 250
124 187 250
125 187 250
126 188 250
127 188 250
128 189 250
129 189 250
130 190 250
131 190 250
132 191 250
133 191 250
134 192 250
135 192 250
136 193 250
137 193 250
138 194 250
139 194 250
140 195 250
141 195 250
142 196 250
143 196 250
144 197 250
145 197 250
146 198 250
147 198 250
148 199 250
149 199 250
150 200 250
151 200 250
152 201 250
153 201 250
154 202 250
155 202 250
156 203 250
157 203 250
158 204 250
159 204 250
160 205 250
161 205 250
162 206 250
163 206 250
164 207 250
165 207 250
166 208 250
167 208 250
168 209 250
169 209 250
170 210 250
171 210 250
172 211 250
173 211 250
174 212 250
175 212 250
176 213 250
177 213 250
178 214 250
179 214 250
180 215 250
181 215 250
182 216 250
183 216 250
184 217 250
185 217 250
186 218 250
187 218 250
188 219 250
189 219 250
190 220 250
191 220 250
192 221 250
193 221 250
194 222 250
195 222 250
196 223 250
197 223 250
198 224 250
199 224 250
200 225 250
201 225 250
202 226 250
203 226 250
204 227 250
205 227 250
206 228 250
207 228 250
208 229 250
209 229 250
210 230 250
211 230 250
212 231 250
213 231 250
214 232 250
215 232 250
216 233 250
217 233 250
218 234 250
219 234 250
220 235 250
221 235 250
222 236 250
223 236 250
224 237 250
225 237 250
226 238 250
227 238 250
228 239 250
229 239 250
230 240 250
231 240 250
232 241 250
233 241 250
234 242 250
235 242 250
236 243 250
237 243 250
238 244 250
239 244 250
240 245 250
241 245 250
242 246 250
243 246 250
244 247 250
245 247 250
246 248 250
247 248 250
248 249 250
249 249 250
250 250 250
251 250 250
252 251 250
253 251 250
254 252 250
0 125 251
1 126 251
2 126 251
3 127 251
4 127 251
5 128 251
6 128 251
7 129 251
8 129 251
9 130 251
10 130 251
11 131 251
12 131 251
13 132 251
14 132 251
15 133 251
16 133 251
17 134 251
18 134 251
19 135 251
20 135 251
21 136 251
22 136 251
23 137 251
24 137 251
25 138 251
26 138 251
27 139 251
28 139 251
29 140 251
30 140 251
31 141 251
32 141 251
33 142 251
34 142 251
35 143 251
36 143 251
37 144 251
38 144 251
39 145 251
40 145 251
41 146 251
42 146 251
43 147 251
44 147 251
45 148 251
46 148 251
47 149 251
48 149 251
49 150 251
50 150 251
51 151 251
52 151 251
53 152 251
54 152 251
55 153 251
56 153 251
57 154 251
58 154 251
59 155 251
60 155 251
61 156 251
62 156 251
63 157 251
64 157 251
65 158 251
66 158 251
67 159 251
68 159 251
69 160 251
70 160 251
71 161 251
72 161 251
73 162 251
74 162 251
75 163 251
76 163 251
77 164 251
78 164 251
79 165 251
80 165 251
81 166 251
82 166 251
83 167 251
84 167 251
85 168 251
86 168 251
87 169 251
88 169 251
89 170 251
90 170 251
91 171 251
92 171 251
93 172 251
94 172 251
95 173 251
96 173 251
97 174 251
98 174 251
99 175 251
100 175 251
101 176 251
102 176 251
103 177 251
104 177 251
105 178 251
106 178 251
107 179 251
108 179 251
109 180 251
110 180 251
111 181 251
112 181 251
113 182 251
114 182 251
115 183 251
116 183 251
117 184 251
118 184 251
119 185 251
120 185 251
121 186 251
122 186 251
123 187 251
124 187 251
125 188 251
126 188 251
127 189 251
128 189 251
129 190 251
130 190 251
131 191 251
132 191 251
133 192 251
134 192 251
135 193 251
136 193 251
137 194 251
138 194 251
139 195 251
140 195 251
141 196 251
142 196 251
143 197 251
144 197 251
145 198 251
146 198 251
147 199 251
148 199 251
149 200 251
150 200 251
151 201 251
152 201 251
153 202 251
154 202 251
155 203 251
156 203 251
157 204 251
158 204 251
159 205 251
160 205 251
161 206 251
162 206 251
163 207 251
164 207 251
165 208 251
166 208 251
167 209 251
168 209 251
169 210 251
170 210 251
171 211 251
172 211 251
173 212 251
174 212 251
175 213 251
176 213 251
177 214 251
178 214 251
179 215 251
180 215 251
181 216 251
182 216 251
183 217 251
184 217 251
185 218 251
186 218 251
187 219 251
188 219 251
189 220 251
190 220 251
191 221 251
192 221 251
193 222 251
194 222 251
195 223 251
196 223 251
197 224 251
198 224 251
199 225 251
200 225 251
201 226 251
202 226 251
203 227 251
204 227 251
205 228 251
206 228 251
207 229 251
208 229 251
209 230 251
210 230 251
211 231 251
212 231 251
213 232 251
214 232 251
215 233 251
216 233 251
217 234 251
218 234 251
219 235 251
220 235 251
221 236 251
222 236 251
223 237 251
224 237 251
225 238 251
226 238 251
227 239 251
228 239 251
229 240 251
230 240 251
231 241 251
232 241 251
233 242 251
234 242 251
235 243 251
236 243 251
237 244 251
238 244 251
239 245 251
240 245 251
241 246 251
242 246 251
243 247 251
244 247 251
245 248 251
246 248 251
247 249 251
248 249 251
249 250 251
250 250 251
251 251 251
252 251 251
253 252 251
254 252 251
0 126 252
1 126 252
2 127 252
3 127 252
4 128 252
5 128 252
6 129 252
7 129 252
8 130 252
9 130 252
10 131 252
11 131 252
12 132 252
13 132 252
14 133 252
15 133 252
16 134 252
17 134 252
18 135 252
19 135 252
20 136 252
21 136 252
22 137 252
23 137 252
24 138 252
25 138 252
26 139 252
27 139 252
28 140 252
29 140 252
30 141 252
31 141 252
32 142 252
33 142 252
34 143 252
35 143 252
36 144 252
37 144 252
38 145 252
39 145 252
40 146 252
41 146 252
42 147 252
43 147 252
44 148 252
45 148 252
46 149 252
47 149 252
48 150 252
49 150 252
50 151 252
51 151 252
52 152 252
53 152 252
54 153 252
55 153 252
56 154 252
57 154 252
58 155 252
59 155 252
60 156 252
61 156 252
62 157 252
63 157 252
64 158 252
65 158 252
66 159 252
67 159 252
68 160 252
69 160 252
70 161 252
71 161 252
72 162 252
73 162 252
74 163 252
75 163 252
76 164 252
77 164 252
78 165 252
79 165 252
80 166 252
81 166 252
82 167 252
83 167 252
84 168 252
85 168 252
86 169 252
87 169 252
88 170 252
89 170 252
90 171 252
91 171 252
92 172 252
93 172 252
94 173 252
95 173 252
96 174 252
97 174 252
98 175 252
99 175 252
100 176 252
101 176 252
102 177 252
103 177 252
104 178 252
105 178 252
106 179 252
107 179 252
108 180 252
109 180 252
110 181 252
111 181 252
112 182 252
113 182 252
114 183 252
115 183 252
116 184 252
117 184 252
118 185 252
119 185 252
120 186 252
121 186 252
122 187 252
123 187 252
124 188 252
125 188 252
126 189 252
127 189 252
128 190 252
129 190 252
130 191 252
131 191 252
132 192 252
133 192 252
134 193 252
135 193 252
136 194 252
137 194 252
138 195 252
139 195 252
140 196 252
141 196 252
142 197 252
143 197 252
144 198 252
145 198 252
146 199 252
147 199 252
148 200 252
149 200 252
150 201 252
151 201 252
152 202 252
153 202 252
154 203 252
155 203 252
156 204 252
157 204 252
158 205 252
159 205 252
160 206 252
161 206 252
162 207 252
163 207 252
164 208 252
165 208 252
166 209 252
167 209 252
168 210 252
169 210 252
170 211 252
171 211 252
172 212 252
173 212 252
174 213 252
175 213 252
176 214 252
177 214 252
178 215 252
179 215 252
180 216 252
181 216 252
182 217 252
183 217 252
184 218 252
185 218 252
186 219 252
187 219 252
188 220 252
189 220 252
190 221 252
191 221 252
192 222 252
193 222 252
194 223 252
195 223 252
196 224 252
197 224 252
198 225 252
199 225 252
200 226 252
201 226 252
202 227 252
203 227 252
204 228 252
205 228 252
206 229 252
207 229 252
208 230 252
209 230 252
210 231 252
211 231 252
212 232 252
213 232 252
214 233 252
215 233 252
216 234 252
217 234 252
218 235 252
219 235 252
220 236 252
221 236 252
222 237 252
223 237 252
224 238 252
225 238 252
226 239 252
227 239 252
228 240 252
229 240 252
230 241 252
231 241 252
232 242 252
233 242 252
234 243 252
235 243 252
236 244 252
237 244 252
238 245 252
239 245 252
240 246 252
241 246 252
242 247 252
243 247 252
244 248 252
245 248 252
246 249 252
247 249 252
248 250 252
249 250 252
250 251 252
251 251 252
252 252 252
253 252 252
254 253 252
0 126 253
1 127 253
2 127 253
3 128 253
4 128 253
5 129 253
6 129 253
7 130 253
8 130 253
9 131 253
10 131 253
11 132 253
12 132 253
13 133 253
14 133 253
15 134 253
16 134 253
17 135 253
18 135 253
19 136 253
20 136 253
21 137 253
22 137 253
23 138 253
24 138 253
25 139 253
26 139 253
27 140 253
28 140 253
29 141 253
30 141 253
31 142 253
32 142 253
33 143 253
34 143 253
35 144 253
36 144 253
37 145 253
38 145 253
39 146 253
40 146 253
41 147 253
42 147 253
43 148 253
44 148 253
45 149 253
46 149 253
47 150 253
48 150 253
49 151 253
50 151 253
51 152 253
52 152 253
53 153 253
54 153 253
55 154 253
56 154 253
57 155 253
58 155 253
59 156 253
60 156 253
61 157 253
62 157 253
63 158 253
64 158 253
65 159 253
66 159 253
67 160 253
68 160 253
69 161 253
70 161 253
71 162 253
72 162 253
73 163 253
74 163 253
75 164 253
76 164 253
77 165 253
78 165 253
79 166 253
80 166 253
81 167 253
82 167 253
83 168 253
84 168 253
85 169 253
86 169 253
87 170 253
88 170 253
89 171 253
90 171 253
91 172 253
92 172 253
93 173 253
94 173 253
95 174 253
96 174 253
97 175 253
98 175 253
99 176 253
100 176 253
101 177 253
102 177 253
103 178 253
104 178 253
105 179 253
106 179 253
107 180 253
108 180 253
109 181 253
110 181 253
111 182 253
112 182 253
113 183 253
114 183 253
115 184 253
116 184 253
117 185 253
118 185 253
119 186 253
120 186 253
121 187 253
122 187 253
123 188 253
124 188 253
125 189 253
126 189 253
127 190 253
128 190 253
129 191 253
130 191 253
131 192 253
132 192 253
133 193 253
134 193 253
135 194 253
136 194 253
137 195 253
138 195 253
139 196 253
140 196 253
141 197 253
142 197 253
143 198 253
144 198 253
145 199 253
146 199 253
147 200 253
148 200 253
149 201 253
150 201 253
151 202 253
152 202 253
153 203 253
154 203 253
155 204 253
156 204 253
157 205 253
158 205 253
159 206 253
160 206 253
161 207 253
162 207 253
163 208 253
164 208 253
165 209 253
166 209 253
167 210 253
168 210 253
169 211 253
170 211 253
171 212 253
172 212 253
173 213 253
174 213 253
175 214 253
176 214 253
177 215 253
178 215 253
179 216 253
180 216 253
181 217 253
182 217 253
183 218 253
184 218 253
185 219 253
186 219 253
187 220 253
188 220 253
189 221 253
190 221 253
191 222 253
192 222 253
193 223 253
194 223 253
195 224 253
196 224 253
197 225 253
198 225 253
199 226 253
200 226 253
201 227 253
202 227 253
203 228 253
204 228 253
205 229 253
206 229 253
207 230 253
208 230 253
209 231 253
210 231 253
211 232 253
212 232 253
213 233 253
214 233 253
215 234 253
216 234 253
217 235 253
218 235 253
219 236 253
220 236 253
221 237 253
222 237 253
223 238 253
224 238 253
225 239 253
226 239 253
227 240 253
228 240 253
229 241 253
230 241 253
231 242 253
232 242 253
233 243 253
234 243 253
235 244 253
236 244 253
237 245 253
238 245 253
239 246 253
240 246 253
241 247 253
242 247 253
243 248 253
244 248 253
245 249 253
246 249 253
247 250 253
248 250 253
249 251 253
250 251 253
251 252 253
252 252 253
253 253 253
254 253 253
0 127 254
1 127 254
2 128 254
3 128 254
4 129 254
5 129 254
6 130 254
7 130 254
8 131 254
9 131 254
10 132 254
11 132 254
12 133 254
13 133 254
14 134 254
15 134 254
16 135 254
17 135 254
18 136 254
19 136 254
20 137 254
21 137 254
22 138 254
23 138 254
24 139 254
25 139 254
26 140 254
27 140 254
28 141 254
29 141 254
30 142 254
31 142 254
32 143 254
33 143 254
34 144 254
35 144 254
36 145 254
37 145 254
38 146 254
39 146 254
40 147 254
41 147 254
42 148 254
43 148 254
44 149 254
45 149 254
46 150 254
47 150 254
48 151 254
49 151 254
50 152 254
51 152 254
52 153 254
53 153 254
54 154 254
55 154 254
56 155 254
57 155 254
58 156 254
59 156 254
60 157 254
61 157 254
62 158 254
63 158 254
64 159 254
65 159 254
66 160 254
67 160 254
68 161 254
69 161 254
70 162 254
71 162 254
72 163 254
73 163 254
74 164 254
75 164 254
76 165 254
77 165 254
78 166 254
79 166 254
80 167 254
81 167 254
82 168 254
83 168 254
84 169 254
85 169 254
86 170 254
87 170 254
88 171 254
89 171 254
90 172 254
91 172 254
92 173 254
93 173 254
94 174 254
95 174 254
96 175 254
97 175 254
98 176 254
99 176 254
100 177 254
101 177 254
102 178 254
103 178 254
104 179 254
105 179 254
106 180 254
107 180 254
108 181 254
109 181 254
110 182 254
111 182 254
112 183 254
113 183 254
114 184 254
115 184 254
116 185 254
117 185 254
118 186 254
119 186 254
120 187 254
121 187 254
122 188 254
123 188 254
124 189 254
125 189 254
126 190 254
127 190 254
128 191 254
129 191 254
130 192 254
131 192 254
132 193 254
133 193 254
134 194 254
135 194 254
136 195 254
137 195 254
138 196 254
139 196 254
140 197 254
141 197 254
142 198 254
143 198 254
144 199 254
145 199 254
146 200 254
147 200 254
148 201 254
149 201 254
150 202 254
151 202 254
152 203 254
153 203 254
154 204 254
155 204 254
156 205 254
157 205 254
158 206 254
159 206 254
160 207 254
161 207 254
162 208 254
163 208 254
164 209 254
165 209 254
166 210 254
167 210 254
168 211 254
169 211 254
170 212 254
171 212 254
172 213 254
173 213 254
174 214 254
175 214 254
176 215 254
177 215 254
178 216 254
179 216 254
180 217 254
181 217 254
182 218 254
183 218 254
184 219 254
185 219 254
186 220 254
187 220 254
188 221 254
189 221 254
190 222 254
191 222 254
192 223 254
193 223 254
194 224 254
195 224 254
196 225 254
197 225 254
198 226 254
199 226 254
200 227 254
201 227 254
202 228 254
203 228 254
204 229 254
205 229 254
206 230 254
207 230 254
208 231 254
209 231 254
210 232 254
211 232 254
212 233 254
213 233 254
214 234 254
215 234 254
216 235 254
217 235 254
218 236 254
219 236 254
220 237 254
221 237 254
222 238 254
223 238 254
224 239 254
225 239 254
226 240 254
227 240 254
228 241 254
229 241 254
230 242 254
231 242 254
232 243 254
233 243 254
234 244 254
235 244 254
236 245 254
237 245 254
238 246 254
239 246 254
240 247 254
241 247 254
242 248 254
243 248 254
244 249 254
245 249 254
246 250 254
247 250 254
248 251 254
249 251 254
250 252 254
251 252 254
252 253 254
253 253 254
254 254 254
